%
(Champfer)
(T1  D=0.5 CR=0 TAPER=45deg - ZMIN=-0.16 - chamfer mill)
G90
G17
G20
G28 G91 Z0
G90

(2D Chamfer1)
M9
T1 M6
S5000 M3
G54
M9
G0 X6.47 Y2.6107
Z0.6
Z0.2
G1 Z0.08 F13.12
Z-0.16
X6.52 F39.37
Y2.9699
X0.58
Y2.38
X5.85
G2 X5.9301 Y2.3 I0 J-0.0801
G1 Y1.1673
X6.52
Y2.6107
X6.47
G0 Z0.2
X11.3699 Y2.305
G1 Z0.08 F13.12
Z-0.16
X11.42 F39.37
Y2.9699
X6.93
Y1.64
X11.42
Y2.305
X11.3699
G0 Z0.2
Y0.91
G1 Z0.08 F13.12
Z-0.16
X11.42 F39.37
G3 X10.76 I-0.33 J0
X11.42 I0.33 J0
G1 X11.3699
G0 Z0.2
X10.3699 Y0.9169
G1 Z0.08 F13.12
Z-0.16
X10.4199 Y0.9181 F39.37
G3 X9.7601 Y0.9019 I-0.3299 J-0.0081
X10.4199 Y0.9181 I0.3299 J0.0081
G1 X10.3699 Y0.9169
G0 Z0.2
X9.37 Y0.91
G1 Z0.08 F13.12
Z-0.16
X9.4199 F39.37
G3 X8.7601 I-0.3299 J0
X9.4199 I0.3299 J0
G1 X9.37
G0 Z0.2
X8.3699
G1 Z0.08 F13.12
Z-0.16
X8.4199 F39.37
G3 X7.7601 I-0.33 J0
X8.4199 I0.3299 J0
G1 X8.3699
G0 Z0.2
X0.63 Y0.592
G1 Z0.08 F13.12
Z-0.16
X0.58 F39.37
Y0.58
X6.67
Y0.6199
X0.58
Y0.592
X0.63
G0 Z0.2
X3.87 Y1.05
G1 Z0.08 F13.12
Z-0.16
X3.9199 F39.37
Y1.0699
X0.58
Y1.0301
X3.9199
Y1.05
X3.87
G0 Z0.2
X0.63 Y1.519
G1 Z0.08 F13.12
Z-0.16
X0.58 F39.37
Y1.48
X3.2199
Y1.52
X0.58
Y1.519
X0.63
G0 Z0.2
X3.17 Y1.95
G1 Z0.08 F13.12
Z-0.16
X3.2199 F39.37
Y1.97
X0.58
Y1.93
X3.2199
Y1.95
X3.17
G0 Z0.6
M9
G28 G91 Z0
G28 X0 Y0
M30
%
