%
(Finishing)
(T1  D=0.125 CR=0 - ZMIN=-0.5 - flat end mill)
G90
G17
G20
G28 G91 Z0
G90

(2D Contour2)
M9
T1 M6
S5000 M3
G54
M9
G0 X6.52 Y2.5982
Z0.6
Z0.2894
G1 Z-0.2375 F13.12
G18 G2 X6.5325 Z-0.25 I0.0125 K0
G1 X6.545 F39.37
G17 G3 X6.5575 Y2.6107 I0 J0.0125
G1 Y3.0075
X0.5425
Y2.3425
X5.85
G2 X5.8925 Y2.3 I0 J-0.0425
G1 Y1.1297
X6.5575
Y2.6107
G3 X6.545 Y2.6232 I-0.0125 J0
G1 X6.5325
G18 G3 X6.52 Z-0.2375 I0 K0.0125
G0 Z0.6
X11.42 Y2.2925
Z0.2894
G1 Z-0.2375 F13.12
G2 X11.4325 Z-0.25 I0.0125 K0
G1 X11.445 F39.37
G17 G3 X11.4575 Y2.305 I0 J0.0125
G1 Y3.0075
X6.8925
Y1.6025
X11.4575
Y2.305
G3 X11.445 Y2.3175 I-0.0125 J0
G1 X11.4325
G18 G3 X11.42 Z-0.2375 I0 K0.0125
G0 Z0.2
Y2.2925
G1 Z0.0394 F13.12
Z-0.4875
G2 X11.4325 Z-0.5 I0.0125 K0
G1 X11.445 F39.37
G17 G3 X11.4575 Y2.305 I0 J0.0125
G1 Y3.0075
X6.8925
Y1.6025
X11.4575
Y2.305
G3 X11.445 Y2.3175 I-0.0125 J0
G1 X11.4325
G18 G3 X11.42 Z-0.4875 I0 K0.0125
G0 Z0.2894
Y0.8975
G1 Z-0.2375 F13.12
G2 X11.4325 Z-0.25 I0.0125 K0
G1 X11.445 F39.37
G17 G3 X11.4575 Y0.91 I0 J0.0125
X10.7225 I-0.3675 J0
X11.4575 I0.3675 J0
X11.445 Y0.9225 I-0.0125 J0
G1 X11.4325
G18 G3 X11.42 Z-0.2375 I0 K0.0125
G0 Z0.2
Y0.8975
G1 Z0.0394 F13.12
Z-0.4875
G2 X11.4325 Z-0.5 I0.0125 K0
G1 X11.445 F39.37
G17 G3 X11.4575 Y0.91 I0 J0.0125
X10.7225 I-0.3675 J0
X11.4575 I0.3675 J0
X11.445 Y0.9225 I-0.0125 J0
G1 X11.4325
G18 G3 X11.42 Z-0.4875 I0 K0.0125
G0 Z0.2894
X10.42 Y0.8975
G1 Z-0.2375 F13.12
G2 X10.4325 Z-0.25 I0.0125 K0
G1 X10.445 F39.37
G17 G3 X10.4575 Y0.91 I0 J0.0125
X9.7225 I-0.3675 J0
X10.4575 I0.3675 J0
X10.445 Y0.9225 I-0.0125 J0
G1 X10.4325
G18 G3 X10.42 Z-0.2375 I0 K0.0125
G0 Z0.2
Y0.8975
G1 Z0.0394 F13.12
Z-0.4875
G2 X10.4325 Z-0.5 I0.0125 K0
G1 X10.445 F39.37
G17 G3 X10.4575 Y0.91 I0 J0.0125
X9.7225 I-0.3675 J0
X10.4575 I0.3675 J0
X10.445 Y0.9225 I-0.0125 J0
G1 X10.4325
G18 G3 X10.42 Z-0.4875 I0 K0.0125
G0 Z0.2894
X9.4202 Y0.9056
G1 Z-0.2375 F13.12
X9.4205 Z-0.2403
X9.4214 Z-0.2429
X9.4229 Y0.9057 Z-0.2453
X9.4249 Z-0.2473
X9.4273 Y0.9058 Z-0.2488
X9.4299 Z-0.2497
X9.4327 Y0.9059 Z-0.25
X9.4452 Y0.9062 F39.37
G17 G3 X9.4574 Y0.919 I-0.0003 J0.0125
X8.7226 Y0.901 I-0.3674 J-0.009
X9.4575 Y0.91 I0.3674 J0.009
X9.4574 Y0.919 I-0.3675 J0
X9.4446 Y0.9312 I-0.0125 J-0.0003
G1 X9.4321 Y0.9309
X9.4293 Y0.9308 Z-0.2497
X9.4267 Z-0.2488
X9.4243 Y0.9307 Z-0.2473
X9.4223 Z-0.2453
X9.4208 Y0.9306 Z-0.2429
X9.4199 Z-0.2403
X9.4196 Z-0.2375
G0 Z0.2
X9.4202 Y0.9056
G1 Z0.0394 F13.12
Z-0.4875
X9.4205 Z-0.4903
X9.4214 Z-0.4929
X9.4229 Y0.9057 Z-0.4953
X9.4249 Z-0.4973
X9.4273 Y0.9058 Z-0.4988
X9.4299 Z-0.4997
X9.4327 Y0.9059 Z-0.5
X9.4452 Y0.9062 F39.37
G3 X9.4574 Y0.919 I-0.0003 J0.0125
X8.7226 Y0.901 I-0.3674 J-0.009
X9.4575 Y0.91 I0.3674 J0.009
X9.4574 Y0.919 I-0.3675 J0
X9.4446 Y0.9312 I-0.0125 J-0.0003
G1 X9.4321 Y0.9309
X9.4293 Y0.9308 Z-0.4997
X9.4267 Z-0.4988
X9.4243 Y0.9307 Z-0.4973
X9.4223 Z-0.4953
X9.4208 Y0.9306 Z-0.4929
X9.4199 Z-0.4903
X9.4196 Z-0.4875
G0 Z0.2894
X8.42 Y0.8975
G1 Z-0.2375 F13.12
G18 G2 X8.4325 Z-0.25 I0.0125 K0
G1 X8.445 F39.37
G17 G3 X8.4575 Y0.91 I0 J0.0125
X7.7225 I-0.3675 J0
X8.4575 I0.3675 J0
X8.445 Y0.9225 I-0.0125 J0
G1 X8.4325
G18 G3 X8.42 Z-0.2375 I0 K0.0125
G0 Z0.2
Y0.8975
G1 Z0.0394 F13.12
Z-0.4875
G2 X8.4325 Z-0.5 I0.0125 K0
G1 X8.445 F39.37
G17 G3 X8.4575 Y0.91 I0 J0.0125
X7.7225 I-0.3675 J0
X8.4575 I0.3675 J0
X8.445 Y0.9225 I-0.0125 J0
G1 X8.4325
G18 G3 X8.42 Z-0.4875 I0 K0.0125
G0 Z0.6
G17
M9
G28 G91 Z0
G28 X0 Y0
M30
%
