%
(ToolingHolder14Flat)
(T1  D=0.25 CR=0 - ZMIN=-0.5 - flat end mill)
G90
G17
G20
G28 G91 Z0
G90

(2D Adaptive1 3)
M9
T1 M6
S5000 M3
G54
M9
G0 X10.6301 Y2.3041
Z0.6
Z0.2
Z0.125
G1 Z0.1 F39.37
G3 X10.8676 Y2.3059 Z0.087 I0.1187 J0.0009 F13.12
X10.834 Y2.3878 Z0.0838 I-0.1187 J-0.0009
X10.6403 Y2.3532 Z0.0757 I-0.0852 J-0.0828
X10.7446 Y2.1863 Z0.0676 I0.1085 J-0.0482
X10.8606 Y2.3453 Z0.0595 I0.0043 J0.1187
X10.6699 Y2.3937 Z0.0514 I-0.1117 J-0.0403
X10.696 Y2.1986 Z0.0433 I0.079 J-0.0887
X10.8017 Y2.4114 Z0.0303 I0.0528 J0.1064
X10.696 Y2.1986 Z0.0173 I-0.0528 J-0.1064
X10.8017 Y2.4114 Z0.0042 I0.0528 J0.1064
X10.696 Y2.1986 Z-0.0088 I-0.0528 J-0.1064
X10.8017 Y2.4114 Z-0.0218 I0.0528 J0.1064
X10.696 Y2.1986 Z-0.0348 I-0.0528 J-0.1064
X10.847 Y2.3719 Z-0.0458 I0.0528 J0.1064
X10.6502 Y2.3711 Z-0.0539 I-0.0981 J-0.0669
X10.8475 Y2.2389 Z-0.0669 I0.0986 J-0.0661
X10.6502 Y2.3711 Z-0.0799 I-0.0986 J0.0661
X10.8475 Y2.2389 Z-0.0929 I0.0986 J-0.0661
X10.6502 Y2.3711 Z-0.106 I-0.0986 J0.0661
X10.8475 Y2.2389 Z-0.119 I0.0986 J-0.0661
X10.6502 Y2.3711 Z-0.132 I-0.0986 J0.0661
X10.8475 Y2.2389 Z-0.145 I0.0986 J-0.0661
X10.6502 Y2.3711 Z-0.1581 I-0.0986 J0.0661
X10.8475 Y2.2389 Z-0.1711 I0.0986 J-0.0661
X10.6502 Y2.3711 Z-0.1841 I-0.0986 J0.0661
X10.8475 Y2.2389 Z-0.1972 I0.0986 J-0.0661
X10.8676 Y2.305 Z-0.1996 I-0.0986 J0.0661
X10.6301 I-0.1188 J0
X10.8676 I0.1187 J0
G1 X10.8678 Y2.3147 F39.37
X10.8749 Y2.3531
X10.8767 Y2.3588
X10.8778 Y2.3647
X10.8783 Y2.3707
X10.8784 Y2.3767
X10.8779 Y2.3832
X10.8768 Y2.3901
X10.8751 Y2.3974
X10.8726 Y2.4049
X10.8694 Y2.4126
X10.8653 Y2.4204
X10.8604 Y2.4283
X10.8547 Y2.436
X10.848 Y2.4436
X10.8405 Y2.451
X10.8321 Y2.4579
X10.8229 Y2.4644
X10.8129 Y2.4703
X10.8022 Y2.4755
X10.7907 Y2.4799
X10.7787 Y2.4835
X10.7661 Y2.4862
X10.7532 Y2.4879
X10.7399 Y2.4886
X10.7263 Y2.4882
X10.7127 Y2.4866
X10.6991 Y2.484
X10.6855 Y2.4802
X10.6722 Y2.4753
X10.6592 Y2.4693
X10.6466 Y2.4622
X10.6346 Y2.4541
X10.6231 Y2.445
X10.6124 Y2.4349
X10.6025 Y2.424
X10.5935 Y2.4122
X10.5853 Y2.3998
X10.5782 Y2.3866
X10.5722 Y2.3729
X10.5673 Y2.3587
X10.5635 Y2.3442
X10.5609 Y2.3293
X10.5595 Y2.3143
X10.5592 Y2.2992
X10.5603 Y2.2841
X10.5625 Y2.2691
X10.5659 Y2.2543
X10.5705 Y2.2398
X10.5763 Y2.2257
X10.5831 Y2.2122
X10.5911 Y2.1992
X10.6 Y2.1869
X10.6099 Y2.1753
X10.6208 Y2.1646
X10.6324 Y2.1548
X10.6448 Y2.1459
X10.6579 Y2.1381
X10.6716 Y2.1313
X10.6857 Y2.1257
X10.7003 Y2.1212
X10.7152 Y2.1179
X10.7303 Y2.1158
X10.7456 Y2.1149
X10.7608 Y2.1152
X10.776 Y2.1168
X10.791 Y2.1196
X10.8058 Y2.1236
X10.8201 Y2.1287
X10.8341 Y2.135
X10.8474 Y2.1424
X10.8602 Y2.1508
X10.8722 Y2.1603
X10.8834 Y2.1706
X10.8937 Y2.1818
X10.9032 Y2.1939
X10.9116 Y2.2066
X10.9261 Y2.233
X10.9385 Y2.2605
X10.9464 Y2.2826
X10.9518 Y2.3025
X10.9552 Y2.321
X10.957 Y2.339
X10.9574 Y2.3563
X10.9564 Y2.3732
X10.9541 Y2.3897
X10.9505 Y2.4058
X10.9457 Y2.4215
X10.9396 Y2.4368
X10.9322 Y2.4516
X10.9236 Y2.4659
X10.9138 Y2.4796
X10.9029 Y2.4925
X10.8908 Y2.5047
X10.8776 Y2.516
X10.8634 Y2.5264
X10.8481 Y2.5357
X10.832 Y2.5438
X10.815 Y2.5508
X10.7972 Y2.5564
X10.7789 Y2.5606
X10.76 Y2.5634
X10.7407 Y2.5647
X10.7213 Y2.5644
X10.7017 Y2.5626
X10.6821 Y2.5591
X10.6627 Y2.554
X10.6437 Y2.5474
X10.6251 Y2.5392
X10.6071 Y2.5295
X10.5899 Y2.5183
X10.5735 Y2.5056
X10.5582 Y2.4917
X10.5439 Y2.4764
X10.5308 Y2.46
X10.5191 Y2.4426
X10.5087 Y2.4242
X10.4999 Y2.4049
X10.4926 Y2.385
X10.4869 Y2.3645
X10.4828 Y2.3435
X10.4805 Y2.3223
X10.4798 Y2.3009
X10.4809 Y2.2795
X10.4837 Y2.2582
X10.4882 Y2.2372
X10.4944 Y2.2165
X10.5022 Y2.1965
X10.5116 Y2.1771
X10.5226 Y2.1585
X10.535 Y2.1408
X10.5488 Y2.1242
X10.5639 Y2.1088
X10.5802 Y2.0946
X10.5976 Y2.0817
X10.6159 Y2.0703
X10.6352 Y2.0604
X10.6551 Y2.052
X10.6757 Y2.0453
X10.6968 Y2.0403
X10.7182 Y2.0369
X10.7398 Y2.0353
X10.7614 Y2.0355
X10.783 Y2.0373
X10.8044 Y2.0409
X10.8254 Y2.0462
X10.8459 Y2.0532
X10.8658 Y2.0618
X10.8849 Y2.072
X10.9032 Y2.0836
X10.9205 Y2.0967
X10.9388 Y2.1131
X10.9571 Y2.1323
X10.9742 Y2.1535
X10.99 Y2.1765
X11.0037 Y2.2005
X11.0153 Y2.2249
X11.0245 Y2.2496
X11.0316 Y2.2744
X11.0366 Y2.2991
X11.0395 Y2.3237
X11.0405 Y2.3481
X11.0395 Y2.3722
X11.0365 Y2.396
X11.0317 Y2.4193
X11.0251 Y2.4421
X11.0167 Y2.4642
X11.0065 Y2.4856
X10.9946 Y2.5062
X10.9811 Y2.5258
X10.966 Y2.5443
X10.9493 Y2.5617
X10.9311 Y2.5778
X10.9116 Y2.5924
X10.8908 Y2.6056
X10.8688 Y2.6172
X10.8458 Y2.627
X10.8218 Y2.6351
X10.7971 Y2.6412
X10.7717 Y2.6454
X10.746 Y2.6475
X10.7199
X10.6938 Y2.6455
X10.6677 Y2.6413
X10.6419 Y2.635
X10.6165 Y2.6266
X10.5918 Y2.6162
X10.5678 Y2.6037
X10.5448 Y2.5893
X10.5229 Y2.573
X10.5023 Y2.5549
X10.4832 Y2.5351
X10.4656 Y2.5138
X10.4498 Y2.4911
X10.4357 Y2.467
X10.4237 Y2.4419
X10.4136 Y2.4158
X10.4057 Y2.389
X10.3999 Y2.3615
X10.3963 Y2.3336
X10.395 Y2.3054
X10.396 Y2.2772
X10.3992 Y2.2492
X10.4047 Y2.2214
X10.4124 Y2.1942
X10.4222 Y2.1676
X10.4342 Y2.1419
X10.4482 Y2.1173
X10.4641 Y2.0938
X10.4819 Y2.0716
X10.5014 Y2.051
X10.5225 Y2.0319
X10.5451 Y2.0147
X10.569 Y1.9993
X10.5941 Y1.9858
X10.6202 Y1.9744
X10.6471 Y1.9651
X10.6747 Y1.9581
X10.7027 Y1.9532
X10.7311 Y1.9506
X10.7596 Y1.9503
X10.788 Y1.9523
X10.8161 Y1.9566
X10.8439 Y1.9631
X10.871 Y1.9718
X10.8973 Y1.9827
X10.9234 Y1.996
X10.9491 Y2.0118
X10.9742 Y2.0302
X10.9985 Y2.0512
X11.0214 Y2.0745
X11.0426 Y2.0998
X11.0618 Y2.1268
X11.0786 Y2.1552
X11.0931 Y2.1846
X11.1051 Y2.2149
X11.1145 Y2.2458
X11.1213 Y2.2771
X11.1256 Y2.3086
X11.1273 Y2.3401
X11.1265 Y2.3714
X11.1232 Y2.4023
X11.1175 Y2.4328
X11.1093 Y2.4627
X11.0988 Y2.4917
X11.086 Y2.5198
X11.071 Y2.5469
X11.0538 Y2.5726
X11.0345 Y2.597
X11.0133 Y2.6199
X10.9902 Y2.641
X10.9653 Y2.6604
X10.9388 Y2.6778
X10.9109 Y2.6931
X10.8816 Y2.7061
X10.8512 Y2.7169
X10.8199 Y2.7252
X10.7878 Y2.731
X10.7551 Y2.7343
X10.7221 Y2.7349
X10.689 Y2.7328
X10.656 Y2.7281
X10.6233 Y2.7207
X10.5911 Y2.7107
X10.5597 Y2.698
X10.5293 Y2.6828
X10.5001 Y2.6652
X10.4723 Y2.6451
X10.4461 Y2.6228
X10.4216 Y2.5984
X10.3992 Y2.5721
X10.3789 Y2.5439
X10.3608 Y2.5142
X10.3452 Y2.483
X10.3321 Y2.4505
X10.3216 Y2.4171
X10.3138 Y2.3828
X10.3088 Y2.348
X10.3066 Y2.3129
X10.3072 Y2.2776
X10.3106 Y2.2424
X10.3169 Y2.2076
X10.3259 Y2.1734
X10.3377 Y2.14
X10.3521 Y2.1076
X10.3691 Y2.0765
X10.3886 Y2.0468
X10.4104 Y2.0188
X10.4343 Y1.9925
X10.4603 Y1.9683
X10.4882 Y1.9463
X10.5178 Y1.9265
X10.5488 Y1.9092
X10.5812 Y1.8944
X10.6147 Y1.8822
X10.649 Y1.8728
X10.684 Y1.8662
X10.7194 Y1.8624
X10.7549 Y1.8614
X10.7905 Y1.8633
X10.8258 Y1.8681
X10.8607 Y1.8757
X10.8952 Y1.8861
X10.9291 Y1.8995
X10.9623 Y1.9157
X10.9946 Y1.9349
X11.0258 Y1.957
X11.0556 Y1.9819
X11.0834 Y2.0093
X11.109 Y2.0387
X11.1321 Y2.0701
X11.1528 Y2.1032
X11.1707 Y2.1378
X11.1859 Y2.1737
X11.1981 Y2.2107
X11.2074 Y2.2486
X11.2137 Y2.2871
X11.2168 Y2.3257
Y2.3643
X11.2137 Y2.4027
X11.2076 Y2.4405
X11.1984 Y2.4777
X11.1863 Y2.514
X11.1714 Y2.5491
X11.1537 Y2.583
X11.1333 Y2.6154
X11.1103 Y2.6461
X11.0848 Y2.6749
X11.0571 Y2.7017
X11.0271 Y2.7263
X10.9952 Y2.7485
X10.9614 Y2.768
X10.9263 Y2.7849
X10.8899 Y2.7988
X10.8525 Y2.8099
X10.8143 Y2.8179
X10.7756 Y2.823
X10.7367 Y2.825
X10.6977 Y2.8239
X10.659 Y2.8199
X10.6206 Y2.8129
X10.5829 Y2.8029
X10.5461 Y2.7901
X10.5103 Y2.7746
X10.4758 Y2.7564
X10.4428 Y2.7356
X10.4115 Y2.7124
X10.382 Y2.6869
X10.3545 Y2.6593
X10.3292 Y2.6296
X10.3062 Y2.5981
X10.2856 Y2.565
X10.2675 Y2.5305
X10.252 Y2.4947
X10.2392 Y2.4579
X10.2291 Y2.4202
X10.2218 Y2.3819
X10.2174 Y2.3432
X10.2158 Y2.3042
X10.217 Y2.2653
X10.2212 Y2.2265
X10.2282 Y2.1881
X10.2381 Y2.1504
X10.2507 Y2.1135
X10.266 Y2.0776
X10.2838 Y2.043
X10.3042 Y2.0097
X10.3268 Y1.978
X10.3518 Y1.948
X10.3788 Y1.9199
X10.4078 Y1.8939
X10.4387 Y1.87
X10.4712 Y1.8485
X10.5052 Y1.8295
X10.5406 Y1.813
X10.577 Y1.7992
X10.6144 Y1.788
X10.6524 Y1.7796
X10.691 Y1.7739
X10.7299 Y1.7711
X10.7689 Y1.771
X10.8078 Y1.7738
X10.8464 Y1.7795
X10.8844 Y1.788
X10.9217 Y1.7992
X10.9582 Y1.8131
X10.9935 Y1.8296
X11.0277 Y1.8484
X11.0604 Y1.8695
X11.0917 Y1.8928
X11.1212 Y1.9183
X11.149 Y1.9457
X11.1748 Y1.9749
X11.1986 Y2.0058
X11.2203 Y2.0381
X11.2399 Y2.0718
X11.2572 Y2.1068
X11.272 Y2.1429
X11.2843 Y2.1799
X11.2942 Y2.2176
X11.3015 Y2.2559
X11.3063 Y2.2946
X11.3085 Y2.3335
X11.3079 Y2.3725
X11.3046 Y2.4114
X11.2987 Y2.4499
X11.2901 Y2.4879
X11.2791 Y2.5253
X11.2655 Y2.5619
X11.2495 Y2.5974
X11.2309 Y2.6317
X11.2101 Y2.6647
X11.187 Y2.6961
X11.1619 Y2.7259
X11.1348 Y2.754
X11.1059 Y2.7802
X11.0753 Y2.8043
X11.0431 Y2.8262
X11.0094 Y2.8459
X10.9745 Y2.8633
X10.9385 Y2.8784
X10.9017 Y2.891
X10.864 Y2.9012
X10.8505 Y2.9039
X10.8468 Y2.9045
X10.843 Y2.9049
X10.8392 Y2.905
X10.6957
X10.6568 Y2.9031
X10.6373 Y2.9014
X10.6018 Y2.8969
X10.5637 Y2.889
X10.5263 Y2.878
X10.4898 Y2.8642
X10.4544 Y2.8479
X10.4201 Y2.8293
X10.3873 Y2.8083
X10.3559 Y2.7851
X10.3262 Y2.7599
X10.2981 Y2.7328
X10.2718 Y2.7041
X10.2473 Y2.6737
X10.2249 Y2.6418
X10.2046 Y2.6085
X10.1865 Y2.574
X10.1706 Y2.5384
X10.1569 Y2.5019
X10.1455 Y2.4646
X10.1364 Y2.4267
X10.1298 Y2.3882
X10.1256 Y2.3495
X10.1239 Y2.3105
X10.1246 Y2.2715
X10.1278 Y2.2327
X10.1334 Y2.1941
X10.1413 Y2.1559
X10.1517 Y2.1183
X10.1645 Y2.0815
X10.1796 Y2.0455
X10.1968 Y2.0106
X10.2162 Y1.9767
X10.2375 Y1.9441
X10.2609 Y1.9129
X10.2862 Y1.8832
X10.3133 Y1.8552
X10.3422 Y1.829
X10.3726 Y1.8046
X10.4044 Y1.7821
X10.4376 Y1.7616
X10.472 Y1.7432
X10.5075 Y1.7271
X10.544 Y1.7133
X10.5621 Y1.7076
X10.5678 Y1.7062
X10.5736 Y1.7053
X10.5794 Y1.705
X10.8375
X10.8764 Y1.7069
X10.8958 Y1.7091
X10.9284 Y1.7145
X10.9629 Y1.723
X10.9998 Y1.7355
X11.0357 Y1.7508
X11.0703 Y1.7687
X11.1037 Y1.7889
X11.1356 Y1.8112
X11.1661 Y1.8355
X11.1951 Y1.8616
X11.2225 Y1.8893
X11.2482 Y1.9187
X11.272 Y1.9495
X11.2941 Y1.9817
X11.3142 Y2.0151
X11.3324 Y2.0496
X11.3485 Y2.0851
X11.351 Y2.0915
X11.3532 Y2.0984
X11.3546 Y2.1055
X11.355 Y2.1126
Y2.4977
X11.3536 Y2.5262
X11.3503 Y2.5509
X11.3442 Y2.5798
X11.3346 Y2.6118
X11.3216 Y2.6451
X11.3046 Y2.6802
X11.2849 Y2.7138
X11.2628 Y2.746
X11.2387 Y2.7766
X11.2126 Y2.8056
X11.1849 Y2.833
X11.1555 Y2.8586
X11.1246 Y2.8824
X11.106 Y2.895
X11.0959 Y2.9005
X11.0848 Y2.9039
X11.0733 Y2.905
X10.8392
G3 X10.8247 Y2.8603 I0.0009 J-0.025
G1 X11.3147 Y2.4789
G3 X11.3528 Y2.4882 I0.0154 J0.0197
X11.355 Y2.4977 I-0.0227 J0.0104
G1 Y2.6748
X11.3539 Y2.6963
X11.352 Y2.7113
X11.3481 Y2.7294
X11.3423 Y2.7486
X11.3334 Y2.7714
X11.3219 Y2.7952
X11.306 Y2.8222
X11.2853 Y2.8516
X11.2604 Y2.8816
X11.255 Y2.8873
X11.2461 Y2.8948
X11.2358 Y2.9004
X11.2247 Y2.9038
X11.2131 Y2.905
G3 X11.2036 Y2.9028 I0.0009 J-0.025
X11.1922 Y2.8677 I0.0104 J-0.0227
G1 X11.3083 Y2.6633
G3 X11.3528 Y2.6653 I0.0217 J0.0123
X11.355 Y2.6748 I-0.0227 J0.0104
G1 Y2.8164
X11.3544 Y2.8288
X11.3526 Y2.8423
X11.3497 Y2.8557
X11.3474 Y2.8634
X11.3426 Y2.8749
X11.3355 Y2.885
X11.3264 Y2.8935
X11.3157 Y2.8998
X11.3039 Y2.9037
X11.2916 Y2.905
G3 X11.2821 Y2.9028 I0.0009 J-0.025
X11.271 Y2.8672 I0.0104 J-0.0227
G1 X11.3086 Y2.8044
G3 X11.355 Y2.8164 I0.0214 J0.0128
G1 Y2.8784
X11.3548 Y2.8828
X11.3544 Y2.885
X11.3538 Y2.8872
X11.3528 Y2.8899
X11.3513 Y2.8926
X11.3488 Y2.8961
X11.3472 Y2.8977
X11.3456 Y2.8991
X11.3425 Y2.9014
X11.3403 Y2.9026
X11.338 Y2.9035
X11.3358 Y2.9042
X11.3336 Y2.9047
X11.3316 Y2.9049
X11.3248 Y2.905
X11.0733
G3 X11.0497 Y2.885 I0.0009 J-0.025
G1 X10.8138 Y1.735
G3 X10.828 Y1.7072 I0.0245 J-0.005
X10.8375 Y1.705 I0.0104 J0.0227
G1 X11.0501
X11.0656 Y1.7058
X11.0829 Y1.708
X11.1012 Y1.712
X11.1233 Y1.7186
X11.1464 Y1.7276
X11.1732 Y1.7406
X11.2028 Y1.758
X11.2344 Y1.7802
X11.2644 Y1.8051
X11.2925 Y1.8321
X11.3188 Y1.8609
X11.3433 Y1.8913
X11.3441 Y1.8923
X11.3501 Y1.9028
X11.3538 Y1.9143
X11.355 Y1.9263
Y2.1126
G3 X11.3528 Y2.1221 I-0.025 J-0.0009
X11.3098 Y2.1265 I-0.0227 J-0.0104
G1 X11.0308 Y1.7447
G3 X11.0406 Y1.7072 I0.0202 J-0.0148
X11.0501 Y1.705 I0.0104 J0.0227
G1 X11.1919
X11.2049 Y1.7057
X11.2189 Y1.7075
X11.2337 Y1.7106
X11.2506 Y1.7157
X11.2693 Y1.723
X11.2903 Y1.7332
X11.3127 Y1.7464
X11.3302 Y1.7587
X11.3387 Y1.7659
X11.3456 Y1.7747
X11.3508 Y1.7846
X11.3539 Y1.7953
X11.355 Y1.8064
G3 X11.3528 Y1.8159 I-0.025 J-0.0009
X11.318 Y1.8274 I-0.0227 J-0.0104
G1 X11.1807 Y1.7519
G3 X11.1919 Y1.705 I0.0121 J-0.0219
G1 X11.307
X11.3186 Y1.7056
X11.3283 Y1.7081
X11.3372 Y1.7128
X11.3446 Y1.7195
X11.3503 Y1.7277
X11.3538 Y1.7371
X11.355 Y1.747
G3 X11.3528 Y1.7565 I-0.025 J-0.0009
X11.3153 Y1.7663 I-0.0227 J-0.0104
G1 X11.2932 Y1.7502
G3 X11.307 Y1.705 I0.0147 J-0.0202
G1 X11.3248
X11.3336 Y1.7053
X11.3358 Y1.7058
X11.338 Y1.7065
X11.3403 Y1.7074
X11.3425 Y1.7086
X11.3443 Y1.7099
X11.3464 Y1.7116
X11.3485 Y1.7136
X11.3501 Y1.7155
X11.3513 Y1.7174
X11.3521 Y1.7188
X11.3531 Y1.721
X11.3539 Y1.7232
X11.3545 Y1.7254
X11.3548 Y1.7276
X11.355 Y1.7365
Y1.9263
G3 X11.3528 Y1.9358 I-0.025 J-0.0009
X11.3508 Y1.9393 I-0.0227 J-0.0104
G1 X10.7156 Y2.8939
G3 X10.7052 Y2.9028 I-0.0208 J-0.0138
X10.6957 Y2.905 I-0.0104 J-0.0227
G1 X10.4653
X10.4434 Y2.9039
X10.4269 Y2.9017
X10.4071 Y2.8975
X10.386 Y2.8912
X10.3612 Y2.8815
X10.3353 Y2.869
X10.3067 Y2.8521
X10.2757 Y2.8303
X10.2457 Y2.8054
X10.2176 Y2.7784
X10.1914 Y2.7495
X10.1671 Y2.7191
X10.1447 Y2.6871
X10.1243 Y2.6539
X10.1059 Y2.6195
X10.0894 Y2.5842
X10.0749 Y2.548
X10.0623 Y2.5111
X10.0518 Y2.4735
X10.0434 Y2.4355
X10.0372 Y2.397
X10.0331 Y2.3582
X10.0312 Y2.3193
X10.0313 Y2.2803
X10.0336 Y2.2413
X10.038 Y2.2026
X10.0444 Y2.1641
X10.053 Y2.1261
X10.0637 Y2.0886
X10.0764 Y2.0517
X10.0911 Y2.0156
X10.1078 Y1.9804
X10.1263 Y1.9461
X10.1465 Y1.9128
X10.1686 Y1.8806
X10.1924 Y1.8497
X10.2178 Y1.8202
X10.2449 Y1.7921
X10.2735 Y1.7656
X10.3034 Y1.7406
X10.3346 Y1.7172
X10.3382 Y1.7148
X10.3483 Y1.7094
X10.3592 Y1.7061
X10.3706 Y1.705
X10.5794
G3 X10.5889 Y1.7072 I-0.0009 J0.025
X10.6034 Y1.7325 I-0.0104 J0.0227
G1 X10.4894 Y2.8825
G3 X10.4653 Y2.905 I-0.0249 J-0.0025
G1 X10.3147
X10.3047 Y2.9045
X10.2907 Y2.9027
X10.2761 Y2.8995
X10.2592 Y2.8945
X10.2405 Y2.8872
X10.2198 Y2.8771
X10.1976 Y2.8641
X10.1726 Y2.8466
X10.1461 Y2.8245
X10.1188 Y2.7979
X10.0932 Y2.7685
X10.0697 Y2.7374
X10.0483 Y2.7048
X10.0288 Y2.671
X10.0113 Y2.6362
X9.9956 Y2.6005
X9.9817 Y2.5641
X9.9696 Y2.527
X9.9594 Y2.4894
X9.9512 Y2.4512
X9.9449 Y2.4128
X9.9405 Y2.374
X9.938 Y2.3351
X9.9374 Y2.2961
X9.9386 Y2.2572
X9.9416 Y2.2183
X9.9465 Y2.1796
X9.9534 Y2.1412
X9.9621 Y2.1032
X9.9727 Y2.0657
X9.985 Y2.0287
X9.9992 Y1.9924
X10.015 Y1.9567
X10.0325 Y1.9219
X10.0516 Y1.8879
X10.0723 Y1.8548
X10.0946 Y1.8229
X10.1184 Y1.792
X10.1438 Y1.7624
X10.1705 Y1.734
X10.1836 Y1.7214
X10.1923 Y1.7144
X10.2023 Y1.7092
X10.213 Y1.7061
X10.2241 Y1.705
X10.3706
G3 X10.3947 Y1.7312 I-0.0009 J0.025
G1 X10.3388 Y2.8812
G3 X10.3242 Y2.9028 I-0.025 J-0.0012
X10.3147 Y2.905 I-0.0104 J-0.0227
G1 X10.1996
X10.1825 Y2.9041
X10.171 Y2.9026
X10.1572 Y2.8997
X10.1427 Y2.8953
X10.1265 Y2.8891
X10.1086 Y2.8803
X10.0894 Y2.869
X10.0685 Y2.8544
X10.0453 Y2.8351
X10.0213 Y2.8117
X9.9959 Y2.7826
X9.9727 Y2.7513
X9.9518 Y2.7184
X9.9328 Y2.6843
X9.9159 Y2.6492
X9.9007 Y2.6133
X9.8874 Y2.5766
X9.8758 Y2.5394
X9.866 Y2.5017
X9.8579 Y2.4635
X9.8516 Y2.425
X9.8471 Y2.3863
X9.8443 Y2.3474
X9.8431 Y2.3084
X9.8436 Y2.2694
X9.8458 Y2.2305
X9.8497 Y2.1917
X9.8553 Y2.1531
X9.8625 Y2.1148
X9.8714 Y2.0769
X9.882 Y2.0393
X9.8943 Y2.0023
X9.9081 Y1.9658
X9.9234 Y1.93
X9.9402 Y1.8948
X9.9585 Y1.8604
X9.9783 Y1.8268
X9.9994 Y1.794
X10.022 Y1.7623
X10.046 Y1.7315
X10.0514 Y1.7252
X10.0606 Y1.7167
X10.0713 Y1.7103
X10.0832 Y1.7063
X10.0956 Y1.705
X10.2241
G3 X10.2482 Y1.7305 I-0.0009 J0.025
G1 X10.2237 Y2.8805
G3 X10.1996 Y2.905 I-0.025 J-0.0005
G1 X10.0844
X10.071 Y2.9043
X10.0595 Y2.9028
X10.0474 Y2.9002
X10.0339 Y2.8962
X10.0181 Y2.8901
X10.0025 Y2.8825
X9.984 Y2.8716
X9.9655 Y2.8586
X9.9445 Y2.8412
X9.9221 Y2.8193
X9.899 Y2.7928
X9.8758 Y2.7615
X9.8551 Y2.7285
X9.8365 Y2.6942
X9.8199 Y2.6589
X9.8053 Y2.6228
X9.7924 Y2.586
X9.7812 Y2.5486
X9.7717 Y2.5108
X9.7638 Y2.4726
X9.7576 Y2.4341
X9.7529 Y2.3954
X9.7499 Y2.3565
X9.7485 Y2.3176
X9.7486 Y2.2786
X9.7502 Y2.2396
X9.7533 Y2.2008
X9.758 Y2.1621
X9.7642 Y2.1236
X9.7719 Y2.0853
X9.7811 Y2.0474
X9.7918 Y2.0099
X9.804 Y1.9729
X9.8176 Y1.9364
X9.8326 Y1.9004
X9.849 Y1.865
X9.8668 Y1.8303
X9.8859 Y1.7963
X9.9062 Y1.7631
X9.9279 Y1.7306
X9.9303 Y1.7276
X9.9375 Y1.7198
X9.946 Y1.7135
X9.9556 Y1.7088
X9.9658 Y1.706
X9.9764 Y1.705
X10.0956
G3 X10.1197 Y1.7302 I-0.0009 J0.025
G1 X10.1085 Y2.8803
G3 X10.0939 Y2.9028 I-0.025 J-0.0002
X10.0844 Y2.905 I-0.0104 J-0.0227
G1 X9.9781
X9.964 Y2.9043
X9.9531 Y2.9029
X9.9417 Y2.9004
X9.9282 Y2.8964
X9.9143 Y2.891
X9.8987 Y2.8834
X9.8817 Y2.8734
X9.8637 Y2.8607
X9.8443 Y2.8447
X9.823 Y2.8239
X9.8013 Y2.799
X9.7784 Y2.768
X9.7578 Y2.7349
X9.7395 Y2.7005
X9.7233 Y2.665
X9.709 Y2.6287
X9.6965 Y2.5918
X9.6857 Y2.5543
X9.6765 Y2.5165
X9.6689 Y2.4782
X9.6628 Y2.4397
X9.6582 Y2.401
X9.6551 Y2.3621
X9.6535 Y2.3232
X9.6533 Y2.2842
X9.6546 Y2.2452
X9.6572 Y2.2063
X9.6613 Y2.1675
X9.6667 Y2.1289
X9.6735 Y2.0905
X9.6817 Y2.0524
X9.6913 Y2.0146
X9.7022 Y1.9772
X9.7144 Y1.9402
X9.728 Y1.9036
X9.7429 Y1.8676
X9.7591 Y1.8321
X9.7765 Y1.7972
X9.7951 Y1.7629
X9.8128 Y1.7334
X9.8155 Y1.7295
X9.8228 Y1.7211
X9.8315 Y1.7143
X9.8414 Y1.7092
X9.852 Y1.7061
X9.863 Y1.705
X9.9764
G3 X9.9859 Y1.7072 I-0.0009 J0.025
X10.0005 Y1.7299 I-0.0104 J0.0227
G1 X10.0022 Y2.88
G3 X9.9781 Y2.905 I-0.025 J0
G1 X9.8717
X9.8604 Y2.9044
X9.8502 Y2.9031
X9.8389 Y2.9007
X9.8257 Y2.8967
X9.8125 Y2.8916
X9.7969 Y2.884
X9.7811 Y2.8747
X9.7633 Y2.8622
X9.745 Y2.847
X9.7247 Y2.8272
X9.7038 Y2.8033
X9.682 Y2.7738
X9.6614 Y2.7407
X9.6433 Y2.7062
X9.6272 Y2.6707
X9.6132 Y2.6343
X9.6009 Y2.5973
X9.5903 Y2.5597
X9.5813 Y2.5218
X9.5738 Y2.4836
X9.5678 Y2.445
X9.5632 Y2.4063
X9.56 Y2.3675
X9.5582 Y2.3285
X9.5578 Y2.2895
X9.5587 Y2.2505
X9.561 Y2.2116
X9.5645 Y2.1728
X9.5693 Y2.1341
X9.5754 Y2.0956
X9.5827 Y2.0573
X9.5913 Y2.0192
X9.6012 Y1.9815
X9.6123 Y1.9441
X9.6246 Y1.9072
X9.6382 Y1.8706
X9.6529 Y1.8345
X9.6689 Y1.7989
X9.686 Y1.7639
X9.7012 Y1.7365
X9.7049 Y1.731
X9.7121 Y1.7222
X9.721 Y1.7149
X9.7311 Y1.7095
X9.742 Y1.7061
X9.7535 Y1.705
X9.863
G3 X9.8872 Y1.7298 I-0.0009 J0.025
G1 X9.8959 Y2.8798
G3 X9.8812 Y2.9028 I-0.025 J0.0002
X9.8717 Y2.905 I-0.0104 J-0.0227
G1 X9.7654
X9.759 Y2.9047
X9.7493 Y2.9034
X9.7379 Y2.901
X9.7254 Y2.8972
X9.7122 Y2.8921
X9.6968 Y2.8846
X9.6817 Y2.8757
X9.664 Y2.8633
X9.6466 Y2.8488
X9.627 Y2.8297
X9.6065 Y2.8063
X9.5855 Y2.7779
X9.5649 Y2.7448
X9.5469 Y2.7102
X9.531 Y2.6746
X9.5171 Y2.6382
X9.5051 Y2.6011
X9.4946 Y2.5635
X9.4858 Y2.5255
X9.4784 Y2.4873
X9.4725 Y2.4487
X9.4679 Y2.41
X9.4647 Y2.3711
X9.4628 Y2.3322
X9.4621 Y2.2932
X9.4628 Y2.2542
X9.4647 Y2.2153
X9.4678 Y2.1764
X9.4721 Y2.1377
X9.4776 Y2.0991
X9.4843 Y2.0606
X9.4921 Y2.0225
X9.5011 Y1.9845
X9.5113 Y1.9469
X9.5226 Y1.9096
X9.535 Y1.8726
X9.5486 Y1.8361
X9.5633 Y1.7999
X9.5793 Y1.7644
X9.5929 Y1.7386
X9.597 Y1.7321
X9.6043 Y1.7229
X9.6132 Y1.7153
X9.6234 Y1.7097
X9.6346 Y1.7062
X9.6463 Y1.705
X9.7535
G3 X9.7629 Y1.7072 I-0.0009 J0.025
X9.7776 Y1.7297 I-0.0104 J0.0227
G1 X9.7895 Y2.8798
G3 X9.7749 Y2.9028 I-0.025 J0.0003
X9.7654 Y2.905 I-0.0104 J-0.0227
G1 X9.668
X9.6588 Y2.9045
X9.6493 Y2.9033
X9.6379 Y2.9009
X9.6259 Y2.8973
X9.6128 Y2.8921
X9.5979 Y2.8849
X9.5829 Y2.8761
X9.5656 Y2.8639
X9.5485 Y2.8498
X9.5294 Y2.8312
X9.5093 Y2.8081
X9.489 Y2.7806
X9.4684 Y2.7475
X9.4504 Y2.7129
X9.4346 Y2.6772
X9.4209 Y2.6407
X9.409 Y2.6036
X9.3987 Y2.566
X9.39 Y2.528
X9.3828 Y2.4897
X9.3769 Y2.4511
X9.3723 Y2.4124
X9.3691 Y2.3735
X9.3671 Y2.3346
X9.3663 Y2.2956
X9.3667 Y2.2566
X9.3683 Y2.2177
X9.3711 Y2.1788
X9.375 Y2.14
X9.38 Y2.1013
X9.3861 Y2.0628
X9.3934 Y2.0245
X9.4017 Y1.9864
X9.411 Y1.9485
X9.4215 Y1.911
X9.433 Y1.8737
X9.4456 Y1.8368
X9.4593 Y1.8003
X9.4744 Y1.7644
X9.4867 Y1.74
X9.4911 Y1.7329
X9.4983 Y1.7234
X9.5073 Y1.7156
X9.5177 Y1.7098
X9.529 Y1.7062
X9.5408 Y1.705
X9.6463
G3 X9.6704 Y1.7295 I-0.0009 J0.025
G1 X9.6921 Y2.8795
G3 X9.6775 Y2.9028 I-0.025 J0.0005
X9.668 Y2.905 I-0.0104 J-0.0227
G1 X9.5705
X9.5599 Y2.9045
X9.5504 Y2.9032
X9.539 Y2.9008
X9.5274 Y2.8973
X9.5142 Y2.8922
X9.4998 Y2.8852
X9.4849 Y2.8764
X9.4678 Y2.8644
X9.4509 Y2.8504
X9.4322 Y2.8322
X9.4124 Y2.8094
X9.3925 Y2.7825
X9.3719 Y2.7494
X9.3539 Y2.7147
X9.3383 Y2.679
X9.3247 Y2.6425
X9.3129 Y2.6053
X9.3027 Y2.5677
X9.2941 Y2.5296
X9.287 Y2.4913
X9.2811 Y2.4528
X9.2766 Y2.414
X9.2733 Y2.3752
X9.2712 Y2.3363
X9.2703 Y2.2973
X9.2705 Y2.2583
X9.2719 Y2.2193
X9.2744 Y2.1804
X9.2779 Y2.1416
X9.2825 Y2.1029
X9.2882 Y2.0643
X9.2949 Y2.0259
X9.3026 Y1.9876
X9.3113 Y1.9496
X9.321 Y1.9119
X9.3317 Y1.8744
X9.3435 Y1.8372
X9.3563 Y1.8004
X9.3708 Y1.7642
X9.3823 Y1.7409
X9.3867 Y1.7335
X9.3939 Y1.7238
X9.4029 Y1.7159
X9.4133 Y1.7099
X9.4248 Y1.7062
X9.4368 Y1.705
X9.5408
G3 X9.565 Y1.7293 I-0.0009 J0.025
G1 X9.5946 Y2.8794
G3 X9.58 Y2.9028 I-0.025 J0.0006
X9.5705 Y2.905 I-0.0104 J-0.0227
G1 X9.473
X9.4618 Y2.9044
X9.4523 Y2.9032
X9.441 Y2.9008
X9.4295 Y2.8973
X9.4164 Y2.8922
X9.4022 Y2.8854
X9.3873 Y2.8766
X9.3705 Y2.8648
X9.3537 Y2.8508
X9.3353 Y2.8329
X9.3157 Y2.8104
X9.296 Y2.7838
X9.2754 Y2.7507
X9.2575 Y2.7161
X9.242 Y2.6803
X9.2284 Y2.6438
X9.2167 Y2.6066
X9.2067 Y2.5689
X9.1982 Y2.5308
X9.191 Y2.4925
X9.1852 Y2.4539
X9.1807 Y2.4152
X9.1774 Y2.3764
X9.1752 Y2.3374
X9.1742 Y2.2985
Y2.2595
X9.1754 Y2.2205
X9.1776 Y2.1816
X9.1808 Y2.1427
X9.1851 Y2.104
X9.1903 Y2.0653
X9.1965 Y2.0268
X9.2037 Y1.9885
X9.2118 Y1.9504
X9.2209 Y1.9125
X9.231 Y1.8748
X9.2421 Y1.8374
X9.2543 Y1.8004
X9.2681 Y1.7644
X9.2789 Y1.7417
X9.2834 Y1.734
X9.2906 Y1.7242
X9.2996 Y1.7161
X9.3102 Y1.71
X9.3217 Y1.7063
X9.3338 Y1.705
X9.4368
G3 X9.4609 Y1.7292 I-0.0009 J0.025
G1 X9.4972 Y2.8792
G3 X9.4825 Y2.9028 I-0.025 J0.0008
X9.473 Y2.905 I-0.0104 J-0.0227
G1 X9.3756
X9.3643 Y2.9044
X9.3547 Y2.9032
X9.3435 Y2.9008
X9.3321 Y2.8974
X9.319 Y2.8922
X9.3051 Y2.8855
X9.2901 Y2.8767
X9.2736 Y2.8651
X9.2568 Y2.8512
X9.2386 Y2.8334
X9.2192 Y2.8111
X9.1997 Y2.7848
X9.1791 Y2.7517
X9.1612 Y2.7171
X9.1457 Y2.6813
X9.1323 Y2.6447
X9.1206 Y2.6075
X9.1106 Y2.5698
X9.1022 Y2.5318
X9.0951 Y2.4934
X9.0893 Y2.4549
X9.0847 Y2.4161
X9.0813 Y2.3773
X9.0791 Y2.3384
X9.0779 Y2.2994
X9.0778 Y2.2604
X9.0788 Y2.2214
X9.0808 Y2.1825
X9.0837 Y2.1436
X9.0876 Y2.1048
X9.0925 Y2.0661
X9.0983 Y2.0276
X9.105 Y1.9892
X9.1126 Y1.9509
X9.1212 Y1.9129
X9.1307 Y1.8751
X9.1412 Y1.8375
X9.1529 Y1.8003
X9.1659 Y1.7653
X9.1763 Y1.7429
X9.181 Y1.7345
X9.1882 Y1.7246
X9.1973 Y1.7163
X9.2079 Y1.7101
X9.2196 Y1.7063
X9.2318 Y1.705
X9.3338
G3 X9.3579 Y1.7291 I-0.0009 J0.025
G1 X9.3997 Y2.8791
G3 X9.3851 Y2.9028 I-0.025 J0.0009
X9.3756 Y2.905 I-0.0104 J-0.0227
G1 X9.2781
X9.2671 Y2.9044
X9.2576 Y2.9032
X9.2464 Y2.9008
X9.2351 Y2.8974
X9.2219 Y2.8923
X9.2082 Y2.8856
X9.1932 Y2.8768
X9.1768 Y2.8653
X9.1601 Y2.8514
X9.1421 Y2.8338
X9.1227 Y2.8117
X9.1034 Y2.7855
X9.083 Y2.7527
X9.0651 Y2.7181
X9.0496 Y2.6823
X9.0362 Y2.6457
X9.0246 Y2.6085
X9.0146 Y2.5708
X9.0061 Y2.5327
X8.999 Y2.4944
X8.9932 Y2.4558
X8.9886 Y2.4171
X8.9852 Y2.3782
X8.9828 Y2.3393
X8.9816 Y2.3004
X8.9813 Y2.2614
X8.9821 Y2.2224
X8.9838 Y2.1834
X8.9865 Y2.1445
X8.9901 Y2.1057
X8.9947 Y2.067
X9.0001 Y2.0284
X9.0064 Y1.9899
X9.0135 Y1.9516
X9.0216 Y1.9134
X9.0306 Y1.8755
X9.0406 Y1.8378
X9.0519 Y1.8005
X9.0644 Y1.7661
X9.0745 Y1.7439
X9.0794 Y1.735
X9.0866 Y1.7249
X9.0957 Y1.7165
X9.1064 Y1.7102
X9.1181 Y1.7063
X9.1304 Y1.705
X9.2318
G3 X9.2559 Y1.729 I-0.0009 J0.025
G1 X9.3022 Y2.879
G3 X9.2876 Y2.9028 I-0.025 J0.001
X9.2781 Y2.905 I-0.0104 J-0.0227
G1 X9.1807
X9.1702 Y2.9045
X9.1607 Y2.9032
X9.1495 Y2.9008
X9.1383 Y2.8975
X9.1251 Y2.8923
X9.1115 Y2.8857
X9.0966 Y2.8769
X9.0803 Y2.8655
X9.0636 Y2.8516
X9.0457 Y2.8341
X9.0264 Y2.8121
X9.0072 Y2.7861
X8.9868 Y2.7534
X8.969 Y2.7188
X8.9535 Y2.683
X8.94 Y2.6464
X8.9285 Y2.6091
X8.9185 Y2.5714
X8.9101 Y2.5334
X8.903 Y2.495
X8.8971 Y2.4565
X8.8925 Y2.4178
X8.889 Y2.3789
X8.8865 Y2.34
X8.8851 Y2.3011
X8.8848 Y2.2621
X8.8853 Y2.2231
X8.8869 Y2.1841
X8.8893 Y2.1452
X8.8926 Y2.1064
X8.8969 Y2.0676
X8.9019 Y2.0289
X8.9078 Y1.9904
X8.9146 Y1.952
X8.9223 Y1.9138
X8.9309 Y1.8757
X8.9405 Y1.838
X8.9515 Y1.8005
X8.9635 Y1.7667
X8.9733 Y1.7447
X8.9784 Y1.7353
X8.9856 Y1.7251
X8.9947 Y1.7166
X9.0054 Y1.7103
X9.0172 Y1.7063
X9.0296 Y1.705
X9.1304
G3 X9.1545 Y1.7289 I-0.0009 J0.025
G1 X9.2048 Y2.8789
G3 X9.1902 Y2.9028 I-0.025 J0.0011
X9.1807 Y2.905 I-0.0104 J-0.0227
G1 X9.0832
X9.0736 Y2.9045
X9.064 Y2.9033
X9.0529 Y2.9009
X9.0417 Y2.8975
X9.0285 Y2.8924
X9.015 Y2.8858
X9 Y2.877
X8.9839 Y2.8657
X8.9672 Y2.8518
X8.9493 Y2.8344
X8.9301 Y2.8124
X8.9109 Y2.7864
X8.8907 Y2.7539
X8.8728 Y2.7192
X8.8573 Y2.6835
X8.8439 Y2.6468
X8.8323 Y2.6096
X8.8224 Y2.5719
X8.8139 Y2.5339
X8.8068 Y2.4955
X8.8009 Y2.457
X8.7963 Y2.4183
X8.7927 Y2.3794
X8.7901 Y2.3405
X8.7886 Y2.3016
X8.7881 Y2.2626
X8.7885 Y2.2236
X8.7898 Y2.1846
X8.7921 Y2.1457
X8.7951 Y2.1068
X8.7991 Y2.068
X8.8038 Y2.0293
X8.8094 Y1.9907
X8.8158 Y1.9523
X8.8231 Y1.914
X8.8314 Y1.8759
X8.8407 Y1.838
X8.8515 Y1.8005
X8.863 Y1.7672
X8.8727 Y1.7453
X8.8779 Y1.7356
X8.885 Y1.7253
X8.8942 Y1.7167
X8.9049 Y1.7103
X8.9168 Y1.7063
X8.9293 Y1.705
X9.0296
G3 X9.0537 Y1.7288 I-0.0009 J0.025
G1 X9.1073 Y2.8789
G3 X9.0927 Y2.9028 I-0.025 J0.0012
X9.0832 Y2.905 I-0.0104 J-0.0227
G1 X8.9858
X8.9771 Y2.9046
X8.9675 Y2.9033
X8.9564 Y2.9009
X8.9452 Y2.8976
X8.932 Y2.8925
X8.9186 Y2.8859
X8.9036 Y2.8771
X8.8875 Y2.8658
X8.8708 Y2.8519
X8.853 Y2.8346
X8.8338 Y2.8126
X8.8147 Y2.7867
X8.7945 Y2.7542
X8.7766 Y2.7196
X8.7611 Y2.6838
X8.7477 Y2.6472
X8.7361 Y2.6099
X8.7262 Y2.5722
X8.7177 Y2.5342
X8.7106 Y2.4959
X8.7047 Y2.4573
X8.7 Y2.4186
X8.6963 Y2.3798
X8.6937 Y2.3409
X8.692 Y2.3019
X8.6914 Y2.2629
X8.6916 Y2.224
X8.6928 Y2.185
X8.6948 Y2.146
X8.6976 Y2.1072
X8.7013 Y2.0683
X8.7058 Y2.0296
X8.7111 Y1.991
X8.7172 Y1.9525
X8.7242 Y1.9141
X8.7321 Y1.8759
X8.7412 Y1.838
X8.7517 Y1.8005
X8.763 Y1.7676
X8.7725 Y1.7458
X8.7778 Y1.7358
X8.7849 Y1.7255
X8.7941 Y1.7168
X8.8048 Y1.7104
X8.8168 Y1.7064
X8.8293 Y1.705
X8.9293
G3 X8.9388 Y1.7072 I-0.0009 J0.025
X8.9534 Y1.7288 I-0.0104 J0.0227
G1 X9.0099 Y2.8788
G3 X8.9953 Y2.9028 I-0.025 J0.0012
X8.9858 Y2.905 I-0.0104 J-0.0227
G1 X8.8883
X8.8807 Y2.9046
X8.8711 Y2.9034
X8.86 Y2.901
X8.8488 Y2.8976
X8.8357 Y2.8925
X8.8222 Y2.886
X8.8073 Y2.8772
X8.7912 Y2.8659
X8.7745 Y2.852
X8.7567 Y2.8347
X8.7376 Y2.8127
X8.7185 Y2.7869
X8.6983 Y2.7544
X8.6804 Y2.7198
X8.6649 Y2.684
X8.6515 Y2.6474
X8.6399 Y2.6102
X8.63 Y2.5725
X8.6215 Y2.5344
X8.6143 Y2.4961
X8.6084 Y2.4575
X8.6036 Y2.4189
X8.5998 Y2.38
X8.5971 Y2.3411
X8.5954 Y2.3022
X8.5946 Y2.2632
X8.5947 Y2.2242
X8.5956 Y2.1852
X8.5975 Y2.1463
X8.6001 Y2.1074
X8.6035 Y2.0686
X8.6077 Y2.0298
X8.6128 Y1.9911
X8.6186 Y1.9526
X8.6254 Y1.9142
X8.6331 Y1.876
X8.6419 Y1.838
X8.6523 Y1.8004
X8.6633 Y1.7679
X8.6726 Y1.7462
X8.678 Y1.736
X8.6851 Y1.7256
X8.6943 Y1.7169
X8.7051 Y1.7104
X8.717 Y1.7064
X8.7296 Y1.705
X8.8293
G3 X8.8534 Y1.7287 I-0.0009 J0.025
G1 X8.9124 Y2.8787
G3 X8.8978 Y2.9028 I-0.025 J0.0013
X8.8883 Y2.905 I-0.0104 J-0.0227
G1 X8.7908
X8.7843 Y2.9047
X8.7748 Y2.9034
X8.7637 Y2.9011
X8.7525 Y2.8977
X8.7393 Y2.8926
X8.7259 Y2.8861
X8.711 Y2.8773
X8.6949 Y2.866
X8.6782 Y2.8521
X8.6605 Y2.8348
X8.6413 Y2.8129
X8.6222 Y2.787
X8.602 Y2.7546
X8.5841 Y2.7199
X8.5687 Y2.6841
X8.5552 Y2.6475
X8.5437 Y2.6103
X8.5337 Y2.5726
X8.5252 Y2.5346
X8.518 Y2.4962
X8.512 Y2.4577
X8.5071 Y2.419
X8.5033 Y2.3802
X8.5005 Y2.3413
X8.4987 Y2.3024
X8.4977 Y2.2634
Y2.2244
X8.4985 Y2.1854
X8.5001 Y2.1465
X8.5025 Y2.1076
X8.5058 Y2.0687
X8.5098 Y2.0299
X8.5146 Y1.9912
X8.5202 Y1.9526
X8.5267 Y1.9142
X8.5342 Y1.8759
X8.5429 Y1.8379
X8.5531 Y1.8003
X8.5638 Y1.7682
X8.5731 Y1.7466
X8.5785 Y1.7362
X8.5856 Y1.7257
X8.5947 Y1.717
X8.6056 Y1.7104
X8.6176 Y1.7064
X8.6301 Y1.705
X8.7296
G3 X8.7537 Y1.7287 I-0.0009 J0.025
G1 X8.8149 Y2.8787
G3 X8.8003 Y2.9028 I-0.025 J0.0013
X8.7908 Y2.905 I-0.0104 J-0.0227
G1 X8.6934
X8.6874 Y2.9047
X8.6777 Y2.9034
X8.6666 Y2.9009
X8.6553 Y2.8975
X8.642 Y2.8922
X8.6286 Y2.8856
X8.6135 Y2.8766
X8.5975 Y2.8652
X8.5806 Y2.851
X8.5629 Y2.8335
X8.5437 Y2.8113
X8.5244 Y2.7848
X8.5042 Y2.7519
X8.4865 Y2.7171
X8.4712 Y2.6812
X8.4579 Y2.6446
X8.4465 Y2.6073
X8.4366 Y2.5696
X8.4282 Y2.5315
X8.421 Y2.4932
X8.4151 Y2.4546
X8.4103 Y2.416
X8.4065 Y2.3771
X8.4037 Y2.3383
X8.4018 Y2.2993
X8.4008 Y2.2603
X8.4007 Y2.2213
X8.4014 Y2.1824
X8.4029 Y2.1434
X8.4052 Y2.1045
X8.4083 Y2.0656
X8.4121 Y2.0268
X8.4168 Y1.9881
X8.4223 Y1.9495
X8.4287 Y1.911
X8.4361 Y1.8727
X8.4447 Y1.8347
X8.455 Y1.7971
X8.4653 Y1.7664
X8.4745 Y1.7452
X8.4794 Y1.736
X8.4865 Y1.7256
X8.4956 Y1.7169
X8.5064 Y1.7104
X8.5184 Y1.7064
X8.5309 Y1.705
X8.6301
G3 X8.6396 Y1.7072 I-0.0009 J0.025
X8.6542 Y1.7286 I-0.0104 J0.0227
G1 X8.7175 Y2.8786
G3 X8.7029 Y2.9028 I-0.025 J0.0014
X8.6934 Y2.905 I-0.0104 J-0.0227
G1 X8.6048
X8.5912 Y2.9043
X8.5818 Y2.9031
X8.5707 Y2.9007
X8.5596 Y2.8974
X8.5466 Y2.8923
X8.533 Y2.8857
X8.5183 Y2.877
X8.502 Y2.8656
X8.4856 Y2.852
X8.4677 Y2.8345
X8.4487 Y2.8128
X8.4296 Y2.787
X8.4094 Y2.7545
X8.3915 Y2.7198
X8.376 Y2.684
X8.3626 Y2.6474
X8.351 Y2.6102
X8.341 Y2.5725
X8.3324 Y2.5345
X8.3251 Y2.4962
X8.319 Y2.4577
X8.314 Y2.419
X8.3101 Y2.3802
X8.3071 Y2.3413
X8.3051 Y2.3024
X8.3039 Y2.2634
X8.3036 Y2.2244
X8.3041 Y2.1854
X8.3054 Y2.1465
X8.3074 Y2.1075
X8.3103 Y2.0687
X8.3139 Y2.0298
X8.3183 Y1.9911
X8.3235 Y1.9525
X8.3297 Y1.914
X8.3369 Y1.8756
X8.3452 Y1.8375
X8.3552 Y1.7998
X8.3656 Y1.7684
X8.3746 Y1.7469
X8.3801 Y1.7364
X8.3872 Y1.7258
X8.3964 Y1.7171
X8.4072 Y1.7105
X8.4192 Y1.7064
X8.4319 Y1.705
X8.5309
G3 X8.555 Y1.7284 I-0.0009 J0.025
G1 X8.6289 Y2.8784
G3 X8.6143 Y2.9028 I-0.0249 J0.0016
X8.6048 Y2.905 I-0.0104 J-0.0227
G1 X8.5073
X8.4952 Y2.9044
X8.4856 Y2.9031
X8.4746 Y2.9008
X8.4634 Y2.8974
X8.4502 Y2.8923
X8.4368 Y2.8858
X8.4219 Y2.877
X8.4059 Y2.8658
X8.3892 Y2.8519
X8.3715 Y2.8346
X8.3524 Y2.8127
X8.3332 Y2.7868
X8.313 Y2.7543
X8.2951 Y2.7196
X8.2796 Y2.6839
X8.2662 Y2.6473
X8.2545 Y2.61
X8.2445 Y2.5724
X8.2359 Y2.5343
X8.2286 Y2.496
X8.2225 Y2.4575
X8.2174 Y2.4189
X8.2134 Y2.3801
X8.2103 Y2.3412
X8.2082 Y2.3023
X8.2069 Y2.2633
X8.2064 Y2.2243
X8.2068 Y2.1853
X8.2079 Y2.1464
X8.2099 Y2.1074
X8.2125 Y2.0685
X8.216 Y2.0297
X8.2203 Y1.9909
X8.2253 Y1.9523
X8.2313 Y1.9137
X8.2384 Y1.8754
X8.2466 Y1.8373
X8.2565 Y1.7996
X8.2668 Y1.7684
X8.2758 Y1.747
X8.2812 Y1.7365
X8.2883 Y1.7259
X8.2974 Y1.7171
X8.3083 Y1.7105
X8.3203 Y1.7064
X8.333 Y1.705
X8.4319
G3 X8.4414 Y1.7072 I-0.0009 J0.025
X8.4559 Y1.7283 I-0.0104 J0.0227
G1 X8.5314 Y2.8784
G3 X8.5168 Y2.9028 I-0.0249 J0.0016
X8.5073 Y2.905 I-0.0104 J-0.0227
G1 X8.4099
X8.3989 Y2.9045
X8.3894 Y2.9032
X8.3783 Y2.9008
X8.3671 Y2.8975
X8.354 Y2.8924
X8.3406 Y2.8858
X8.3256 Y2.8771
X8.3096 Y2.8658
X8.2929 Y2.8519
X8.2752 Y2.8346
X8.256 Y2.8126
X8.2368 Y2.7867
X8.2166 Y2.7542
X8.1987 Y2.7195
X8.1832 Y2.6837
X8.1697 Y2.6471
X8.1581 Y2.6099
X8.148 Y2.5723
X8.1394 Y2.5342
X8.132 Y2.4959
X8.1258 Y2.4574
X8.1207 Y2.4188
X8.1167 Y2.38
X8.1135 Y2.3412
X8.1113 Y2.3022
X8.1099 Y2.2633
X8.1093 Y2.2243
X8.1095 Y2.1853
X8.1105 Y2.1463
X8.1123 Y2.1074
X8.1148 Y2.0684
X8.1181 Y2.0296
X8.1222 Y1.9908
X8.1272 Y1.9521
X8.133 Y1.9136
X8.14 Y1.8752
X8.1481 Y1.8371
X8.1579 Y1.7994
X8.1681 Y1.7684
X8.177 Y1.7471
X8.1824 Y1.7366
X8.1895 Y1.7259
X8.1987 Y1.7171
X8.2095 Y1.7105
X8.2216 Y1.7064
X8.2343 Y1.705
X8.333
G3 X8.3571 Y1.7283 I-0.0009 J0.025
G1 X8.4339 Y2.8783
G3 X8.4194 Y2.9028 I-0.0249 J0.0017
X8.4099 Y2.905 I-0.0104 J-0.0227
G1 X8.3124
X8.3027 Y2.9045
X8.2931 Y2.9033
X8.2821 Y2.9009
X8.2709 Y2.8975
X8.2577 Y2.8924
X8.2443 Y2.8859
X8.2293 Y2.8771
X8.2133 Y2.8658
X8.1966 Y2.852
X8.1788 Y2.8346
X8.1596 Y2.8126
X8.1404 Y2.7867
X8.1201 Y2.754
X8.1022 Y2.7194
X8.0867 Y2.6836
X8.0733 Y2.647
X8.0616 Y2.6098
X8.0515 Y2.5721
X8.0428 Y2.5341
X8.0354 Y2.4959
X8.0292 Y2.4574
X8.024 Y2.4187
X8.0199 Y2.38
X8.0166 Y2.3411
X8.0143 Y2.3022
X8.0128 Y2.2632
X8.0121 Y2.2242
X8.0122 Y2.1852
X8.0131 Y2.1463
X8.0147 Y2.1073
X8.0171 Y2.0684
X8.0203 Y2.0295
X8.0243 Y1.9907
X8.0291 Y1.952
X8.0348 Y1.9135
X8.0416 Y1.8751
X8.0497 Y1.8369
X8.0595 Y1.7992
X8.0695 Y1.7684
X8.0784 Y1.7471
X8.0838 Y1.7366
X8.0908 Y1.726
X8.1 Y1.7171
X8.1109 Y1.7105
X8.123 Y1.7064
X8.1356 Y1.705
X8.2343
G3 X8.2583 Y1.7283 I-0.0009 J0.025
G1 X8.3365 Y2.8783
G3 X8.3219 Y2.9028 I-0.0249 J0.0017
X8.3124 Y2.905 I-0.0104 J-0.0227
G1 X8.215
X8.2064 Y2.9046
X8.1968 Y2.9033
X8.1858 Y2.9009
X8.1745 Y2.8976
X8.1614 Y2.8925
X8.1479 Y2.8859
X8.133 Y2.8771
X8.1169 Y2.8659
X8.1002 Y2.852
X8.0824 Y2.8346
X8.0632 Y2.8126
X8.044 Y2.7866
X8.0236 Y2.7539
X8.0057 Y2.7192
X7.9902 Y2.6835
X7.9767 Y2.6469
X7.9651 Y2.6097
X7.9549 Y2.572
X7.9462 Y2.534
X7.9388 Y2.4958
X7.9325 Y2.4573
X7.9273 Y2.4186
X7.923 Y2.3799
X7.9197 Y2.341
X7.9173 Y2.3021
X7.9157 Y2.2632
X7.9149 Y2.2242
Y2.1852
X7.9156 Y2.1462
X7.9171 Y2.1072
X7.9194 Y2.0683
X7.9225 Y2.0294
X7.9263 Y1.9906
X7.931 Y1.9519
X7.9367 Y1.9134
X7.9434 Y1.8749
X7.9514 Y1.8368
X7.9611 Y1.799
X7.971 Y1.7684
X7.9799 Y1.7472
X7.9853 Y1.7367
X7.9923 Y1.726
X8.0015 Y1.7172
X8.0124 Y1.7105
X8.0245 Y1.7064
X8.0371 Y1.705
X8.1356
G3 X8.1597 Y1.7283 I-0.0009 J0.025
G1 X8.239 Y2.8783
G3 X8.2244 Y2.9028 I-0.0249 J0.0017
X8.215 Y2.905 I-0.0104 J-0.0227
G1 X8.1175
X8.11 Y2.9046
X8.1005 Y2.9034
X8.0894 Y2.901
X8.0782 Y2.8976
X8.065 Y2.8925
X8.0516 Y2.886
X8.0366 Y2.8772
X8.0205 Y2.8659
X8.0038 Y2.852
X7.986 Y2.8346
X7.9667 Y2.8126
X7.9475 Y2.7865
X7.9271 Y2.7537
X7.9092 Y2.7191
X7.8937 Y2.6833
X7.8802 Y2.6467
X7.8685 Y2.6095
X7.8583 Y2.5719
X7.8496 Y2.5339
X7.8421 Y2.4956
X7.8357 Y2.4572
X7.8304 Y2.4185
X7.8261 Y2.3798
X7.8227 Y2.3409
X7.8202 Y2.302
X7.8185 Y2.2631
X7.8176 Y2.2241
X7.8175 Y2.1851
X7.8182 Y2.1461
X7.8196 Y2.1072
X7.8217 Y2.0682
X7.8247 Y2.0293
X7.8284 Y1.9905
X7.833 Y1.9518
X7.8386 Y1.9132
X7.8452 Y1.8748
X7.8531 Y1.8366
X7.8628 Y1.7988
X7.8726 Y1.7684
X7.8814 Y1.7472
X7.8868 Y1.7367
X7.8939 Y1.7261
X7.9031 Y1.7172
X7.914 Y1.7105
X7.926 Y1.7064
X7.9387 Y1.705
X8.0371
G3 X8.0466 Y1.7072 I-0.0009 J0.025
X8.0612 Y1.7282 I-0.0104 J0.0227
G1 X8.1416 Y2.8783
G3 X8.127 Y2.9028 I-0.0249 J0.0017
X8.1175 Y2.905 I-0.0104 J-0.0227
G1 X8.02
X8.0136 Y2.9047
X8.0041 Y2.9034
X7.993 Y2.9011
X7.9818 Y2.8977
X7.9686 Y2.8926
X7.9551 Y2.886
X7.9402 Y2.8772
X7.9241 Y2.8659
X7.9073 Y2.852
X7.8895 Y2.8346
X7.8702 Y2.8125
X7.8509 Y2.7864
X7.8305 Y2.7536
X7.8126 Y2.7189
X7.7971 Y2.6832
X7.7836 Y2.6466
X7.7718 Y2.6094
X7.7617 Y2.5718
X7.7529 Y2.5338
X7.7453 Y2.4955
X7.7389 Y2.4571
X7.7336 Y2.4184
X7.7292 Y2.3797
X7.7257 Y2.3409
X7.7231 Y2.3019
X7.7214 Y2.263
X7.7204 Y2.224
X7.7202 Y2.185
X7.7207 Y2.146
X7.722 Y2.1071
X7.7241 Y2.0681
X7.7269 Y2.0292
X7.7306 Y1.9904
X7.7351 Y1.9517
X7.7405 Y1.9131
X7.7471 Y1.8747
X7.755 Y1.8365
X7.7646 Y1.7987
X7.7744 Y1.7684
X7.7831 Y1.7472
X7.7885 Y1.7367
X7.7955 Y1.7261
X7.8047 Y1.7172
X7.8156 Y1.7105
X7.8277 Y1.7064
X7.8404 Y1.705
X7.9387
G3 X7.9628 Y1.7282 I-0.0009 J0.025
G1 X8.0441 Y2.8783
G3 X8.0295 Y2.9028 I-0.0249 J0.0018
X8.02 Y2.905 I-0.0104 J-0.0227
G1 X7.9226
X7.9166 Y2.9047
X7.9069 Y2.9034
X7.8958 Y2.9009
X7.8845 Y2.8975
X7.8711 Y2.8922
X7.8577 Y2.8855
X7.8425 Y2.8765
X7.8264 Y2.8651
X7.8095 Y2.8508
X7.7917 Y2.8332
X7.7723 Y2.8108
X7.7527 Y2.784
X7.7323 Y2.7508
X7.7147 Y2.716
X7.6993 Y2.6802
X7.6859 Y2.6436
X7.6743 Y2.6063
X7.6642 Y2.5687
X7.6555 Y2.5307
X7.648 Y2.4924
X7.6416 Y2.4539
X7.6363 Y2.4153
X7.6319 Y2.3766
X7.6285 Y2.3377
X7.6259 Y2.2988
X7.6241 Y2.2599
X7.6231 Y2.2209
X7.6228 Y2.1819
X7.6233 Y2.1429
X7.6246 Y2.104
X7.6266 Y2.065
X7.6294 Y2.0261
X7.633 Y1.9873
X7.6375 Y1.9486
X7.643 Y1.91
X7.6496 Y1.8715
X7.6575 Y1.8334
X7.6672 Y1.7956
X7.6769 Y1.7663
X7.6857 Y1.7455
X7.6904 Y1.7364
X7.6975 Y1.7259
X7.7066 Y1.7171
X7.7175 Y1.7105
X7.7295 Y1.7064
X7.7422 Y1.705
X7.8404
G3 X7.8645 Y1.7282 I-0.0009 J0.025
G1 X7.9466 Y2.8782
G3 X7.9321 Y2.9028 I-0.0249 J0.0018
X7.9226 Y2.905 I-0.0104 J-0.0227
G1 X7.834
X7.8202 Y2.9043
X7.8108 Y2.9031
X7.7997 Y2.9007
X7.7885 Y2.8973
X7.7755 Y2.8923
X7.7618 Y2.8856
X7.7471 Y2.877
X7.7306 Y2.8654
X7.7142 Y2.8518
X7.6961 Y2.8341
X7.677 Y2.8122
X7.6577 Y2.7861
X7.6371 Y2.7531
X7.6192 Y2.7184
X7.6037 Y2.6827
X7.5902 Y2.6461
X7.5784 Y2.6089
X7.5681 Y2.5713
X7.5593 Y2.5333
X7.5517 Y2.4951
X7.5452 Y2.4566
X7.5397 Y2.418
X7.5352 Y2.3793
X7.5316 Y2.3405
X7.5289 Y2.3016
X7.5269 Y2.2626
X7.5258 Y2.2237
X7.5254 Y2.1847
X7.5258 Y2.1457
X7.5269 Y2.1067
X7.5288 Y2.0678
X7.5315 Y2.0289
X7.5349 Y1.99
X7.5393 Y1.9513
X7.5446 Y1.9127
X7.5511 Y1.8742
X7.5588 Y1.836
X7.5684 Y1.7982
X7.578 Y1.7682
X7.5867 Y1.7472
X7.592 Y1.7368
X7.5991 Y1.7261
X7.6083 Y1.7172
X7.6192 Y1.7105
X7.6313 Y1.7064
X7.644 Y1.705
X7.7422
G3 X7.7517 Y1.7072 I-0.0009 J0.025
X7.7662 Y1.728 I-0.0104 J0.0227
G1 X7.858 Y2.878
G3 X7.8435 Y2.9028 I-0.0249 J0.002
X7.834 Y2.905 I-0.0104 J-0.0227
G1 X7.7365
X7.7239 Y2.9044
X7.7144 Y2.9031
X7.7033 Y2.9007
X7.6921 Y2.8974
X7.6789 Y2.8923
X7.6654 Y2.8857
X7.6505 Y2.8769
X7.6343 Y2.8655
X7.6176 Y2.8517
X7.5996 Y2.8342
X7.5803 Y2.8121
X7.5609 Y2.7858
X7.5403 Y2.7527
X7.5225 Y2.7181
X7.5069 Y2.6823
X7.4934 Y2.6458
X7.4816 Y2.6086
X7.4713 Y2.571
X7.4624 Y2.533
X7.4548 Y2.4948
X7.4482 Y2.4564
X7.4427 Y2.4178
X7.4382 Y2.379
X7.4345 Y2.3402
X7.4317 Y2.3013
X7.4297 Y2.2624
X7.4285 Y2.2234
X7.428 Y2.1844
X7.4283 Y2.1454
X7.4294 Y2.1065
X7.4312 Y2.0675
X7.4338 Y2.0286
X7.4372 Y1.9898
X7.4415 Y1.951
X7.4467 Y1.9124
X7.4531 Y1.8739
X7.4609 Y1.8357
X7.4704 Y1.7979
X7.48 Y1.768
X7.4887 Y1.747
X7.4939 Y1.7368
X7.5009 Y1.7261
X7.5101 Y1.7172
X7.521 Y1.7105
X7.5331 Y1.7064
X7.5459 Y1.705
X7.644
G3 X7.6535 Y1.7072 I-0.0009 J0.025
X7.668 Y1.728 I-0.0104 J0.0227
G1 X7.7606 Y2.878
G3 X7.746 Y2.9028 I-0.0249 J0.002
X7.7365 Y2.905 I-0.0104 J-0.0227
G1 X7.6391
X7.6275 Y2.9044
X7.6179 Y2.9032
X7.6068 Y2.9008
X7.5955 Y2.8974
X7.5824 Y2.8923
X7.5688 Y2.8857
X7.5539 Y2.8769
X7.5376 Y2.8655
X7.5209 Y2.8516
X7.503 Y2.8341
X7.4836 Y2.812
X7.4642 Y2.7857
X7.4436 Y2.7526
X7.4257 Y2.7179
X7.4102 Y2.6822
X7.3966 Y2.6456
X7.3848 Y2.6085
X7.3745 Y2.5709
X7.3655 Y2.5329
X7.3579 Y2.4947
X7.3513 Y2.4563
X7.3457 Y2.4177
X7.3411 Y2.3789
X7.3374 Y2.3401
X7.3345 Y2.3012
X7.3324 Y2.2623
X7.3311 Y2.2233
X7.3306 Y2.1844
X7.3308 Y2.1454
X7.3318 Y2.1064
X7.3335 Y2.0674
X7.3361 Y2.0285
X7.3394 Y1.9897
X7.3437 Y1.9509
X7.3489 Y1.9123
X7.3552 Y1.8738
X7.3629 Y1.8356
X7.3724 Y1.7978
X7.382 Y1.768
X7.3906 Y1.747
X7.3958 Y1.7368
X7.4029 Y1.7261
X7.4121 Y1.7172
X7.423 Y1.7105
X7.4351 Y1.7064
X7.4478 Y1.705
X7.5459
G3 X7.5699 Y1.728 I-0.0009 J0.025
G1 X7.6631 Y2.878
G3 X7.6486 Y2.9028 I-0.0249 J0.002
X7.6391 Y2.905 I-0.0104 J-0.0227
G1 X7.5416
X7.5309 Y2.9045
X7.5213 Y2.9032
X7.5102 Y2.9008
X7.499 Y2.8975
X7.4858 Y2.8923
X7.4722 Y2.8857
X7.4573 Y2.8769
X7.441 Y2.8655
X7.4243 Y2.8516
X7.4063 Y2.8341
X7.3869 Y2.8119
X7.3674 Y2.7856
X7.3468 Y2.7525
X7.3289 Y2.7178
X7.3134 Y2.6821
X7.2998 Y2.6455
X7.2879 Y2.6084
X7.2776 Y2.5708
X7.2687 Y2.5328
X7.2609 Y2.4946
X7.2543 Y2.4562
X7.2487 Y2.4176
X7.244 Y2.3789
X7.2402 Y2.3401
X7.2373 Y2.3012
X7.2352 Y2.2623
X7.2338 Y2.2233
X7.2332 Y2.1843
X7.2334 Y2.1453
X7.2343 Y2.1063
X7.2359 Y2.0674
X7.2384 Y2.0285
X7.2417 Y1.9896
X7.2459 Y1.9509
X7.251 Y1.9122
X7.2573 Y1.8737
X7.265 Y1.8355
X7.2744 Y1.7977
X7.284 Y1.768
X7.2926 Y1.747
X7.2978 Y1.7368
X7.3048 Y1.7261
X7.314 Y1.7172
X7.325 Y1.7105
X7.3371 Y1.7064
X7.3498 Y1.705
X7.4478
G3 X7.4718 Y1.728 I-0.0009 J0.025
G1 X7.5657 Y2.878
G3 X7.5511 Y2.9028 I-0.0249 J0.002
X7.5416 Y2.905 I-0.0104 J-0.0227
G1 X7.4442
X7.4343 Y2.9045
X7.4247 Y2.9033
X7.4136 Y2.9009
X7.4023 Y2.8975
X7.3892 Y2.8924
X7.3755 Y2.8858
X7.3606 Y2.877
X7.3443 Y2.8655
X7.3276 Y2.8516
X7.3095 Y2.834
X7.2902 Y2.8118
X7.2706 Y2.7854
X7.25 Y2.7523
X7.2321 Y2.7177
X7.2165 Y2.682
X7.2029 Y2.6454
X7.1911 Y2.6083
X7.1807 Y2.5707
X7.1717 Y2.5327
X7.1639 Y2.4945
X7.1573 Y2.4561
X7.1516 Y2.4175
X7.1469 Y2.3788
X7.1431 Y2.34
X7.1401 Y2.3012
X7.1379 Y2.2622
X7.1365 Y2.2233
X7.1358 Y2.1843
X7.1359 Y2.1453
X7.1367 Y2.1063
X7.1383 Y2.0674
X7.1407 Y2.0284
X7.144 Y1.9896
X7.1481 Y1.9508
X7.1532 Y1.9122
X7.1595 Y1.8737
X7.1671 Y1.8354
X7.1765 Y1.7976
X7.186 Y1.768
X7.1946 Y1.7471
X7.1998 Y1.7368
X7.2069 Y1.7261
X7.2161 Y1.7172
X7.227 Y1.7106
X7.2391 Y1.7064
X7.2518 Y1.705
X7.3498
G3 X7.3593 Y1.7072 I-0.0009 J0.025
X7.3738 Y1.7279 I-0.0104 J0.0227
G1 X7.4682 Y2.878
G3 X7.4536 Y2.9028 I-0.0249 J0.002
X7.4442 Y2.905 I-0.0104 J-0.0227
G1 X7.3467
X7.3376 Y2.9045
X7.328 Y2.9033
X7.3169 Y2.9009
X7.3056 Y2.8975
X7.2925 Y2.8924
X7.2788 Y2.8858
X7.2639 Y2.877
X7.2475 Y2.8655
X7.2308 Y2.8516
X7.2128 Y2.834
X7.1933 Y2.8118
X7.1738 Y2.7853
X7.1532 Y2.7522
X7.1353 Y2.7176
X7.1197 Y2.6819
X7.1061 Y2.6453
X7.0942 Y2.6082
X7.0838 Y2.5706
X7.0748 Y2.5327
X7.0669 Y2.4945
X7.0602 Y2.4561
X7.0545 Y2.4175
X7.0498 Y2.3788
X7.0459 Y2.34
X7.0428 Y2.3011
X7.0406 Y2.2622
X7.0391 Y2.2232
X7.0384 Y2.1843
Y2.1453
X7.0392 Y2.1063
X7.0407 Y2.0673
X7.0431 Y2.0284
X7.0463 Y1.9895
X7.0503 Y1.9508
X7.0554 Y1.9121
X7.0616 Y1.8736
X7.0692 Y1.8354
X7.0786 Y1.7975
X7.0881 Y1.768
X7.0967 Y1.7471
X7.1019 Y1.7369
X7.1089 Y1.7262
X7.1181 Y1.7172
X7.129 Y1.7106
X7.1412 Y1.7064
X7.1539 Y1.705
X7.2518
G3 X7.2759 Y1.7279 I-0.0009 J0.025
G1 X7.3707 Y2.878
G3 X7.3562 Y2.9028 I-0.0249 J0.0021
X7.3467 Y2.905 I-0.0104 J-0.0227
G1 X7.2492
X7.2409 Y2.9046
X7.2313 Y2.9033
X7.2202 Y2.9009
X7.2089 Y2.8976
X7.1957 Y2.8924
X7.1821 Y2.8858
X7.1671 Y2.877
X7.1508 Y2.8655
X7.134 Y2.8516
X7.1159 Y2.834
X7.0965 Y2.8117
X7.0769 Y2.7852
X7.0563 Y2.7521
X7.0384 Y2.7175
X7.0228 Y2.6818
X7.0091 Y2.6452
X6.9971 Y2.6077
X6.9959 Y2.6026
X6.9952 Y2.5974
X6.995 Y2.5922
Y1.8427
X6.9966 Y1.8103
X6.9995 Y1.7883
X7.0038 Y1.7682
X7.0087 Y1.752
X7.0125 Y1.7422
X7.0178 Y1.7318
X7.025 Y1.7227
X7.0339 Y1.7152
X7.0441 Y1.7096
X7.0553 Y1.7062
X7.0668 Y1.705
G3 X7.0891 Y1.7395 I-0.0009 J0.025
G1 X7.0431 Y1.8513
G3 X6.9972 Y1.8522 I-0.0231 J-0.0095
X6.995 Y1.8427 I0.0227 J-0.0104
G1 Y1.7365
X6.9952 Y1.7276
X6.9955 Y1.7254
X6.9961 Y1.7232
X6.9969 Y1.721
X6.9979 Y1.7188
X6.9993 Y1.7164
X7.0012 Y1.714
X7.0034 Y1.7117
X7.0056 Y1.7099
X7.0078 Y1.7084
X7.01 Y1.7073
X7.0122 Y1.7064
X7.0144 Y1.7057
X7.0167 Y1.7053
X7.0189 Y1.705
X7.0277
X7.1539
G3 X7.1779 Y1.7279 I-0.0009 J0.025
G1 X7.2733 Y2.8779
G3 X7.2587 Y2.9028 I-0.0249 J0.0021
X7.2492 Y2.905 I-0.0104 J-0.0227
G1 X7.1518
X7.1441 Y2.9046
X7.1346 Y2.9034
X7.1234 Y2.901
X7.1121 Y2.8976
X7.099 Y2.8925
X7.0853 Y2.8858
X7.0703 Y2.877
X7.0539 Y2.8655
X7.0372 Y2.8516
X7.0191 Y2.834
X7.0094 Y2.8228
X7.0032 Y2.8144
X6.9987 Y2.805
X6.9959 Y2.7949
X6.995 Y2.7845
G3 X6.9972 Y2.775 I0.025 J0.0009
X7.0346 Y2.7651 I0.0227 J0.0104
G1 X7.1656 Y2.8598
G3 X7.1613 Y2.9028 I-0.0146 J0.0203
X7.1518 Y2.905 I-0.0104 J-0.0227
G1 X7.0543
X7.0473 Y2.9046
X7.0458 Y2.9044
X7.0341 Y2.9017
X7.0232 Y2.8966
X7.0137 Y2.8894
X7.0058 Y2.8804
X6.9999 Y2.8699
X6.9962 Y2.8585
X6.995 Y2.8466
G3 X6.9972 Y2.8371 I0.025 J0.0009
X7.0374 Y2.8296 I0.0227 J0.0104
G1 X7.0709 Y2.8621
G3 X7.0638 Y2.9028 I-0.0174 J0.0179
X7.0543 Y2.905 I-0.0104 J-0.0227
G1 X7.0277
X7.0189
X7.0183 Y2.9049
X7.0142 Y2.9042
X7.0121 Y2.9036
X7.01 Y2.9027
X7.0078 Y2.9016
X7.0056 Y2.9001
X7.0034 Y2.8983
X7.0012 Y2.896
X6.9994 Y2.8938
X6.9981 Y2.8916
X6.997 Y2.8894
X6.9962 Y2.8872
X6.9956 Y2.885
X6.9952 Y2.8828
X6.995 Y2.8784
Y2.5922
X6.9955 Y2.59 Z-0.1994
X6.9959 Y2.588 Z-0.1986
X6.9963 Y2.5862 Z-0.1975
X6.9966 Y2.5847 Z-0.1959
X6.9968 Y2.5836 Z-0.1941
X6.9971 Y2.5829 Z-0.192
X6.9972 Y2.5827 Z-0.1898
G0 Z0.2
X10.6301 Y2.3041
Z-0.0746
G1 Z-0.0996 F39.37
G3 X10.8676 Y2.3059 Z-0.1126 I0.1187 J0.0009 F13.12
X10.834 Y2.3878 Z-0.1158 I-0.1187 J-0.0009
X10.6403 Y2.3532 Z-0.1239 I-0.0852 J-0.0828
X10.7446 Y2.1863 Z-0.132 I0.1085 J-0.0482
X10.8606 Y2.3453 Z-0.1401 I0.0043 J0.1187
X10.6699 Y2.3937 Z-0.1482 I-0.1117 J-0.0403
X10.696 Y2.1986 Z-0.1563 I0.079 J-0.0887
X10.8017 Y2.4114 Z-0.1693 I0.0528 J0.1064
X10.696 Y2.1986 Z-0.1823 I-0.0528 J-0.1064
X10.8017 Y2.4114 Z-0.1954 I0.0528 J0.1064
X10.696 Y2.1986 Z-0.2084 I-0.0528 J-0.1064
X10.8017 Y2.4114 Z-0.2214 I0.0528 J0.1064
X10.696 Y2.1986 Z-0.2345 I-0.0528 J-0.1064
X10.847 Y2.3719 Z-0.2454 I0.0528 J0.1064
X10.6502 Y2.3711 Z-0.2535 I-0.0981 J-0.0669
X10.8475 Y2.2389 Z-0.2665 I0.0986 J-0.0661
X10.6502 Y2.3711 Z-0.2795 I-0.0986 J0.0661
X10.8475 Y2.2389 Z-0.2925 I0.0986 J-0.0661
X10.6502 Y2.3711 Z-0.3056 I-0.0986 J0.0661
X10.8475 Y2.2389 Z-0.3186 I0.0986 J-0.0661
X10.6502 Y2.3711 Z-0.3316 I-0.0986 J0.0661
X10.8475 Y2.2389 Z-0.3447 I0.0986 J-0.0661
X10.6502 Y2.3711 Z-0.3577 I-0.0986 J0.0661
X10.8475 Y2.2389 Z-0.3707 I0.0986 J-0.0661
X10.6502 Y2.3711 Z-0.3837 I-0.0986 J0.0661
X10.8475 Y2.2389 Z-0.3968 I0.0986 J-0.0661
X10.8676 Y2.305 Z-0.3992 I-0.0986 J0.0661
X10.6301 I-0.1188 J0
X10.8676 I0.1187 J0
G1 X10.8678 Y2.3147 F39.37
X10.8749 Y2.3531
X10.8767 Y2.3588
X10.8778 Y2.3647
X10.8783 Y2.3707
X10.8784 Y2.3767
X10.8779 Y2.3832
X10.8768 Y2.3901
X10.8751 Y2.3974
X10.8726 Y2.4049
X10.8694 Y2.4126
X10.8653 Y2.4204
X10.8604 Y2.4283
X10.8547 Y2.436
X10.848 Y2.4436
X10.8405 Y2.451
X10.8321 Y2.4579
X10.8229 Y2.4644
X10.8129 Y2.4703
X10.8022 Y2.4755
X10.7907 Y2.4799
X10.7787 Y2.4835
X10.7661 Y2.4862
X10.7532 Y2.4879
X10.7399 Y2.4886
X10.7263 Y2.4882
X10.7127 Y2.4866
X10.6991 Y2.484
X10.6855 Y2.4802
X10.6722 Y2.4753
X10.6592 Y2.4693
X10.6466 Y2.4622
X10.6346 Y2.4541
X10.6231 Y2.445
X10.6124 Y2.4349
X10.6025 Y2.424
X10.5935 Y2.4122
X10.5853 Y2.3998
X10.5782 Y2.3866
X10.5722 Y2.3729
X10.5673 Y2.3587
X10.5635 Y2.3442
X10.5609 Y2.3293
X10.5595 Y2.3143
X10.5592 Y2.2992
X10.5603 Y2.2841
X10.5625 Y2.2691
X10.5659 Y2.2543
X10.5705 Y2.2398
X10.5763 Y2.2257
X10.5831 Y2.2122
X10.5911 Y2.1992
X10.6 Y2.1869
X10.6099 Y2.1753
X10.6208 Y2.1646
X10.6324 Y2.1548
X10.6448 Y2.1459
X10.6579 Y2.1381
X10.6716 Y2.1313
X10.6857 Y2.1257
X10.7003 Y2.1212
X10.7152 Y2.1179
X10.7303 Y2.1158
X10.7456 Y2.1149
X10.7608 Y2.1152
X10.776 Y2.1168
X10.791 Y2.1196
X10.8058 Y2.1236
X10.8201 Y2.1287
X10.8341 Y2.135
X10.8474 Y2.1424
X10.8602 Y2.1508
X10.8722 Y2.1603
X10.8834 Y2.1706
X10.8937 Y2.1818
X10.9032 Y2.1939
X10.9116 Y2.2066
X10.9261 Y2.233
X10.9385 Y2.2605
X10.9464 Y2.2826
X10.9518 Y2.3025
X10.9552 Y2.321
X10.957 Y2.339
X10.9574 Y2.3563
X10.9564 Y2.3732
X10.9541 Y2.3897
X10.9505 Y2.4058
X10.9457 Y2.4215
X10.9396 Y2.4368
X10.9322 Y2.4516
X10.9236 Y2.4659
X10.9138 Y2.4796
X10.9029 Y2.4925
X10.8908 Y2.5047
X10.8776 Y2.516
X10.8634 Y2.5264
X10.8481 Y2.5357
X10.832 Y2.5438
X10.815 Y2.5508
X10.7972 Y2.5564
X10.7789 Y2.5606
X10.76 Y2.5634
X10.7407 Y2.5647
X10.7213 Y2.5644
X10.7017 Y2.5626
X10.6821 Y2.5591
X10.6627 Y2.554
X10.6437 Y2.5474
X10.6251 Y2.5392
X10.6071 Y2.5295
X10.5899 Y2.5183
X10.5735 Y2.5056
X10.5582 Y2.4917
X10.5439 Y2.4764
X10.5308 Y2.46
X10.5191 Y2.4426
X10.5087 Y2.4242
X10.4999 Y2.4049
X10.4926 Y2.385
X10.4869 Y2.3645
X10.4828 Y2.3435
X10.4805 Y2.3223
X10.4798 Y2.3009
X10.4809 Y2.2795
X10.4837 Y2.2582
X10.4882 Y2.2372
X10.4944 Y2.2165
X10.5022 Y2.1965
X10.5116 Y2.1771
X10.5226 Y2.1585
X10.535 Y2.1408
X10.5488 Y2.1242
X10.5639 Y2.1088
X10.5802 Y2.0946
X10.5976 Y2.0817
X10.6159 Y2.0703
X10.6352 Y2.0604
X10.6551 Y2.052
X10.6757 Y2.0453
X10.6968 Y2.0403
X10.7182 Y2.0369
X10.7398 Y2.0353
X10.7614 Y2.0355
X10.783 Y2.0373
X10.8044 Y2.0409
X10.8254 Y2.0462
X10.8459 Y2.0532
X10.8658 Y2.0618
X10.8849 Y2.072
X10.9032 Y2.0836
X10.9205 Y2.0967
X10.9388 Y2.1131
X10.9571 Y2.1323
X10.9742 Y2.1535
X10.99 Y2.1765
X11.0037 Y2.2005
X11.0153 Y2.2249
X11.0245 Y2.2496
X11.0316 Y2.2744
X11.0366 Y2.2991
X11.0395 Y2.3237
X11.0405 Y2.3481
X11.0395 Y2.3722
X11.0365 Y2.396
X11.0317 Y2.4193
X11.0251 Y2.4421
X11.0167 Y2.4642
X11.0065 Y2.4856
X10.9946 Y2.5062
X10.9811 Y2.5258
X10.966 Y2.5443
X10.9493 Y2.5617
X10.9311 Y2.5778
X10.9116 Y2.5924
X10.8908 Y2.6056
X10.8688 Y2.6172
X10.8458 Y2.627
X10.8218 Y2.6351
X10.7971 Y2.6412
X10.7717 Y2.6454
X10.746 Y2.6475
X10.7199
X10.6938 Y2.6455
X10.6677 Y2.6413
X10.6419 Y2.635
X10.6165 Y2.6266
X10.5918 Y2.6162
X10.5678 Y2.6037
X10.5448 Y2.5893
X10.5229 Y2.573
X10.5023 Y2.5549
X10.4832 Y2.5351
X10.4656 Y2.5138
X10.4498 Y2.4911
X10.4357 Y2.467
X10.4237 Y2.4419
X10.4136 Y2.4158
X10.4057 Y2.389
X10.3999 Y2.3615
X10.3963 Y2.3336
X10.395 Y2.3054
X10.396 Y2.2772
X10.3992 Y2.2492
X10.4047 Y2.2214
X10.4124 Y2.1942
X10.4222 Y2.1676
X10.4342 Y2.1419
X10.4482 Y2.1173
X10.4641 Y2.0938
X10.4819 Y2.0716
X10.5014 Y2.051
X10.5225 Y2.0319
X10.5451 Y2.0147
X10.569 Y1.9993
X10.5941 Y1.9858
X10.6202 Y1.9744
X10.6471 Y1.9651
X10.6747 Y1.9581
X10.7027 Y1.9532
X10.7311 Y1.9506
X10.7596 Y1.9503
X10.788 Y1.9523
X10.8161 Y1.9566
X10.8439 Y1.9631
X10.871 Y1.9718
X10.8973 Y1.9827
X10.9234 Y1.996
X10.9491 Y2.0118
X10.9742 Y2.0302
X10.9985 Y2.0512
X11.0214 Y2.0745
X11.0426 Y2.0998
X11.0618 Y2.1268
X11.0786 Y2.1552
X11.0931 Y2.1846
X11.1051 Y2.2149
X11.1145 Y2.2458
X11.1213 Y2.2771
X11.1256 Y2.3086
X11.1273 Y2.3401
X11.1265 Y2.3714
X11.1232 Y2.4023
X11.1175 Y2.4328
X11.1093 Y2.4627
X11.0988 Y2.4917
X11.086 Y2.5198
X11.071 Y2.5469
X11.0538 Y2.5726
X11.0345 Y2.597
X11.0133 Y2.6199
X10.9902 Y2.641
X10.9653 Y2.6604
X10.9388 Y2.6778
X10.9109 Y2.6931
X10.8816 Y2.7061
X10.8512 Y2.7169
X10.8199 Y2.7252
X10.7878 Y2.731
X10.7551 Y2.7343
X10.7221 Y2.7349
X10.689 Y2.7328
X10.656 Y2.7281
X10.6233 Y2.7207
X10.5911 Y2.7107
X10.5597 Y2.698
X10.5293 Y2.6828
X10.5001 Y2.6652
X10.4723 Y2.6451
X10.4461 Y2.6228
X10.4216 Y2.5984
X10.3992 Y2.5721
X10.3789 Y2.5439
X10.3608 Y2.5142
X10.3452 Y2.483
X10.3321 Y2.4505
X10.3216 Y2.4171
X10.3138 Y2.3828
X10.3088 Y2.348
X10.3066 Y2.3129
X10.3072 Y2.2776
X10.3106 Y2.2424
X10.3169 Y2.2076
X10.3259 Y2.1734
X10.3377 Y2.14
X10.3521 Y2.1076
X10.3691 Y2.0765
X10.3886 Y2.0468
X10.4104 Y2.0188
X10.4343 Y1.9925
X10.4603 Y1.9683
X10.4882 Y1.9463
X10.5178 Y1.9265
X10.5488 Y1.9092
X10.5812 Y1.8944
X10.6147 Y1.8822
X10.649 Y1.8728
X10.684 Y1.8662
X10.7194 Y1.8624
X10.7549 Y1.8614
X10.7905 Y1.8633
X10.8258 Y1.8681
X10.8607 Y1.8757
X10.8952 Y1.8861
X10.9291 Y1.8995
X10.9623 Y1.9157
X10.9946 Y1.9349
X11.0258 Y1.957
X11.0556 Y1.9819
X11.0834 Y2.0093
X11.109 Y2.0387
X11.1321 Y2.0701
X11.1528 Y2.1032
X11.1707 Y2.1378
X11.1859 Y2.1737
X11.1981 Y2.2107
X11.2074 Y2.2486
X11.2137 Y2.2871
X11.2168 Y2.3257
Y2.3643
X11.2137 Y2.4027
X11.2076 Y2.4405
X11.1984 Y2.4777
X11.1863 Y2.514
X11.1714 Y2.5491
X11.1537 Y2.583
X11.1333 Y2.6154
X11.1103 Y2.6461
X11.0848 Y2.6749
X11.0571 Y2.7017
X11.0271 Y2.7263
X10.9952 Y2.7485
X10.9614 Y2.768
X10.9263 Y2.7849
X10.8899 Y2.7988
X10.8525 Y2.8099
X10.8143 Y2.8179
X10.7756 Y2.823
X10.7367 Y2.825
X10.6977 Y2.8239
X10.659 Y2.8199
X10.6206 Y2.8129
X10.5829 Y2.8029
X10.5461 Y2.7901
X10.5103 Y2.7746
X10.4758 Y2.7564
X10.4428 Y2.7356
X10.4115 Y2.7124
X10.382 Y2.6869
X10.3545 Y2.6593
X10.3292 Y2.6296
X10.3062 Y2.5981
X10.2856 Y2.565
X10.2675 Y2.5305
X10.252 Y2.4947
X10.2392 Y2.4579
X10.2291 Y2.4202
X10.2218 Y2.3819
X10.2174 Y2.3432
X10.2158 Y2.3042
X10.217 Y2.2653
X10.2212 Y2.2265
X10.2282 Y2.1881
X10.2381 Y2.1504
X10.2507 Y2.1135
X10.266 Y2.0776
X10.2838 Y2.043
X10.3042 Y2.0097
X10.3268 Y1.978
X10.3518 Y1.948
X10.3788 Y1.9199
X10.4078 Y1.8939
X10.4387 Y1.87
X10.4712 Y1.8485
X10.5052 Y1.8295
X10.5406 Y1.813
X10.577 Y1.7992
X10.6144 Y1.788
X10.6524 Y1.7796
X10.691 Y1.7739
X10.7299 Y1.7711
X10.7689 Y1.771
X10.8078 Y1.7738
X10.8464 Y1.7795
X10.8844 Y1.788
X10.9217 Y1.7992
X10.9582 Y1.8131
X10.9935 Y1.8296
X11.0277 Y1.8484
X11.0604 Y1.8695
X11.0917 Y1.8928
X11.1212 Y1.9183
X11.149 Y1.9457
X11.1748 Y1.9749
X11.1986 Y2.0058
X11.2203 Y2.0381
X11.2399 Y2.0718
X11.2572 Y2.1068
X11.272 Y2.1429
X11.2843 Y2.1799
X11.2942 Y2.2176
X11.3015 Y2.2559
X11.3063 Y2.2946
X11.3085 Y2.3335
X11.3079 Y2.3725
X11.3046 Y2.4114
X11.2987 Y2.4499
X11.2901 Y2.4879
X11.2791 Y2.5253
X11.2655 Y2.5619
X11.2495 Y2.5974
X11.2309 Y2.6317
X11.2101 Y2.6647
X11.187 Y2.6961
X11.1619 Y2.7259
X11.1348 Y2.754
X11.1059 Y2.7802
X11.0753 Y2.8043
X11.0431 Y2.8262
X11.0094 Y2.8459
X10.9745 Y2.8633
X10.9385 Y2.8784
X10.9017 Y2.891
X10.864 Y2.9012
X10.8505 Y2.9039
X10.8468 Y2.9045
X10.843 Y2.9049
X10.8392 Y2.905
X10.6957
X10.6568 Y2.9031
X10.6373 Y2.9014
X10.6018 Y2.8969
X10.5637 Y2.889
X10.5263 Y2.878
X10.4898 Y2.8642
X10.4544 Y2.8479
X10.4201 Y2.8293
X10.3873 Y2.8083
X10.3559 Y2.7851
X10.3262 Y2.7599
X10.2981 Y2.7328
X10.2718 Y2.7041
X10.2473 Y2.6737
X10.2249 Y2.6418
X10.2046 Y2.6085
X10.1865 Y2.574
X10.1706 Y2.5384
X10.1569 Y2.5019
X10.1455 Y2.4646
X10.1364 Y2.4267
X10.1298 Y2.3882
X10.1256 Y2.3495
X10.1239 Y2.3105
X10.1246 Y2.2715
X10.1278 Y2.2327
X10.1334 Y2.1941
X10.1413 Y2.1559
X10.1517 Y2.1183
X10.1645 Y2.0815
X10.1796 Y2.0455
X10.1968 Y2.0106
X10.2162 Y1.9767
X10.2375 Y1.9441
X10.2609 Y1.9129
X10.2862 Y1.8832
X10.3133 Y1.8552
X10.3422 Y1.829
X10.3726 Y1.8046
X10.4044 Y1.7821
X10.4376 Y1.7616
X10.472 Y1.7432
X10.5075 Y1.7271
X10.544 Y1.7133
X10.5621 Y1.7076
X10.5678 Y1.7062
X10.5736 Y1.7053
X10.5794 Y1.705
X10.8375
X10.8764 Y1.7069
X10.8958 Y1.7091
X10.9284 Y1.7145
X10.9629 Y1.723
X10.9998 Y1.7355
X11.0357 Y1.7508
X11.0703 Y1.7687
X11.1037 Y1.7889
X11.1356 Y1.8112
X11.1661 Y1.8355
X11.1951 Y1.8616
X11.2225 Y1.8893
X11.2482 Y1.9187
X11.272 Y1.9495
X11.2941 Y1.9817
X11.3142 Y2.0151
X11.3324 Y2.0496
X11.3485 Y2.0851
X11.351 Y2.0915
X11.3532 Y2.0984
X11.3546 Y2.1055
X11.355 Y2.1126
Y2.4977
X11.3536 Y2.5262
X11.3503 Y2.5509
X11.3442 Y2.5798
X11.3346 Y2.6118
X11.3216 Y2.6451
X11.3046 Y2.6802
X11.2849 Y2.7138
X11.2628 Y2.746
X11.2387 Y2.7766
X11.2126 Y2.8056
X11.1849 Y2.833
X11.1555 Y2.8586
X11.1246 Y2.8824
X11.106 Y2.895
X11.0959 Y2.9005
X11.0848 Y2.9039
X11.0733 Y2.905
X10.8392
G3 X10.8247 Y2.8603 I0.0009 J-0.025
G1 X11.3147 Y2.4789
G3 X11.3528 Y2.4882 I0.0154 J0.0197
X11.355 Y2.4977 I-0.0227 J0.0104
G1 Y2.6748
X11.3539 Y2.6963
X11.352 Y2.7113
X11.3481 Y2.7294
X11.3423 Y2.7486
X11.3334 Y2.7714
X11.3219 Y2.7952
X11.306 Y2.8222
X11.2853 Y2.8516
X11.2604 Y2.8816
X11.255 Y2.8873
X11.2461 Y2.8948
X11.2358 Y2.9004
X11.2247 Y2.9038
X11.2131 Y2.905
G3 X11.2036 Y2.9028 I0.0009 J-0.025
X11.1922 Y2.8677 I0.0104 J-0.0227
G1 X11.3083 Y2.6633
G3 X11.3528 Y2.6653 I0.0217 J0.0123
X11.355 Y2.6748 I-0.0227 J0.0104
G1 Y2.8164
X11.3544 Y2.8288
X11.3526 Y2.8423
X11.3497 Y2.8557
X11.3474 Y2.8634
X11.3426 Y2.8749
X11.3355 Y2.885
X11.3264 Y2.8935
X11.3157 Y2.8998
X11.3039 Y2.9037
X11.2916 Y2.905
G3 X11.2821 Y2.9028 I0.0009 J-0.025
X11.271 Y2.8672 I0.0104 J-0.0227
G1 X11.3086 Y2.8044
G3 X11.355 Y2.8164 I0.0214 J0.0128
G1 Y2.8784
X11.3548 Y2.8828
X11.3544 Y2.885
X11.3538 Y2.8872
X11.3528 Y2.8899
X11.3513 Y2.8926
X11.3488 Y2.8961
X11.3472 Y2.8977
X11.3456 Y2.8991
X11.3425 Y2.9014
X11.3403 Y2.9026
X11.338 Y2.9035
X11.3358 Y2.9042
X11.3336 Y2.9047
X11.3316 Y2.9049
X11.3248 Y2.905
X11.0733
G3 X11.0497 Y2.885 I0.0009 J-0.025
G1 X10.8138 Y1.735
G3 X10.828 Y1.7072 I0.0245 J-0.005
X10.8375 Y1.705 I0.0104 J0.0227
G1 X11.0501
X11.0656 Y1.7058
X11.0829 Y1.708
X11.1012 Y1.712
X11.1233 Y1.7186
X11.1464 Y1.7276
X11.1732 Y1.7406
X11.2028 Y1.758
X11.2344 Y1.7802
X11.2644 Y1.8051
X11.2925 Y1.8321
X11.3188 Y1.8609
X11.3433 Y1.8913
X11.3441 Y1.8923
X11.3501 Y1.9028
X11.3538 Y1.9143
X11.355 Y1.9263
Y2.1126
G3 X11.3528 Y2.1221 I-0.025 J-0.0009
X11.3098 Y2.1265 I-0.0227 J-0.0104
G1 X11.0308 Y1.7447
G3 X11.0406 Y1.7072 I0.0202 J-0.0148
X11.0501 Y1.705 I0.0104 J0.0227
G1 X11.1919
X11.2049 Y1.7057
X11.2189 Y1.7075
X11.2337 Y1.7106
X11.2506 Y1.7157
X11.2693 Y1.723
X11.2903 Y1.7332
X11.3127 Y1.7464
X11.3302 Y1.7587
X11.3387 Y1.7659
X11.3456 Y1.7747
X11.3508 Y1.7846
X11.3539 Y1.7953
X11.355 Y1.8064
G3 X11.3528 Y1.8159 I-0.025 J-0.0009
X11.318 Y1.8274 I-0.0227 J-0.0104
G1 X11.1807 Y1.7519
G3 X11.1919 Y1.705 I0.0121 J-0.0219
G1 X11.307
X11.3186 Y1.7056
X11.3283 Y1.7081
X11.3372 Y1.7128
X11.3446 Y1.7195
X11.3503 Y1.7277
X11.3538 Y1.7371
X11.355 Y1.747
G3 X11.3528 Y1.7565 I-0.025 J-0.0009
X11.3153 Y1.7663 I-0.0227 J-0.0104
G1 X11.2932 Y1.7502
G3 X11.307 Y1.705 I0.0147 J-0.0202
G1 X11.3248
X11.3336 Y1.7053
X11.3358 Y1.7058
X11.338 Y1.7065
X11.3403 Y1.7074
X11.3425 Y1.7086
X11.3443 Y1.7099
X11.3464 Y1.7116
X11.3485 Y1.7136
X11.3501 Y1.7155
X11.3513 Y1.7174
X11.3521 Y1.7188
X11.3531 Y1.721
X11.3539 Y1.7232
X11.3545 Y1.7254
X11.3548 Y1.7276
X11.355 Y1.7365
Y1.9263
G3 X11.3528 Y1.9358 I-0.025 J-0.0009
X11.3508 Y1.9393 I-0.0227 J-0.0104
G1 X10.7156 Y2.8939
G3 X10.7052 Y2.9028 I-0.0208 J-0.0138
X10.6957 Y2.905 I-0.0104 J-0.0227
G1 X10.4653
X10.4434 Y2.9039
X10.4269 Y2.9017
X10.4071 Y2.8975
X10.386 Y2.8912
X10.3612 Y2.8815
X10.3353 Y2.869
X10.3067 Y2.8521
X10.2757 Y2.8303
X10.2457 Y2.8054
X10.2176 Y2.7784
X10.1914 Y2.7495
X10.1671 Y2.7191
X10.1447 Y2.6871
X10.1243 Y2.6539
X10.1059 Y2.6195
X10.0894 Y2.5842
X10.0749 Y2.548
X10.0623 Y2.5111
X10.0518 Y2.4735
X10.0434 Y2.4355
X10.0372 Y2.397
X10.0331 Y2.3582
X10.0312 Y2.3193
X10.0313 Y2.2803
X10.0336 Y2.2413
X10.038 Y2.2026
X10.0444 Y2.1641
X10.053 Y2.1261
X10.0637 Y2.0886
X10.0764 Y2.0517
X10.0911 Y2.0156
X10.1078 Y1.9804
X10.1263 Y1.9461
X10.1465 Y1.9128
X10.1686 Y1.8806
X10.1924 Y1.8497
X10.2178 Y1.8202
X10.2449 Y1.7921
X10.2735 Y1.7656
X10.3034 Y1.7406
X10.3346 Y1.7172
X10.3382 Y1.7148
X10.3483 Y1.7094
X10.3592 Y1.7061
X10.3706 Y1.705
X10.5794
G3 X10.5889 Y1.7072 I-0.0009 J0.025
X10.6034 Y1.7325 I-0.0104 J0.0227
G1 X10.4894 Y2.8825
G3 X10.4653 Y2.905 I-0.0249 J-0.0025
G1 X10.3147
X10.3047 Y2.9045
X10.2907 Y2.9027
X10.2761 Y2.8995
X10.2592 Y2.8945
X10.2405 Y2.8872
X10.2198 Y2.8771
X10.1976 Y2.8641
X10.1726 Y2.8466
X10.1461 Y2.8245
X10.1188 Y2.7979
X10.0932 Y2.7685
X10.0697 Y2.7374
X10.0483 Y2.7048
X10.0288 Y2.671
X10.0113 Y2.6362
X9.9956 Y2.6005
X9.9817 Y2.5641
X9.9696 Y2.527
X9.9594 Y2.4894
X9.9512 Y2.4512
X9.9449 Y2.4128
X9.9405 Y2.374
X9.938 Y2.3351
X9.9374 Y2.2961
X9.9386 Y2.2572
X9.9416 Y2.2183
X9.9465 Y2.1796
X9.9534 Y2.1412
X9.9621 Y2.1032
X9.9727 Y2.0657
X9.985 Y2.0287
X9.9992 Y1.9924
X10.015 Y1.9567
X10.0325 Y1.9219
X10.0516 Y1.8879
X10.0723 Y1.8548
X10.0946 Y1.8229
X10.1184 Y1.792
X10.1438 Y1.7624
X10.1705 Y1.734
X10.1836 Y1.7214
X10.1923 Y1.7144
X10.2023 Y1.7092
X10.213 Y1.7061
X10.2241 Y1.705
X10.3706
G3 X10.3947 Y1.7312 I-0.0009 J0.025
G1 X10.3388 Y2.8812
G3 X10.3242 Y2.9028 I-0.025 J-0.0012
X10.3147 Y2.905 I-0.0104 J-0.0227
G1 X10.1996
X10.1825 Y2.9041
X10.171 Y2.9026
X10.1572 Y2.8997
X10.1427 Y2.8953
X10.1265 Y2.8891
X10.1086 Y2.8803
X10.0894 Y2.869
X10.0685 Y2.8544
X10.0453 Y2.8351
X10.0213 Y2.8117
X9.9959 Y2.7826
X9.9727 Y2.7513
X9.9518 Y2.7184
X9.9328 Y2.6843
X9.9159 Y2.6492
X9.9007 Y2.6133
X9.8874 Y2.5766
X9.8758 Y2.5394
X9.866 Y2.5017
X9.8579 Y2.4635
X9.8516 Y2.425
X9.8471 Y2.3863
X9.8443 Y2.3474
X9.8431 Y2.3084
X9.8436 Y2.2694
X9.8458 Y2.2305
X9.8497 Y2.1917
X9.8553 Y2.1531
X9.8625 Y2.1148
X9.8714 Y2.0769
X9.882 Y2.0393
X9.8943 Y2.0023
X9.9081 Y1.9658
X9.9234 Y1.93
X9.9402 Y1.8948
X9.9585 Y1.8604
X9.9783 Y1.8268
X9.9994 Y1.794
X10.022 Y1.7623
X10.046 Y1.7315
X10.0514 Y1.7252
X10.0606 Y1.7167
X10.0713 Y1.7103
X10.0832 Y1.7063
X10.0956 Y1.705
X10.2241
G3 X10.2482 Y1.7305 I-0.0009 J0.025
G1 X10.2237 Y2.8805
G3 X10.1996 Y2.905 I-0.025 J-0.0005
G1 X10.0844
X10.071 Y2.9043
X10.0595 Y2.9028
X10.0474 Y2.9002
X10.0339 Y2.8962
X10.0181 Y2.8901
X10.0025 Y2.8825
X9.984 Y2.8716
X9.9655 Y2.8586
X9.9445 Y2.8412
X9.9221 Y2.8193
X9.899 Y2.7928
X9.8758 Y2.7615
X9.8551 Y2.7285
X9.8365 Y2.6942
X9.8199 Y2.6589
X9.8053 Y2.6228
X9.7924 Y2.586
X9.7812 Y2.5486
X9.7717 Y2.5108
X9.7638 Y2.4726
X9.7576 Y2.4341
X9.7529 Y2.3954
X9.7499 Y2.3565
X9.7485 Y2.3176
X9.7486 Y2.2786
X9.7502 Y2.2396
X9.7533 Y2.2008
X9.758 Y2.1621
X9.7642 Y2.1236
X9.7719 Y2.0853
X9.7811 Y2.0474
X9.7918 Y2.0099
X9.804 Y1.9729
X9.8176 Y1.9364
X9.8326 Y1.9004
X9.849 Y1.865
X9.8668 Y1.8303
X9.8859 Y1.7963
X9.9062 Y1.7631
X9.9279 Y1.7306
X9.9303 Y1.7276
X9.9375 Y1.7198
X9.946 Y1.7135
X9.9556 Y1.7088
X9.9658 Y1.706
X9.9764 Y1.705
X10.0956
G3 X10.1197 Y1.7302 I-0.0009 J0.025
G1 X10.1085 Y2.8803
G3 X10.0939 Y2.9028 I-0.025 J-0.0002
X10.0844 Y2.905 I-0.0104 J-0.0227
G1 X9.9781
X9.964 Y2.9043
X9.9531 Y2.9029
X9.9417 Y2.9004
X9.9282 Y2.8964
X9.9143 Y2.891
X9.8987 Y2.8834
X9.8817 Y2.8734
X9.8637 Y2.8607
X9.8443 Y2.8447
X9.823 Y2.8239
X9.8013 Y2.799
X9.7784 Y2.768
X9.7578 Y2.7349
X9.7395 Y2.7005
X9.7233 Y2.665
X9.709 Y2.6287
X9.6965 Y2.5918
X9.6857 Y2.5543
X9.6765 Y2.5165
X9.6689 Y2.4782
X9.6628 Y2.4397
X9.6582 Y2.401
X9.6551 Y2.3621
X9.6535 Y2.3232
X9.6533 Y2.2842
X9.6546 Y2.2452
X9.6572 Y2.2063
X9.6613 Y2.1675
X9.6667 Y2.1289
X9.6735 Y2.0905
X9.6817 Y2.0524
X9.6913 Y2.0146
X9.7022 Y1.9772
X9.7144 Y1.9402
X9.728 Y1.9036
X9.7429 Y1.8676
X9.7591 Y1.8321
X9.7765 Y1.7972
X9.7951 Y1.7629
X9.8128 Y1.7334
X9.8155 Y1.7295
X9.8228 Y1.7211
X9.8315 Y1.7143
X9.8414 Y1.7092
X9.852 Y1.7061
X9.863 Y1.705
X9.9764
G3 X9.9859 Y1.7072 I-0.0009 J0.025
X10.0005 Y1.7299 I-0.0104 J0.0227
G1 X10.0022 Y2.88
G3 X9.9781 Y2.905 I-0.025 J0
G1 X9.8717
X9.8604 Y2.9044
X9.8502 Y2.9031
X9.8389 Y2.9007
X9.8257 Y2.8967
X9.8125 Y2.8916
X9.7969 Y2.884
X9.7811 Y2.8747
X9.7633 Y2.8622
X9.745 Y2.847
X9.7247 Y2.8272
X9.7038 Y2.8033
X9.682 Y2.7738
X9.6614 Y2.7407
X9.6433 Y2.7062
X9.6272 Y2.6707
X9.6132 Y2.6343
X9.6009 Y2.5973
X9.5903 Y2.5597
X9.5813 Y2.5218
X9.5738 Y2.4836
X9.5678 Y2.445
X9.5632 Y2.4063
X9.56 Y2.3675
X9.5582 Y2.3285
X9.5578 Y2.2895
X9.5587 Y2.2505
X9.561 Y2.2116
X9.5645 Y2.1728
X9.5693 Y2.1341
X9.5754 Y2.0956
X9.5827 Y2.0573
X9.5913 Y2.0192
X9.6012 Y1.9815
X9.6123 Y1.9441
X9.6246 Y1.9072
X9.6382 Y1.8706
X9.6529 Y1.8345
X9.6689 Y1.7989
X9.686 Y1.7639
X9.7012 Y1.7365
X9.7049 Y1.731
X9.7121 Y1.7222
X9.721 Y1.7149
X9.7311 Y1.7095
X9.742 Y1.7061
X9.7535 Y1.705
X9.863
G3 X9.8872 Y1.7298 I-0.0009 J0.025
G1 X9.8959 Y2.8798
G3 X9.8812 Y2.9028 I-0.025 J0.0002
X9.8717 Y2.905 I-0.0104 J-0.0227
G1 X9.7654
X9.759 Y2.9047
X9.7493 Y2.9034
X9.7379 Y2.901
X9.7254 Y2.8972
X9.7122 Y2.8921
X9.6968 Y2.8846
X9.6817 Y2.8757
X9.664 Y2.8633
X9.6466 Y2.8488
X9.627 Y2.8297
X9.6065 Y2.8063
X9.5855 Y2.7779
X9.5649 Y2.7448
X9.5469 Y2.7102
X9.531 Y2.6746
X9.5171 Y2.6382
X9.5051 Y2.6011
X9.4946 Y2.5635
X9.4858 Y2.5255
X9.4784 Y2.4873
X9.4725 Y2.4487
X9.4679 Y2.41
X9.4647 Y2.3711
X9.4628 Y2.3322
X9.4621 Y2.2932
X9.4628 Y2.2542
X9.4647 Y2.2153
X9.4678 Y2.1764
X9.4721 Y2.1377
X9.4776 Y2.0991
X9.4843 Y2.0606
X9.4921 Y2.0225
X9.5011 Y1.9845
X9.5113 Y1.9469
X9.5226 Y1.9096
X9.535 Y1.8726
X9.5486 Y1.8361
X9.5633 Y1.7999
X9.5793 Y1.7644
X9.5929 Y1.7386
X9.597 Y1.7321
X9.6043 Y1.7229
X9.6132 Y1.7153
X9.6234 Y1.7097
X9.6346 Y1.7062
X9.6463 Y1.705
X9.7535
G3 X9.7629 Y1.7072 I-0.0009 J0.025
X9.7776 Y1.7297 I-0.0104 J0.0227
G1 X9.7895 Y2.8798
G3 X9.7749 Y2.9028 I-0.025 J0.0003
X9.7654 Y2.905 I-0.0104 J-0.0227
G1 X9.668
X9.6588 Y2.9045
X9.6493 Y2.9033
X9.6379 Y2.9009
X9.6259 Y2.8973
X9.6128 Y2.8921
X9.5979 Y2.8849
X9.5829 Y2.8761
X9.5656 Y2.8639
X9.5485 Y2.8498
X9.5294 Y2.8312
X9.5093 Y2.8081
X9.489 Y2.7806
X9.4684 Y2.7475
X9.4504 Y2.7129
X9.4346 Y2.6772
X9.4209 Y2.6407
X9.409 Y2.6036
X9.3987 Y2.566
X9.39 Y2.528
X9.3828 Y2.4897
X9.3769 Y2.4511
X9.3723 Y2.4124
X9.3691 Y2.3735
X9.3671 Y2.3346
X9.3663 Y2.2956
X9.3667 Y2.2566
X9.3683 Y2.2177
X9.3711 Y2.1788
X9.375 Y2.14
X9.38 Y2.1013
X9.3861 Y2.0628
X9.3934 Y2.0245
X9.4017 Y1.9864
X9.411 Y1.9485
X9.4215 Y1.911
X9.433 Y1.8737
X9.4456 Y1.8368
X9.4593 Y1.8003
X9.4744 Y1.7644
X9.4867 Y1.74
X9.4911 Y1.7329
X9.4983 Y1.7234
X9.5073 Y1.7156
X9.5177 Y1.7098
X9.529 Y1.7062
X9.5408 Y1.705
X9.6463
G3 X9.6704 Y1.7295 I-0.0009 J0.025
G1 X9.6921 Y2.8795
G3 X9.6775 Y2.9028 I-0.025 J0.0005
X9.668 Y2.905 I-0.0104 J-0.0227
G1 X9.5705
X9.5599 Y2.9045
X9.5504 Y2.9032
X9.539 Y2.9008
X9.5274 Y2.8973
X9.5142 Y2.8922
X9.4998 Y2.8852
X9.4849 Y2.8764
X9.4678 Y2.8644
X9.4509 Y2.8504
X9.4322 Y2.8322
X9.4124 Y2.8094
X9.3925 Y2.7825
X9.3719 Y2.7494
X9.3539 Y2.7147
X9.3383 Y2.679
X9.3247 Y2.6425
X9.3129 Y2.6053
X9.3027 Y2.5677
X9.2941 Y2.5296
X9.287 Y2.4913
X9.2811 Y2.4528
X9.2766 Y2.414
X9.2733 Y2.3752
X9.2712 Y2.3363
X9.2703 Y2.2973
X9.2705 Y2.2583
X9.2719 Y2.2193
X9.2744 Y2.1804
X9.2779 Y2.1416
X9.2825 Y2.1029
X9.2882 Y2.0643
X9.2949 Y2.0259
X9.3026 Y1.9876
X9.3113 Y1.9496
X9.321 Y1.9119
X9.3317 Y1.8744
X9.3435 Y1.8372
X9.3563 Y1.8004
X9.3708 Y1.7642
X9.3823 Y1.7409
X9.3867 Y1.7335
X9.3939 Y1.7238
X9.4029 Y1.7159
X9.4133 Y1.7099
X9.4248 Y1.7062
X9.4368 Y1.705
X9.5408
G3 X9.565 Y1.7293 I-0.0009 J0.025
G1 X9.5946 Y2.8794
G3 X9.58 Y2.9028 I-0.025 J0.0006
X9.5705 Y2.905 I-0.0104 J-0.0227
G1 X9.473
X9.4618 Y2.9044
X9.4523 Y2.9032
X9.441 Y2.9008
X9.4295 Y2.8973
X9.4164 Y2.8922
X9.4022 Y2.8854
X9.3873 Y2.8766
X9.3705 Y2.8648
X9.3537 Y2.8508
X9.3353 Y2.8329
X9.3157 Y2.8104
X9.296 Y2.7838
X9.2754 Y2.7507
X9.2575 Y2.7161
X9.242 Y2.6803
X9.2284 Y2.6438
X9.2167 Y2.6066
X9.2067 Y2.5689
X9.1982 Y2.5308
X9.191 Y2.4925
X9.1852 Y2.4539
X9.1807 Y2.4152
X9.1774 Y2.3764
X9.1752 Y2.3374
X9.1742 Y2.2985
Y2.2595
X9.1754 Y2.2205
X9.1776 Y2.1816
X9.1808 Y2.1427
X9.1851 Y2.104
X9.1903 Y2.0653
X9.1965 Y2.0268
X9.2037 Y1.9885
X9.2118 Y1.9504
X9.2209 Y1.9125
X9.231 Y1.8748
X9.2421 Y1.8374
X9.2543 Y1.8004
X9.2681 Y1.7644
X9.2789 Y1.7417
X9.2834 Y1.734
X9.2906 Y1.7242
X9.2996 Y1.7161
X9.3102 Y1.71
X9.3217 Y1.7063
X9.3338 Y1.705
X9.4368
G3 X9.4609 Y1.7292 I-0.0009 J0.025
G1 X9.4972 Y2.8792
G3 X9.4825 Y2.9028 I-0.025 J0.0008
X9.473 Y2.905 I-0.0104 J-0.0227
G1 X9.3756
X9.3643 Y2.9044
X9.3547 Y2.9032
X9.3435 Y2.9008
X9.3321 Y2.8974
X9.319 Y2.8922
X9.3051 Y2.8855
X9.2901 Y2.8767
X9.2736 Y2.8651
X9.2568 Y2.8512
X9.2386 Y2.8334
X9.2192 Y2.8111
X9.1997 Y2.7848
X9.1791 Y2.7517
X9.1612 Y2.7171
X9.1457 Y2.6813
X9.1323 Y2.6447
X9.1206 Y2.6075
X9.1106 Y2.5698
X9.1022 Y2.5318
X9.0951 Y2.4934
X9.0893 Y2.4549
X9.0847 Y2.4161
X9.0813 Y2.3773
X9.0791 Y2.3384
X9.0779 Y2.2994
X9.0778 Y2.2604
X9.0788 Y2.2214
X9.0808 Y2.1825
X9.0837 Y2.1436
X9.0876 Y2.1048
X9.0925 Y2.0661
X9.0983 Y2.0276
X9.105 Y1.9892
X9.1126 Y1.9509
X9.1212 Y1.9129
X9.1307 Y1.8751
X9.1412 Y1.8375
X9.1529 Y1.8003
X9.1659 Y1.7653
X9.1763 Y1.7429
X9.181 Y1.7345
X9.1882 Y1.7246
X9.1973 Y1.7163
X9.2079 Y1.7101
X9.2196 Y1.7063
X9.2318 Y1.705
X9.3338
G3 X9.3579 Y1.7291 I-0.0009 J0.025
G1 X9.3997 Y2.8791
G3 X9.3851 Y2.9028 I-0.025 J0.0009
X9.3756 Y2.905 I-0.0104 J-0.0227
G1 X9.2781
X9.2671 Y2.9044
X9.2576 Y2.9032
X9.2464 Y2.9008
X9.2351 Y2.8974
X9.2219 Y2.8923
X9.2082 Y2.8856
X9.1932 Y2.8768
X9.1768 Y2.8653
X9.1601 Y2.8514
X9.1421 Y2.8338
X9.1227 Y2.8117
X9.1034 Y2.7855
X9.083 Y2.7527
X9.0651 Y2.7181
X9.0496 Y2.6823
X9.0362 Y2.6457
X9.0246 Y2.6085
X9.0146 Y2.5708
X9.0061 Y2.5327
X8.999 Y2.4944
X8.9932 Y2.4558
X8.9886 Y2.4171
X8.9852 Y2.3782
X8.9828 Y2.3393
X8.9816 Y2.3004
X8.9813 Y2.2614
X8.9821 Y2.2224
X8.9838 Y2.1834
X8.9865 Y2.1445
X8.9901 Y2.1057
X8.9947 Y2.067
X9.0001 Y2.0284
X9.0064 Y1.9899
X9.0135 Y1.9516
X9.0216 Y1.9134
X9.0306 Y1.8755
X9.0406 Y1.8378
X9.0519 Y1.8005
X9.0644 Y1.7661
X9.0745 Y1.7439
X9.0794 Y1.735
X9.0866 Y1.7249
X9.0957 Y1.7165
X9.1064 Y1.7102
X9.1181 Y1.7063
X9.1304 Y1.705
X9.2318
G3 X9.2559 Y1.729 I-0.0009 J0.025
G1 X9.3022 Y2.879
G3 X9.2876 Y2.9028 I-0.025 J0.001
X9.2781 Y2.905 I-0.0104 J-0.0227
G1 X9.1807
X9.1702 Y2.9045
X9.1607 Y2.9032
X9.1495 Y2.9008
X9.1383 Y2.8975
X9.1251 Y2.8923
X9.1115 Y2.8857
X9.0966 Y2.8769
X9.0803 Y2.8655
X9.0636 Y2.8516
X9.0457 Y2.8341
X9.0264 Y2.8121
X9.0072 Y2.7861
X8.9868 Y2.7534
X8.969 Y2.7188
X8.9535 Y2.683
X8.94 Y2.6464
X8.9285 Y2.6091
X8.9185 Y2.5714
X8.9101 Y2.5334
X8.903 Y2.495
X8.8971 Y2.4565
X8.8925 Y2.4178
X8.889 Y2.3789
X8.8865 Y2.34
X8.8851 Y2.3011
X8.8848 Y2.2621
X8.8853 Y2.2231
X8.8869 Y2.1841
X8.8893 Y2.1452
X8.8926 Y2.1064
X8.8969 Y2.0676
X8.9019 Y2.0289
X8.9078 Y1.9904
X8.9146 Y1.952
X8.9223 Y1.9138
X8.9309 Y1.8757
X8.9405 Y1.838
X8.9515 Y1.8005
X8.9635 Y1.7667
X8.9733 Y1.7447
X8.9784 Y1.7353
X8.9856 Y1.7251
X8.9947 Y1.7166
X9.0054 Y1.7103
X9.0172 Y1.7063
X9.0296 Y1.705
X9.1304
G3 X9.1545 Y1.7289 I-0.0009 J0.025
G1 X9.2048 Y2.8789
G3 X9.1902 Y2.9028 I-0.025 J0.0011
X9.1807 Y2.905 I-0.0104 J-0.0227
G1 X9.0832
X9.0736 Y2.9045
X9.064 Y2.9033
X9.0529 Y2.9009
X9.0417 Y2.8975
X9.0285 Y2.8924
X9.015 Y2.8858
X9 Y2.877
X8.9839 Y2.8657
X8.9672 Y2.8518
X8.9493 Y2.8344
X8.9301 Y2.8124
X8.9109 Y2.7864
X8.8907 Y2.7539
X8.8728 Y2.7192
X8.8573 Y2.6835
X8.8439 Y2.6468
X8.8323 Y2.6096
X8.8224 Y2.5719
X8.8139 Y2.5339
X8.8068 Y2.4955
X8.8009 Y2.457
X8.7963 Y2.4183
X8.7927 Y2.3794
X8.7901 Y2.3405
X8.7886 Y2.3016
X8.7881 Y2.2626
X8.7885 Y2.2236
X8.7898 Y2.1846
X8.7921 Y2.1457
X8.7951 Y2.1068
X8.7991 Y2.068
X8.8038 Y2.0293
X8.8094 Y1.9907
X8.8158 Y1.9523
X8.8231 Y1.914
X8.8314 Y1.8759
X8.8407 Y1.838
X8.8515 Y1.8005
X8.863 Y1.7672
X8.8727 Y1.7453
X8.8779 Y1.7356
X8.885 Y1.7253
X8.8942 Y1.7167
X8.9049 Y1.7103
X8.9168 Y1.7063
X8.9293 Y1.705
X9.0296
G3 X9.0537 Y1.7288 I-0.0009 J0.025
G1 X9.1073 Y2.8789
G3 X9.0927 Y2.9028 I-0.025 J0.0012
X9.0832 Y2.905 I-0.0104 J-0.0227
G1 X8.9858
X8.9771 Y2.9046
X8.9675 Y2.9033
X8.9564 Y2.9009
X8.9452 Y2.8976
X8.932 Y2.8925
X8.9186 Y2.8859
X8.9036 Y2.8771
X8.8875 Y2.8658
X8.8708 Y2.8519
X8.853 Y2.8346
X8.8338 Y2.8126
X8.8147 Y2.7867
X8.7945 Y2.7542
X8.7766 Y2.7196
X8.7611 Y2.6838
X8.7477 Y2.6472
X8.7361 Y2.6099
X8.7262 Y2.5722
X8.7177 Y2.5342
X8.7106 Y2.4959
X8.7047 Y2.4573
X8.7 Y2.4186
X8.6963 Y2.3798
X8.6937 Y2.3409
X8.692 Y2.3019
X8.6914 Y2.2629
X8.6916 Y2.224
X8.6928 Y2.185
X8.6948 Y2.146
X8.6976 Y2.1072
X8.7013 Y2.0683
X8.7058 Y2.0296
X8.7111 Y1.991
X8.7172 Y1.9525
X8.7242 Y1.9141
X8.7321 Y1.8759
X8.7412 Y1.838
X8.7517 Y1.8005
X8.763 Y1.7676
X8.7725 Y1.7458
X8.7778 Y1.7358
X8.7849 Y1.7255
X8.7941 Y1.7168
X8.8048 Y1.7104
X8.8168 Y1.7064
X8.8293 Y1.705
X8.9293
G3 X8.9388 Y1.7072 I-0.0009 J0.025
X8.9534 Y1.7288 I-0.0104 J0.0227
G1 X9.0099 Y2.8788
G3 X8.9953 Y2.9028 I-0.025 J0.0012
X8.9858 Y2.905 I-0.0104 J-0.0227
G1 X8.8883
X8.8807 Y2.9046
X8.8711 Y2.9034
X8.86 Y2.901
X8.8488 Y2.8976
X8.8357 Y2.8925
X8.8222 Y2.886
X8.8073 Y2.8772
X8.7912 Y2.8659
X8.7745 Y2.852
X8.7567 Y2.8347
X8.7376 Y2.8127
X8.7185 Y2.7869
X8.6983 Y2.7544
X8.6804 Y2.7198
X8.6649 Y2.684
X8.6515 Y2.6474
X8.6399 Y2.6102
X8.63 Y2.5725
X8.6215 Y2.5344
X8.6143 Y2.4961
X8.6084 Y2.4575
X8.6036 Y2.4189
X8.5998 Y2.38
X8.5971 Y2.3411
X8.5954 Y2.3022
X8.5946 Y2.2632
X8.5947 Y2.2242
X8.5956 Y2.1852
X8.5975 Y2.1463
X8.6001 Y2.1074
X8.6035 Y2.0686
X8.6077 Y2.0298
X8.6128 Y1.9911
X8.6186 Y1.9526
X8.6254 Y1.9142
X8.6331 Y1.876
X8.6419 Y1.838
X8.6523 Y1.8004
X8.6633 Y1.7679
X8.6726 Y1.7462
X8.678 Y1.736
X8.6851 Y1.7256
X8.6943 Y1.7169
X8.7051 Y1.7104
X8.717 Y1.7064
X8.7296 Y1.705
X8.8293
G3 X8.8534 Y1.7287 I-0.0009 J0.025
G1 X8.9124 Y2.8787
G3 X8.8978 Y2.9028 I-0.025 J0.0013
X8.8883 Y2.905 I-0.0104 J-0.0227
G1 X8.7908
X8.7843 Y2.9047
X8.7748 Y2.9034
X8.7637 Y2.9011
X8.7525 Y2.8977
X8.7393 Y2.8926
X8.7259 Y2.8861
X8.711 Y2.8773
X8.6949 Y2.866
X8.6782 Y2.8521
X8.6605 Y2.8348
X8.6413 Y2.8129
X8.6222 Y2.787
X8.602 Y2.7546
X8.5841 Y2.7199
X8.5687 Y2.6841
X8.5552 Y2.6475
X8.5437 Y2.6103
X8.5337 Y2.5726
X8.5252 Y2.5346
X8.518 Y2.4962
X8.512 Y2.4577
X8.5071 Y2.419
X8.5033 Y2.3802
X8.5005 Y2.3413
X8.4987 Y2.3024
X8.4977 Y2.2634
Y2.2244
X8.4985 Y2.1854
X8.5001 Y2.1465
X8.5025 Y2.1076
X8.5058 Y2.0687
X8.5098 Y2.0299
X8.5146 Y1.9912
X8.5202 Y1.9526
X8.5267 Y1.9142
X8.5342 Y1.8759
X8.5429 Y1.8379
X8.5531 Y1.8003
X8.5638 Y1.7682
X8.5731 Y1.7466
X8.5785 Y1.7362
X8.5856 Y1.7257
X8.5947 Y1.717
X8.6056 Y1.7104
X8.6176 Y1.7064
X8.6301 Y1.705
X8.7296
G3 X8.7537 Y1.7287 I-0.0009 J0.025
G1 X8.8149 Y2.8787
G3 X8.8003 Y2.9028 I-0.025 J0.0013
X8.7908 Y2.905 I-0.0104 J-0.0227
G1 X8.6934
X8.6874 Y2.9047
X8.6777 Y2.9034
X8.6666 Y2.9009
X8.6553 Y2.8975
X8.642 Y2.8922
X8.6286 Y2.8856
X8.6135 Y2.8766
X8.5975 Y2.8652
X8.5806 Y2.851
X8.5629 Y2.8335
X8.5437 Y2.8113
X8.5244 Y2.7848
X8.5042 Y2.7519
X8.4865 Y2.7171
X8.4712 Y2.6812
X8.4579 Y2.6446
X8.4465 Y2.6073
X8.4366 Y2.5696
X8.4282 Y2.5315
X8.421 Y2.4932
X8.4151 Y2.4546
X8.4103 Y2.416
X8.4065 Y2.3771
X8.4037 Y2.3383
X8.4018 Y2.2993
X8.4008 Y2.2603
X8.4007 Y2.2213
X8.4014 Y2.1824
X8.4029 Y2.1434
X8.4052 Y2.1045
X8.4083 Y2.0656
X8.4121 Y2.0268
X8.4168 Y1.9881
X8.4223 Y1.9495
X8.4287 Y1.911
X8.4361 Y1.8727
X8.4447 Y1.8347
X8.455 Y1.7971
X8.4653 Y1.7664
X8.4745 Y1.7452
X8.4794 Y1.736
X8.4865 Y1.7256
X8.4956 Y1.7169
X8.5064 Y1.7104
X8.5184 Y1.7064
X8.5309 Y1.705
X8.6301
G3 X8.6396 Y1.7072 I-0.0009 J0.025
X8.6542 Y1.7286 I-0.0104 J0.0227
G1 X8.7175 Y2.8786
G3 X8.7029 Y2.9028 I-0.025 J0.0014
X8.6934 Y2.905 I-0.0104 J-0.0227
G1 X8.6048
X8.5912 Y2.9043
X8.5818 Y2.9031
X8.5707 Y2.9007
X8.5596 Y2.8974
X8.5466 Y2.8923
X8.533 Y2.8857
X8.5183 Y2.877
X8.502 Y2.8656
X8.4856 Y2.852
X8.4677 Y2.8345
X8.4487 Y2.8128
X8.4296 Y2.787
X8.4094 Y2.7545
X8.3915 Y2.7198
X8.376 Y2.684
X8.3626 Y2.6474
X8.351 Y2.6102
X8.341 Y2.5725
X8.3324 Y2.5345
X8.3251 Y2.4962
X8.319 Y2.4577
X8.314 Y2.419
X8.3101 Y2.3802
X8.3071 Y2.3413
X8.3051 Y2.3024
X8.3039 Y2.2634
X8.3036 Y2.2244
X8.3041 Y2.1854
X8.3054 Y2.1465
X8.3074 Y2.1075
X8.3103 Y2.0687
X8.3139 Y2.0298
X8.3183 Y1.9911
X8.3235 Y1.9525
X8.3297 Y1.914
X8.3369 Y1.8756
X8.3452 Y1.8375
X8.3552 Y1.7998
X8.3656 Y1.7684
X8.3746 Y1.7469
X8.3801 Y1.7364
X8.3872 Y1.7258
X8.3964 Y1.7171
X8.4072 Y1.7105
X8.4192 Y1.7064
X8.4319 Y1.705
X8.5309
G3 X8.555 Y1.7284 I-0.0009 J0.025
G1 X8.6289 Y2.8784
G3 X8.6143 Y2.9028 I-0.0249 J0.0016
X8.6048 Y2.905 I-0.0104 J-0.0227
G1 X8.5073
X8.4952 Y2.9044
X8.4856 Y2.9031
X8.4746 Y2.9008
X8.4634 Y2.8974
X8.4502 Y2.8923
X8.4368 Y2.8858
X8.4219 Y2.877
X8.4059 Y2.8658
X8.3892 Y2.8519
X8.3715 Y2.8346
X8.3524 Y2.8127
X8.3332 Y2.7868
X8.313 Y2.7543
X8.2951 Y2.7196
X8.2796 Y2.6839
X8.2662 Y2.6473
X8.2545 Y2.61
X8.2445 Y2.5724
X8.2359 Y2.5343
X8.2286 Y2.496
X8.2225 Y2.4575
X8.2174 Y2.4189
X8.2134 Y2.3801
X8.2103 Y2.3412
X8.2082 Y2.3023
X8.2069 Y2.2633
X8.2064 Y2.2243
X8.2068 Y2.1853
X8.2079 Y2.1464
X8.2099 Y2.1074
X8.2125 Y2.0685
X8.216 Y2.0297
X8.2203 Y1.9909
X8.2253 Y1.9523
X8.2313 Y1.9137
X8.2384 Y1.8754
X8.2466 Y1.8373
X8.2565 Y1.7996
X8.2668 Y1.7684
X8.2758 Y1.747
X8.2812 Y1.7365
X8.2883 Y1.7259
X8.2974 Y1.7171
X8.3083 Y1.7105
X8.3203 Y1.7064
X8.333 Y1.705
X8.4319
G3 X8.4414 Y1.7072 I-0.0009 J0.025
X8.4559 Y1.7283 I-0.0104 J0.0227
G1 X8.5314 Y2.8784
G3 X8.5168 Y2.9028 I-0.0249 J0.0016
X8.5073 Y2.905 I-0.0104 J-0.0227
G1 X8.4099
X8.3989 Y2.9045
X8.3894 Y2.9032
X8.3783 Y2.9008
X8.3671 Y2.8975
X8.354 Y2.8924
X8.3406 Y2.8858
X8.3256 Y2.8771
X8.3096 Y2.8658
X8.2929 Y2.8519
X8.2752 Y2.8346
X8.256 Y2.8126
X8.2368 Y2.7867
X8.2166 Y2.7542
X8.1987 Y2.7195
X8.1832 Y2.6837
X8.1697 Y2.6471
X8.1581 Y2.6099
X8.148 Y2.5723
X8.1394 Y2.5342
X8.132 Y2.4959
X8.1258 Y2.4574
X8.1207 Y2.4188
X8.1167 Y2.38
X8.1135 Y2.3412
X8.1113 Y2.3022
X8.1099 Y2.2633
X8.1093 Y2.2243
X8.1095 Y2.1853
X8.1105 Y2.1463
X8.1123 Y2.1074
X8.1148 Y2.0684
X8.1181 Y2.0296
X8.1222 Y1.9908
X8.1272 Y1.9521
X8.133 Y1.9136
X8.14 Y1.8752
X8.1481 Y1.8371
X8.1579 Y1.7994
X8.1681 Y1.7684
X8.177 Y1.7471
X8.1824 Y1.7366
X8.1895 Y1.7259
X8.1987 Y1.7171
X8.2095 Y1.7105
X8.2216 Y1.7064
X8.2343 Y1.705
X8.333
G3 X8.3571 Y1.7283 I-0.0009 J0.025
G1 X8.4339 Y2.8783
G3 X8.4194 Y2.9028 I-0.0249 J0.0017
X8.4099 Y2.905 I-0.0104 J-0.0227
G1 X8.3124
X8.3027 Y2.9045
X8.2931 Y2.9033
X8.2821 Y2.9009
X8.2709 Y2.8975
X8.2577 Y2.8924
X8.2443 Y2.8859
X8.2293 Y2.8771
X8.2133 Y2.8658
X8.1966 Y2.852
X8.1788 Y2.8346
X8.1596 Y2.8126
X8.1404 Y2.7867
X8.1201 Y2.754
X8.1022 Y2.7194
X8.0867 Y2.6836
X8.0733 Y2.647
X8.0616 Y2.6098
X8.0515 Y2.5721
X8.0428 Y2.5341
X8.0354 Y2.4959
X8.0292 Y2.4574
X8.024 Y2.4187
X8.0199 Y2.38
X8.0166 Y2.3411
X8.0143 Y2.3022
X8.0128 Y2.2632
X8.0121 Y2.2242
X8.0122 Y2.1852
X8.0131 Y2.1463
X8.0147 Y2.1073
X8.0171 Y2.0684
X8.0203 Y2.0295
X8.0243 Y1.9907
X8.0291 Y1.952
X8.0348 Y1.9135
X8.0416 Y1.8751
X8.0497 Y1.8369
X8.0595 Y1.7992
X8.0695 Y1.7684
X8.0784 Y1.7471
X8.0838 Y1.7366
X8.0908 Y1.726
X8.1 Y1.7171
X8.1109 Y1.7105
X8.123 Y1.7064
X8.1356 Y1.705
X8.2343
G3 X8.2583 Y1.7283 I-0.0009 J0.025
G1 X8.3365 Y2.8783
G3 X8.3219 Y2.9028 I-0.0249 J0.0017
X8.3124 Y2.905 I-0.0104 J-0.0227
G1 X8.215
X8.2064 Y2.9046
X8.1968 Y2.9033
X8.1858 Y2.9009
X8.1745 Y2.8976
X8.1614 Y2.8925
X8.1479 Y2.8859
X8.133 Y2.8771
X8.1169 Y2.8659
X8.1002 Y2.852
X8.0824 Y2.8346
X8.0632 Y2.8126
X8.044 Y2.7866
X8.0236 Y2.7539
X8.0057 Y2.7192
X7.9902 Y2.6835
X7.9767 Y2.6469
X7.9651 Y2.6097
X7.9549 Y2.572
X7.9462 Y2.534
X7.9388 Y2.4958
X7.9325 Y2.4573
X7.9273 Y2.4186
X7.923 Y2.3799
X7.9197 Y2.341
X7.9173 Y2.3021
X7.9157 Y2.2632
X7.9149 Y2.2242
Y2.1852
X7.9156 Y2.1462
X7.9171 Y2.1072
X7.9194 Y2.0683
X7.9225 Y2.0294
X7.9263 Y1.9906
X7.931 Y1.9519
X7.9367 Y1.9134
X7.9434 Y1.8749
X7.9514 Y1.8368
X7.9611 Y1.799
X7.971 Y1.7684
X7.9799 Y1.7472
X7.9853 Y1.7367
X7.9923 Y1.726
X8.0015 Y1.7172
X8.0124 Y1.7105
X8.0245 Y1.7064
X8.0371 Y1.705
X8.1356
G3 X8.1597 Y1.7283 I-0.0009 J0.025
G1 X8.239 Y2.8783
G3 X8.2244 Y2.9028 I-0.0249 J0.0017
X8.215 Y2.905 I-0.0104 J-0.0227
G1 X8.1175
X8.11 Y2.9046
X8.1005 Y2.9034
X8.0894 Y2.901
X8.0782 Y2.8976
X8.065 Y2.8925
X8.0516 Y2.886
X8.0366 Y2.8772
X8.0205 Y2.8659
X8.0038 Y2.852
X7.986 Y2.8346
X7.9667 Y2.8126
X7.9475 Y2.7865
X7.9271 Y2.7537
X7.9092 Y2.7191
X7.8937 Y2.6833
X7.8802 Y2.6467
X7.8685 Y2.6095
X7.8583 Y2.5719
X7.8496 Y2.5339
X7.8421 Y2.4956
X7.8357 Y2.4572
X7.8304 Y2.4185
X7.8261 Y2.3798
X7.8227 Y2.3409
X7.8202 Y2.302
X7.8185 Y2.2631
X7.8176 Y2.2241
X7.8175 Y2.1851
X7.8182 Y2.1461
X7.8196 Y2.1072
X7.8217 Y2.0682
X7.8247 Y2.0293
X7.8284 Y1.9905
X7.833 Y1.9518
X7.8386 Y1.9132
X7.8452 Y1.8748
X7.8531 Y1.8366
X7.8628 Y1.7988
X7.8726 Y1.7684
X7.8814 Y1.7472
X7.8868 Y1.7367
X7.8939 Y1.7261
X7.9031 Y1.7172
X7.914 Y1.7105
X7.926 Y1.7064
X7.9387 Y1.705
X8.0371
G3 X8.0466 Y1.7072 I-0.0009 J0.025
X8.0612 Y1.7282 I-0.0104 J0.0227
G1 X8.1416 Y2.8783
G3 X8.127 Y2.9028 I-0.0249 J0.0017
X8.1175 Y2.905 I-0.0104 J-0.0227
G1 X8.02
X8.0136 Y2.9047
X8.0041 Y2.9034
X7.993 Y2.9011
X7.9818 Y2.8977
X7.9686 Y2.8926
X7.9551 Y2.886
X7.9402 Y2.8772
X7.9241 Y2.8659
X7.9073 Y2.852
X7.8895 Y2.8346
X7.8702 Y2.8125
X7.8509 Y2.7864
X7.8305 Y2.7536
X7.8126 Y2.7189
X7.7971 Y2.6832
X7.7836 Y2.6466
X7.7718 Y2.6094
X7.7617 Y2.5718
X7.7529 Y2.5338
X7.7453 Y2.4955
X7.7389 Y2.4571
X7.7336 Y2.4184
X7.7292 Y2.3797
X7.7257 Y2.3409
X7.7231 Y2.3019
X7.7214 Y2.263
X7.7204 Y2.224
X7.7202 Y2.185
X7.7207 Y2.146
X7.722 Y2.1071
X7.7241 Y2.0681
X7.7269 Y2.0292
X7.7306 Y1.9904
X7.7351 Y1.9517
X7.7405 Y1.9131
X7.7471 Y1.8747
X7.755 Y1.8365
X7.7646 Y1.7987
X7.7744 Y1.7684
X7.7831 Y1.7472
X7.7885 Y1.7367
X7.7955 Y1.7261
X7.8047 Y1.7172
X7.8156 Y1.7105
X7.8277 Y1.7064
X7.8404 Y1.705
X7.9387
G3 X7.9628 Y1.7282 I-0.0009 J0.025
G1 X8.0441 Y2.8783
G3 X8.0295 Y2.9028 I-0.0249 J0.0018
X8.02 Y2.905 I-0.0104 J-0.0227
G1 X7.9226
X7.9166 Y2.9047
X7.9069 Y2.9034
X7.8958 Y2.9009
X7.8845 Y2.8975
X7.8711 Y2.8922
X7.8577 Y2.8855
X7.8425 Y2.8765
X7.8264 Y2.8651
X7.8095 Y2.8508
X7.7917 Y2.8332
X7.7723 Y2.8108
X7.7527 Y2.784
X7.7323 Y2.7508
X7.7147 Y2.716
X7.6993 Y2.6802
X7.6859 Y2.6436
X7.6743 Y2.6063
X7.6642 Y2.5687
X7.6555 Y2.5307
X7.648 Y2.4924
X7.6416 Y2.4539
X7.6363 Y2.4153
X7.6319 Y2.3766
X7.6285 Y2.3377
X7.6259 Y2.2988
X7.6241 Y2.2599
X7.6231 Y2.2209
X7.6228 Y2.1819
X7.6233 Y2.1429
X7.6246 Y2.104
X7.6266 Y2.065
X7.6294 Y2.0261
X7.633 Y1.9873
X7.6375 Y1.9486
X7.643 Y1.91
X7.6496 Y1.8715
X7.6575 Y1.8334
X7.6672 Y1.7956
X7.6769 Y1.7663
X7.6857 Y1.7455
X7.6904 Y1.7364
X7.6975 Y1.7259
X7.7066 Y1.7171
X7.7175 Y1.7105
X7.7295 Y1.7064
X7.7422 Y1.705
X7.8404
G3 X7.8645 Y1.7282 I-0.0009 J0.025
G1 X7.9466 Y2.8782
G3 X7.9321 Y2.9028 I-0.0249 J0.0018
X7.9226 Y2.905 I-0.0104 J-0.0227
G1 X7.834
X7.8202 Y2.9043
X7.8108 Y2.9031
X7.7997 Y2.9007
X7.7885 Y2.8973
X7.7755 Y2.8923
X7.7618 Y2.8856
X7.7471 Y2.877
X7.7306 Y2.8654
X7.7142 Y2.8518
X7.6961 Y2.8341
X7.677 Y2.8122
X7.6577 Y2.7861
X7.6371 Y2.7531
X7.6192 Y2.7184
X7.6037 Y2.6827
X7.5902 Y2.6461
X7.5784 Y2.6089
X7.5681 Y2.5713
X7.5593 Y2.5333
X7.5517 Y2.4951
X7.5452 Y2.4566
X7.5397 Y2.418
X7.5352 Y2.3793
X7.5316 Y2.3405
X7.5289 Y2.3016
X7.5269 Y2.2626
X7.5258 Y2.2237
X7.5254 Y2.1847
X7.5258 Y2.1457
X7.5269 Y2.1067
X7.5288 Y2.0678
X7.5315 Y2.0289
X7.5349 Y1.99
X7.5393 Y1.9513
X7.5446 Y1.9127
X7.5511 Y1.8742
X7.5588 Y1.836
X7.5684 Y1.7982
X7.578 Y1.7682
X7.5867 Y1.7472
X7.592 Y1.7368
X7.5991 Y1.7261
X7.6083 Y1.7172
X7.6192 Y1.7105
X7.6313 Y1.7064
X7.644 Y1.705
X7.7422
G3 X7.7517 Y1.7072 I-0.0009 J0.025
X7.7662 Y1.728 I-0.0104 J0.0227
G1 X7.858 Y2.878
G3 X7.8435 Y2.9028 I-0.0249 J0.002
X7.834 Y2.905 I-0.0104 J-0.0227
G1 X7.7365
X7.7239 Y2.9044
X7.7144 Y2.9031
X7.7033 Y2.9007
X7.6921 Y2.8974
X7.6789 Y2.8923
X7.6654 Y2.8857
X7.6505 Y2.8769
X7.6343 Y2.8655
X7.6176 Y2.8517
X7.5996 Y2.8342
X7.5803 Y2.8121
X7.5609 Y2.7858
X7.5403 Y2.7527
X7.5225 Y2.7181
X7.5069 Y2.6823
X7.4934 Y2.6458
X7.4816 Y2.6086
X7.4713 Y2.571
X7.4624 Y2.533
X7.4548 Y2.4948
X7.4482 Y2.4564
X7.4427 Y2.4178
X7.4382 Y2.379
X7.4345 Y2.3402
X7.4317 Y2.3013
X7.4297 Y2.2624
X7.4285 Y2.2234
X7.428 Y2.1844
X7.4283 Y2.1454
X7.4294 Y2.1065
X7.4312 Y2.0675
X7.4338 Y2.0286
X7.4372 Y1.9898
X7.4415 Y1.951
X7.4467 Y1.9124
X7.4531 Y1.8739
X7.4609 Y1.8357
X7.4704 Y1.7979
X7.48 Y1.768
X7.4887 Y1.747
X7.4939 Y1.7368
X7.5009 Y1.7261
X7.5101 Y1.7172
X7.521 Y1.7105
X7.5331 Y1.7064
X7.5459 Y1.705
X7.644
G3 X7.6535 Y1.7072 I-0.0009 J0.025
X7.668 Y1.728 I-0.0104 J0.0227
G1 X7.7606 Y2.878
G3 X7.746 Y2.9028 I-0.0249 J0.002
X7.7365 Y2.905 I-0.0104 J-0.0227
G1 X7.6391
X7.6275 Y2.9044
X7.6179 Y2.9032
X7.6068 Y2.9008
X7.5955 Y2.8974
X7.5824 Y2.8923
X7.5688 Y2.8857
X7.5539 Y2.8769
X7.5376 Y2.8655
X7.5209 Y2.8516
X7.503 Y2.8341
X7.4836 Y2.812
X7.4642 Y2.7857
X7.4436 Y2.7526
X7.4257 Y2.7179
X7.4102 Y2.6822
X7.3966 Y2.6456
X7.3848 Y2.6085
X7.3745 Y2.5709
X7.3655 Y2.5329
X7.3579 Y2.4947
X7.3513 Y2.4563
X7.3457 Y2.4177
X7.3411 Y2.3789
X7.3374 Y2.3401
X7.3345 Y2.3012
X7.3324 Y2.2623
X7.3311 Y2.2233
X7.3306 Y2.1844
X7.3308 Y2.1454
X7.3318 Y2.1064
X7.3335 Y2.0674
X7.3361 Y2.0285
X7.3394 Y1.9897
X7.3437 Y1.9509
X7.3489 Y1.9123
X7.3552 Y1.8738
X7.3629 Y1.8356
X7.3724 Y1.7978
X7.382 Y1.768
X7.3906 Y1.747
X7.3958 Y1.7368
X7.4029 Y1.7261
X7.4121 Y1.7172
X7.423 Y1.7105
X7.4351 Y1.7064
X7.4478 Y1.705
X7.5459
G3 X7.5699 Y1.728 I-0.0009 J0.025
G1 X7.6631 Y2.878
G3 X7.6486 Y2.9028 I-0.0249 J0.002
X7.6391 Y2.905 I-0.0104 J-0.0227
G1 X7.5416
X7.5309 Y2.9045
X7.5213 Y2.9032
X7.5102 Y2.9008
X7.499 Y2.8975
X7.4858 Y2.8923
X7.4722 Y2.8857
X7.4573 Y2.8769
X7.441 Y2.8655
X7.4243 Y2.8516
X7.4063 Y2.8341
X7.3869 Y2.8119
X7.3674 Y2.7856
X7.3468 Y2.7525
X7.3289 Y2.7178
X7.3134 Y2.6821
X7.2998 Y2.6455
X7.2879 Y2.6084
X7.2776 Y2.5708
X7.2687 Y2.5328
X7.2609 Y2.4946
X7.2543 Y2.4562
X7.2487 Y2.4176
X7.244 Y2.3789
X7.2402 Y2.3401
X7.2373 Y2.3012
X7.2352 Y2.2623
X7.2338 Y2.2233
X7.2332 Y2.1843
X7.2334 Y2.1453
X7.2343 Y2.1063
X7.2359 Y2.0674
X7.2384 Y2.0285
X7.2417 Y1.9896
X7.2459 Y1.9509
X7.251 Y1.9122
X7.2573 Y1.8737
X7.265 Y1.8355
X7.2744 Y1.7977
X7.284 Y1.768
X7.2926 Y1.747
X7.2978 Y1.7368
X7.3048 Y1.7261
X7.314 Y1.7172
X7.325 Y1.7105
X7.3371 Y1.7064
X7.3498 Y1.705
X7.4478
G3 X7.4718 Y1.728 I-0.0009 J0.025
G1 X7.5657 Y2.878
G3 X7.5511 Y2.9028 I-0.0249 J0.002
X7.5416 Y2.905 I-0.0104 J-0.0227
G1 X7.4442
X7.4343 Y2.9045
X7.4247 Y2.9033
X7.4136 Y2.9009
X7.4023 Y2.8975
X7.3892 Y2.8924
X7.3755 Y2.8858
X7.3606 Y2.877
X7.3443 Y2.8655
X7.3276 Y2.8516
X7.3095 Y2.834
X7.2902 Y2.8118
X7.2706 Y2.7854
X7.25 Y2.7523
X7.2321 Y2.7177
X7.2165 Y2.682
X7.2029 Y2.6454
X7.1911 Y2.6083
X7.1807 Y2.5707
X7.1717 Y2.5327
X7.1639 Y2.4945
X7.1573 Y2.4561
X7.1516 Y2.4175
X7.1469 Y2.3788
X7.1431 Y2.34
X7.1401 Y2.3012
X7.1379 Y2.2622
X7.1365 Y2.2233
X7.1358 Y2.1843
X7.1359 Y2.1453
X7.1367 Y2.1063
X7.1383 Y2.0674
X7.1407 Y2.0284
X7.144 Y1.9896
X7.1481 Y1.9508
X7.1532 Y1.9122
X7.1595 Y1.8737
X7.1671 Y1.8354
X7.1765 Y1.7976
X7.186 Y1.768
X7.1946 Y1.7471
X7.1998 Y1.7368
X7.2069 Y1.7261
X7.2161 Y1.7172
X7.227 Y1.7106
X7.2391 Y1.7064
X7.2518 Y1.705
X7.3498
G3 X7.3593 Y1.7072 I-0.0009 J0.025
X7.3738 Y1.7279 I-0.0104 J0.0227
G1 X7.4682 Y2.878
G3 X7.4536 Y2.9028 I-0.0249 J0.002
X7.4442 Y2.905 I-0.0104 J-0.0227
G1 X7.3467
X7.3376 Y2.9045
X7.328 Y2.9033
X7.3169 Y2.9009
X7.3056 Y2.8975
X7.2925 Y2.8924
X7.2788 Y2.8858
X7.2639 Y2.877
X7.2475 Y2.8655
X7.2308 Y2.8516
X7.2128 Y2.834
X7.1933 Y2.8118
X7.1738 Y2.7853
X7.1532 Y2.7522
X7.1353 Y2.7176
X7.1197 Y2.6819
X7.1061 Y2.6453
X7.0942 Y2.6082
X7.0838 Y2.5706
X7.0748 Y2.5327
X7.0669 Y2.4945
X7.0602 Y2.4561
X7.0545 Y2.4175
X7.0498 Y2.3788
X7.0459 Y2.34
X7.0428 Y2.3011
X7.0406 Y2.2622
X7.0391 Y2.2232
X7.0384 Y2.1843
Y2.1453
X7.0392 Y2.1063
X7.0407 Y2.0673
X7.0431 Y2.0284
X7.0463 Y1.9895
X7.0503 Y1.9508
X7.0554 Y1.9121
X7.0616 Y1.8736
X7.0692 Y1.8354
X7.0786 Y1.7975
X7.0881 Y1.768
X7.0967 Y1.7471
X7.1019 Y1.7369
X7.1089 Y1.7262
X7.1181 Y1.7172
X7.129 Y1.7106
X7.1412 Y1.7064
X7.1539 Y1.705
X7.2518
G3 X7.2759 Y1.7279 I-0.0009 J0.025
G1 X7.3707 Y2.878
G3 X7.3562 Y2.9028 I-0.0249 J0.0021
X7.3467 Y2.905 I-0.0104 J-0.0227
G1 X7.2492
X7.2409 Y2.9046
X7.2313 Y2.9033
X7.2202 Y2.9009
X7.2089 Y2.8976
X7.1957 Y2.8924
X7.1821 Y2.8858
X7.1671 Y2.877
X7.1508 Y2.8655
X7.134 Y2.8516
X7.1159 Y2.834
X7.0965 Y2.8117
X7.0769 Y2.7852
X7.0563 Y2.7521
X7.0384 Y2.7175
X7.0228 Y2.6818
X7.0091 Y2.6452
X6.9971 Y2.6077
X6.9959 Y2.6026
X6.9952 Y2.5974
X6.995 Y2.5922
Y1.8427
X6.9966 Y1.8103
X6.9995 Y1.7883
X7.0038 Y1.7682
X7.0087 Y1.752
X7.0125 Y1.7422
X7.0178 Y1.7318
X7.025 Y1.7227
X7.0339 Y1.7152
X7.0441 Y1.7096
X7.0553 Y1.7062
X7.0668 Y1.705
G3 X7.0891 Y1.7395 I-0.0009 J0.025
G1 X7.0431 Y1.8513
G3 X6.9972 Y1.8522 I-0.0231 J-0.0095
X6.995 Y1.8427 I0.0227 J-0.0104
G1 Y1.7365
X6.9952 Y1.7276
X6.9955 Y1.7254
X6.9961 Y1.7232
X6.9969 Y1.721
X6.9979 Y1.7188
X6.9993 Y1.7164
X7.0012 Y1.714
X7.0034 Y1.7117
X7.0056 Y1.7099
X7.0078 Y1.7084
X7.01 Y1.7073
X7.0122 Y1.7064
X7.0144 Y1.7057
X7.0167 Y1.7053
X7.0189 Y1.705
X7.0277
X7.1539
G3 X7.1779 Y1.7279 I-0.0009 J0.025
G1 X7.2733 Y2.8779
G3 X7.2587 Y2.9028 I-0.0249 J0.0021
X7.2492 Y2.905 I-0.0104 J-0.0227
G1 X7.1518
X7.1441 Y2.9046
X7.1346 Y2.9034
X7.1234 Y2.901
X7.1121 Y2.8976
X7.099 Y2.8925
X7.0853 Y2.8858
X7.0703 Y2.877
X7.0539 Y2.8655
X7.0372 Y2.8516
X7.0191 Y2.834
X7.0094 Y2.8228
X7.0032 Y2.8144
X6.9987 Y2.805
X6.9959 Y2.7949
X6.995 Y2.7845
G3 X6.9972 Y2.775 I0.025 J0.0009
X7.0346 Y2.7651 I0.0227 J0.0104
G1 X7.1656 Y2.8598
G3 X7.1613 Y2.9028 I-0.0146 J0.0203
X7.1518 Y2.905 I-0.0104 J-0.0227
G1 X7.0543
X7.0473 Y2.9046
X7.0458 Y2.9044
X7.0341 Y2.9017
X7.0232 Y2.8966
X7.0137 Y2.8894
X7.0058 Y2.8804
X6.9999 Y2.8699
X6.9962 Y2.8585
X6.995 Y2.8466
G3 X6.9972 Y2.8371 I0.025 J0.0009
X7.0374 Y2.8296 I0.0227 J0.0104
G1 X7.0709 Y2.8621
G3 X7.0638 Y2.9028 I-0.0174 J0.0179
X7.0543 Y2.905 I-0.0104 J-0.0227
G1 X7.0277
X7.0189
X7.0183 Y2.9049
X7.0142 Y2.9042
X7.0121 Y2.9036
X7.01 Y2.9027
X7.0078 Y2.9016
X7.0056 Y2.9001
X7.0034 Y2.8983
X7.0012 Y2.896
X6.9994 Y2.8938
X6.9981 Y2.8916
X6.997 Y2.8894
X6.9962 Y2.8872
X6.9956 Y2.885
X6.9952 Y2.8828
X6.995 Y2.8784
Y2.5922
X6.9955 Y2.59 Z-0.399
X6.9959 Y2.588 Z-0.3982
X6.9963 Y2.5862 Z-0.3971
X6.9966 Y2.5847 Z-0.3955
X6.9968 Y2.5836 Z-0.3937
X6.9971 Y2.5829 Z-0.3916
X6.9972 Y2.5827 Z-0.3894
G0 Z0.2
X10.7166 Y2.4193
Z-0.2742
G1 Z-0.2992 F39.37
G3 X10.7811 Y2.1907 Z-0.3122 I0.0323 J-0.1143 F13.12
X10.7166 Y2.4193 Z-0.3253 I-0.0323 J0.1143
X10.7811 Y2.1907 Z-0.3383 I0.0323 J-0.1143
X10.7166 Y2.4193 Z-0.3513 I-0.0323 J0.1143
X10.6884 Y2.2028 Z-0.361 I0.0323 J-0.1143
X10.8641 Y2.2764 Z-0.3687 I0.0605 J0.1022
X10.7431 Y2.4236 Z-0.3764 I-0.1153 J0.0286
X10.7546 Y2.1864 Z-0.3895 I0.0058 J-0.1186
X10.7431 Y2.4236 Z-0.4025 I-0.0058 J0.1186
X10.7546 Y2.1864 Z-0.4155 I0.0058 J-0.1186
X10.7431 Y2.4236 Z-0.4285 I-0.0058 J0.1186
X10.7546 Y2.1864 Z-0.4416 I0.0058 J-0.1186
X10.7431 Y2.4236 Z-0.4546 I-0.0058 J0.1186
X10.7546 Y2.1864 Z-0.4676 I0.0058 J-0.1186
X10.7431 Y2.4236 Z-0.4807 I-0.0058 J0.1186
X10.7546 Y2.1864 Z-0.4937 I0.0058 J-0.1186
X10.8676 Y2.305 Z-0.5 I-0.0058 J0.1186
X10.6301 I-0.1188 J0
X10.8676 I0.1187 J0
G1 X10.8678 Y2.3147 F39.37
X10.8749 Y2.3531
X10.8767 Y2.3588
X10.8778 Y2.3647
X10.8783 Y2.3707
X10.8784 Y2.3767
X10.8779 Y2.3832
X10.8768 Y2.3901
X10.8751 Y2.3974
X10.8726 Y2.4049
X10.8694 Y2.4126
X10.8653 Y2.4204
X10.8604 Y2.4283
X10.8547 Y2.436
X10.848 Y2.4436
X10.8405 Y2.451
X10.8321 Y2.4579
X10.8229 Y2.4644
X10.8129 Y2.4703
X10.8022 Y2.4755
X10.7907 Y2.4799
X10.7787 Y2.4835
X10.7661 Y2.4862
X10.7532 Y2.4879
X10.7399 Y2.4886
X10.7263 Y2.4882
X10.7127 Y2.4866
X10.6991 Y2.484
X10.6855 Y2.4802
X10.6722 Y2.4753
X10.6592 Y2.4693
X10.6466 Y2.4622
X10.6346 Y2.4541
X10.6231 Y2.445
X10.6124 Y2.4349
X10.6025 Y2.424
X10.5935 Y2.4122
X10.5853 Y2.3998
X10.5782 Y2.3866
X10.5722 Y2.3729
X10.5673 Y2.3587
X10.5635 Y2.3442
X10.5609 Y2.3293
X10.5595 Y2.3143
X10.5592 Y2.2992
X10.5603 Y2.2841
X10.5625 Y2.2691
X10.5659 Y2.2543
X10.5705 Y2.2398
X10.5763 Y2.2257
X10.5831 Y2.2122
X10.5911 Y2.1992
X10.6 Y2.1869
X10.6099 Y2.1753
X10.6208 Y2.1646
X10.6324 Y2.1548
X10.6448 Y2.1459
X10.6579 Y2.1381
X10.6716 Y2.1313
X10.6857 Y2.1257
X10.7003 Y2.1212
X10.7152 Y2.1179
X10.7303 Y2.1158
X10.7456 Y2.1149
X10.7608 Y2.1152
X10.776 Y2.1168
X10.791 Y2.1196
X10.8058 Y2.1236
X10.8201 Y2.1287
X10.8341 Y2.135
X10.8474 Y2.1424
X10.8602 Y2.1508
X10.8722 Y2.1603
X10.8834 Y2.1706
X10.8937 Y2.1818
X10.9032 Y2.1939
X10.9116 Y2.2066
X10.9261 Y2.233
X10.9385 Y2.2605
X10.9464 Y2.2826
X10.9518 Y2.3025
X10.9552 Y2.321
X10.957 Y2.339
X10.9574 Y2.3563
X10.9564 Y2.3732
X10.9541 Y2.3897
X10.9505 Y2.4058
X10.9457 Y2.4215
X10.9396 Y2.4368
X10.9322 Y2.4516
X10.9236 Y2.4659
X10.9138 Y2.4796
X10.9029 Y2.4925
X10.8908 Y2.5047
X10.8776 Y2.516
X10.8634 Y2.5264
X10.8481 Y2.5357
X10.832 Y2.5438
X10.815 Y2.5508
X10.7972 Y2.5564
X10.7789 Y2.5606
X10.76 Y2.5634
X10.7407 Y2.5647
X10.7213 Y2.5644
X10.7017 Y2.5626
X10.6821 Y2.5591
X10.6627 Y2.554
X10.6437 Y2.5474
X10.6251 Y2.5392
X10.6071 Y2.5295
X10.5899 Y2.5183
X10.5735 Y2.5056
X10.5582 Y2.4917
X10.5439 Y2.4764
X10.5308 Y2.46
X10.5191 Y2.4426
X10.5087 Y2.4242
X10.4999 Y2.4049
X10.4926 Y2.385
X10.4869 Y2.3645
X10.4828 Y2.3435
X10.4805 Y2.3223
X10.4798 Y2.3009
X10.4809 Y2.2795
X10.4837 Y2.2582
X10.4882 Y2.2372
X10.4944 Y2.2165
X10.5022 Y2.1965
X10.5116 Y2.1771
X10.5226 Y2.1585
X10.535 Y2.1408
X10.5488 Y2.1242
X10.5639 Y2.1088
X10.5802 Y2.0946
X10.5976 Y2.0817
X10.6159 Y2.0703
X10.6352 Y2.0604
X10.6551 Y2.052
X10.6757 Y2.0453
X10.6968 Y2.0403
X10.7182 Y2.0369
X10.7398 Y2.0353
X10.7614 Y2.0355
X10.783 Y2.0373
X10.8044 Y2.0409
X10.8254 Y2.0462
X10.8459 Y2.0532
X10.8658 Y2.0618
X10.8849 Y2.072
X10.9032 Y2.0836
X10.9205 Y2.0967
X10.9388 Y2.1131
X10.9571 Y2.1323
X10.9742 Y2.1535
X10.99 Y2.1765
X11.0037 Y2.2005
X11.0153 Y2.2249
X11.0245 Y2.2496
X11.0316 Y2.2744
X11.0366 Y2.2991
X11.0395 Y2.3237
X11.0405 Y2.3481
X11.0395 Y2.3722
X11.0365 Y2.396
X11.0317 Y2.4193
X11.0251 Y2.4421
X11.0167 Y2.4642
X11.0065 Y2.4856
X10.9946 Y2.5062
X10.9811 Y2.5258
X10.966 Y2.5443
X10.9493 Y2.5617
X10.9311 Y2.5778
X10.9116 Y2.5924
X10.8908 Y2.6056
X10.8688 Y2.6172
X10.8458 Y2.627
X10.8218 Y2.6351
X10.7971 Y2.6412
X10.7717 Y2.6454
X10.746 Y2.6475
X10.7199
X10.6938 Y2.6455
X10.6677 Y2.6413
X10.6419 Y2.635
X10.6165 Y2.6266
X10.5918 Y2.6162
X10.5678 Y2.6037
X10.5448 Y2.5893
X10.5229 Y2.573
X10.5023 Y2.5549
X10.4832 Y2.5351
X10.4656 Y2.5138
X10.4498 Y2.4911
X10.4357 Y2.467
X10.4237 Y2.4419
X10.4136 Y2.4158
X10.4057 Y2.389
X10.3999 Y2.3615
X10.3963 Y2.3336
X10.395 Y2.3054
X10.396 Y2.2772
X10.3992 Y2.2492
X10.4047 Y2.2214
X10.4124 Y2.1942
X10.4222 Y2.1676
X10.4342 Y2.1419
X10.4482 Y2.1173
X10.4641 Y2.0938
X10.4819 Y2.0716
X10.5014 Y2.051
X10.5225 Y2.0319
X10.5451 Y2.0147
X10.569 Y1.9993
X10.5941 Y1.9858
X10.6202 Y1.9744
X10.6471 Y1.9651
X10.6747 Y1.9581
X10.7027 Y1.9532
X10.7311 Y1.9506
X10.7596 Y1.9503
X10.788 Y1.9523
X10.8161 Y1.9566
X10.8439 Y1.9631
X10.871 Y1.9718
X10.8973 Y1.9827
X10.9234 Y1.996
X10.9491 Y2.0118
X10.9742 Y2.0302
X10.9985 Y2.0512
X11.0214 Y2.0745
X11.0426 Y2.0998
X11.0618 Y2.1268
X11.0786 Y2.1552
X11.0931 Y2.1846
X11.1051 Y2.2149
X11.1145 Y2.2458
X11.1213 Y2.2771
X11.1256 Y2.3086
X11.1273 Y2.3401
X11.1265 Y2.3714
X11.1232 Y2.4023
X11.1175 Y2.4328
X11.1093 Y2.4627
X11.0988 Y2.4917
X11.086 Y2.5198
X11.071 Y2.5469
X11.0538 Y2.5726
X11.0345 Y2.597
X11.0133 Y2.6199
X10.9902 Y2.641
X10.9653 Y2.6604
X10.9388 Y2.6778
X10.9109 Y2.6931
X10.8816 Y2.7061
X10.8512 Y2.7169
X10.8199 Y2.7252
X10.7878 Y2.731
X10.7551 Y2.7343
X10.7221 Y2.7349
X10.689 Y2.7328
X10.656 Y2.7281
X10.6233 Y2.7207
X10.5911 Y2.7107
X10.5597 Y2.698
X10.5293 Y2.6828
X10.5001 Y2.6652
X10.4723 Y2.6451
X10.4461 Y2.6228
X10.4216 Y2.5984
X10.3992 Y2.5721
X10.3789 Y2.5439
X10.3608 Y2.5142
X10.3452 Y2.483
X10.3321 Y2.4505
X10.3216 Y2.4171
X10.3138 Y2.3828
X10.3088 Y2.348
X10.3066 Y2.3129
X10.3072 Y2.2776
X10.3106 Y2.2424
X10.3169 Y2.2076
X10.3259 Y2.1734
X10.3377 Y2.14
X10.3521 Y2.1076
X10.3691 Y2.0765
X10.3886 Y2.0468
X10.4104 Y2.0188
X10.4343 Y1.9925
X10.4603 Y1.9683
X10.4882 Y1.9463
X10.5178 Y1.9265
X10.5488 Y1.9092
X10.5812 Y1.8944
X10.6147 Y1.8822
X10.649 Y1.8728
X10.684 Y1.8662
X10.7194 Y1.8624
X10.7549 Y1.8614
X10.7905 Y1.8633
X10.8258 Y1.8681
X10.8607 Y1.8757
X10.8952 Y1.8861
X10.9291 Y1.8995
X10.9623 Y1.9157
X10.9946 Y1.9349
X11.0258 Y1.957
X11.0556 Y1.9819
X11.0834 Y2.0093
X11.109 Y2.0387
X11.1321 Y2.0701
X11.1528 Y2.1032
X11.1707 Y2.1378
X11.1859 Y2.1737
X11.1981 Y2.2107
X11.2074 Y2.2486
X11.2137 Y2.2871
X11.2168 Y2.3257
Y2.3643
X11.2137 Y2.4027
X11.2076 Y2.4405
X11.1984 Y2.4777
X11.1863 Y2.514
X11.1714 Y2.5491
X11.1537 Y2.583
X11.1333 Y2.6154
X11.1103 Y2.6461
X11.0848 Y2.6749
X11.0571 Y2.7017
X11.0271 Y2.7263
X10.9952 Y2.7485
X10.9614 Y2.768
X10.9263 Y2.7849
X10.8899 Y2.7988
X10.8525 Y2.8099
X10.8143 Y2.8179
X10.7756 Y2.823
X10.7367 Y2.825
X10.6977 Y2.8239
X10.659 Y2.8199
X10.6206 Y2.8129
X10.5829 Y2.8029
X10.5461 Y2.7901
X10.5103 Y2.7746
X10.4758 Y2.7564
X10.4428 Y2.7356
X10.4115 Y2.7124
X10.382 Y2.6869
X10.3545 Y2.6593
X10.3292 Y2.6296
X10.3062 Y2.5981
X10.2856 Y2.565
X10.2675 Y2.5305
X10.252 Y2.4947
X10.2392 Y2.4579
X10.2291 Y2.4202
X10.2218 Y2.3819
X10.2174 Y2.3432
X10.2158 Y2.3042
X10.217 Y2.2653
X10.2212 Y2.2265
X10.2282 Y2.1881
X10.2381 Y2.1504
X10.2507 Y2.1135
X10.266 Y2.0776
X10.2838 Y2.043
X10.3042 Y2.0097
X10.3268 Y1.978
X10.3518 Y1.948
X10.3788 Y1.9199
X10.4078 Y1.8939
X10.4387 Y1.87
X10.4712 Y1.8485
X10.5052 Y1.8295
X10.5406 Y1.813
X10.577 Y1.7992
X10.6144 Y1.788
X10.6524 Y1.7796
X10.691 Y1.7739
X10.7299 Y1.7711
X10.7689 Y1.771
X10.8078 Y1.7738
X10.8464 Y1.7795
X10.8844 Y1.788
X10.9217 Y1.7992
X10.9582 Y1.8131
X10.9935 Y1.8296
X11.0277 Y1.8484
X11.0604 Y1.8695
X11.0917 Y1.8928
X11.1212 Y1.9183
X11.149 Y1.9457
X11.1748 Y1.9749
X11.1986 Y2.0058
X11.2203 Y2.0381
X11.2399 Y2.0718
X11.2572 Y2.1068
X11.272 Y2.1429
X11.2843 Y2.1799
X11.2942 Y2.2176
X11.3015 Y2.2559
X11.3063 Y2.2946
X11.3085 Y2.3335
X11.3079 Y2.3725
X11.3046 Y2.4114
X11.2987 Y2.4499
X11.2901 Y2.4879
X11.2791 Y2.5253
X11.2655 Y2.5619
X11.2495 Y2.5974
X11.2309 Y2.6317
X11.2101 Y2.6647
X11.187 Y2.6961
X11.1619 Y2.7259
X11.1348 Y2.754
X11.1059 Y2.7802
X11.0753 Y2.8043
X11.0431 Y2.8262
X11.0094 Y2.8459
X10.9745 Y2.8633
X10.9385 Y2.8784
X10.9017 Y2.891
X10.864 Y2.9012
X10.8505 Y2.9039
X10.8468 Y2.9045
X10.843 Y2.9049
X10.8392 Y2.905
X10.6957
X10.6568 Y2.9031
X10.6373 Y2.9014
X10.6018 Y2.8969
X10.5637 Y2.889
X10.5263 Y2.878
X10.4898 Y2.8642
X10.4544 Y2.8479
X10.4201 Y2.8293
X10.3873 Y2.8083
X10.3559 Y2.7851
X10.3262 Y2.7599
X10.2981 Y2.7328
X10.2718 Y2.7041
X10.2473 Y2.6737
X10.2249 Y2.6418
X10.2046 Y2.6085
X10.1865 Y2.574
X10.1706 Y2.5384
X10.1569 Y2.5019
X10.1455 Y2.4646
X10.1364 Y2.4267
X10.1298 Y2.3882
X10.1256 Y2.3495
X10.1239 Y2.3105
X10.1246 Y2.2715
X10.1278 Y2.2327
X10.1334 Y2.1941
X10.1413 Y2.1559
X10.1517 Y2.1183
X10.1645 Y2.0815
X10.1796 Y2.0455
X10.1968 Y2.0106
X10.2162 Y1.9767
X10.2375 Y1.9441
X10.2609 Y1.9129
X10.2862 Y1.8832
X10.3133 Y1.8552
X10.3422 Y1.829
X10.3726 Y1.8046
X10.4044 Y1.7821
X10.4376 Y1.7616
X10.472 Y1.7432
X10.5075 Y1.7271
X10.544 Y1.7133
X10.5621 Y1.7076
X10.5678 Y1.7062
X10.5736 Y1.7053
X10.5794 Y1.705
X10.8375
X10.8764 Y1.7069
X10.8958 Y1.7091
X10.9284 Y1.7145
X10.9629 Y1.723
X10.9998 Y1.7355
X11.0357 Y1.7508
X11.0703 Y1.7687
X11.1037 Y1.7889
X11.1356 Y1.8112
X11.1661 Y1.8355
X11.1951 Y1.8616
X11.2225 Y1.8893
X11.2482 Y1.9187
X11.272 Y1.9495
X11.2941 Y1.9817
X11.3142 Y2.0151
X11.3324 Y2.0496
X11.3485 Y2.0851
X11.351 Y2.0915
X11.3532 Y2.0984
X11.3546 Y2.1055
X11.355 Y2.1126
Y2.4977
X11.3536 Y2.5262
X11.3503 Y2.5509
X11.3442 Y2.5798
X11.3346 Y2.6118
X11.3216 Y2.6451
X11.3046 Y2.6802
X11.2849 Y2.7138
X11.2628 Y2.746
X11.2387 Y2.7766
X11.2126 Y2.8056
X11.1849 Y2.833
X11.1555 Y2.8586
X11.1246 Y2.8824
X11.106 Y2.895
X11.0959 Y2.9005
X11.0848 Y2.9039
X11.0733 Y2.905
X10.8392
G3 X10.8247 Y2.8603 I0.0009 J-0.025
G1 X11.3147 Y2.4789
G3 X11.3528 Y2.4882 I0.0154 J0.0197
X11.355 Y2.4977 I-0.0227 J0.0104
G1 Y2.6748
X11.3539 Y2.6963
X11.352 Y2.7113
X11.3481 Y2.7294
X11.3423 Y2.7486
X11.3334 Y2.7714
X11.3219 Y2.7952
X11.306 Y2.8222
X11.2853 Y2.8516
X11.2604 Y2.8816
X11.255 Y2.8873
X11.2461 Y2.8948
X11.2358 Y2.9004
X11.2247 Y2.9038
X11.2131 Y2.905
G3 X11.2036 Y2.9028 I0.0009 J-0.025
X11.1922 Y2.8677 I0.0104 J-0.0227
G1 X11.3083 Y2.6633
G3 X11.3528 Y2.6653 I0.0217 J0.0123
X11.355 Y2.6748 I-0.0227 J0.0104
G1 Y2.8164
X11.3544 Y2.8288
X11.3526 Y2.8423
X11.3497 Y2.8557
X11.3474 Y2.8634
X11.3426 Y2.8749
X11.3355 Y2.885
X11.3264 Y2.8935
X11.3157 Y2.8998
X11.3039 Y2.9037
X11.2916 Y2.905
G3 X11.2821 Y2.9028 I0.0009 J-0.025
X11.271 Y2.8672 I0.0104 J-0.0227
G1 X11.3086 Y2.8044
G3 X11.355 Y2.8164 I0.0214 J0.0128
G1 Y2.8784
X11.3548 Y2.8828
X11.3544 Y2.885
X11.3538 Y2.8872
X11.3528 Y2.8899
X11.3513 Y2.8926
X11.3488 Y2.8961
X11.3472 Y2.8977
X11.3456 Y2.8991
X11.3425 Y2.9014
X11.3403 Y2.9026
X11.338 Y2.9035
X11.3358 Y2.9042
X11.3336 Y2.9047
X11.3316 Y2.9049
X11.3248 Y2.905
X11.0733
G3 X11.0497 Y2.885 I0.0009 J-0.025
G1 X10.8138 Y1.735
G3 X10.828 Y1.7072 I0.0245 J-0.005
X10.8375 Y1.705 I0.0104 J0.0227
G1 X11.0501
X11.0656 Y1.7058
X11.0829 Y1.708
X11.1012 Y1.712
X11.1233 Y1.7186
X11.1464 Y1.7276
X11.1732 Y1.7406
X11.2028 Y1.758
X11.2344 Y1.7802
X11.2644 Y1.8051
X11.2925 Y1.8321
X11.3188 Y1.8609
X11.3433 Y1.8913
X11.3441 Y1.8923
X11.3501 Y1.9028
X11.3538 Y1.9143
X11.355 Y1.9263
Y2.1126
G3 X11.3528 Y2.1221 I-0.025 J-0.0009
X11.3098 Y2.1265 I-0.0227 J-0.0104
G1 X11.0308 Y1.7447
G3 X11.0406 Y1.7072 I0.0202 J-0.0148
X11.0501 Y1.705 I0.0104 J0.0227
G1 X11.1919
X11.2049 Y1.7057
X11.2189 Y1.7075
X11.2337 Y1.7106
X11.2506 Y1.7157
X11.2693 Y1.723
X11.2903 Y1.7332
X11.3127 Y1.7464
X11.3302 Y1.7587
X11.3387 Y1.7659
X11.3456 Y1.7747
X11.3508 Y1.7846
X11.3539 Y1.7953
X11.355 Y1.8064
G3 X11.3528 Y1.8159 I-0.025 J-0.0009
X11.318 Y1.8274 I-0.0227 J-0.0104
G1 X11.1807 Y1.7519
G3 X11.1919 Y1.705 I0.0121 J-0.0219
G1 X11.307
X11.3186 Y1.7056
X11.3283 Y1.7081
X11.3372 Y1.7128
X11.3446 Y1.7195
X11.3503 Y1.7277
X11.3538 Y1.7371
X11.355 Y1.747
G3 X11.3528 Y1.7565 I-0.025 J-0.0009
X11.3153 Y1.7663 I-0.0227 J-0.0104
G1 X11.2932 Y1.7502
G3 X11.307 Y1.705 I0.0147 J-0.0202
G1 X11.3248
X11.3336 Y1.7053
X11.3358 Y1.7058
X11.338 Y1.7065
X11.3403 Y1.7074
X11.3425 Y1.7086
X11.3443 Y1.7099
X11.3464 Y1.7116
X11.3485 Y1.7136
X11.3501 Y1.7155
X11.3513 Y1.7174
X11.3521 Y1.7188
X11.3531 Y1.721
X11.3539 Y1.7232
X11.3545 Y1.7254
X11.3548 Y1.7276
X11.355 Y1.7365
Y1.9263
G3 X11.3528 Y1.9358 I-0.025 J-0.0009
X11.3508 Y1.9393 I-0.0227 J-0.0104
G1 X10.7156 Y2.8939
G3 X10.7052 Y2.9028 I-0.0208 J-0.0138
X10.6957 Y2.905 I-0.0104 J-0.0227
G1 X10.4653
X10.4434 Y2.9039
X10.4269 Y2.9017
X10.4071 Y2.8975
X10.386 Y2.8912
X10.3612 Y2.8815
X10.3353 Y2.869
X10.3067 Y2.8521
X10.2757 Y2.8303
X10.2457 Y2.8054
X10.2176 Y2.7784
X10.1914 Y2.7495
X10.1671 Y2.7191
X10.1447 Y2.6871
X10.1243 Y2.6539
X10.1059 Y2.6195
X10.0894 Y2.5842
X10.0749 Y2.548
X10.0623 Y2.5111
X10.0518 Y2.4735
X10.0434 Y2.4355
X10.0372 Y2.397
X10.0331 Y2.3582
X10.0312 Y2.3193
X10.0313 Y2.2803
X10.0336 Y2.2413
X10.038 Y2.2026
X10.0444 Y2.1641
X10.053 Y2.1261
X10.0637 Y2.0886
X10.0764 Y2.0517
X10.0911 Y2.0156
X10.1078 Y1.9804
X10.1263 Y1.9461
X10.1465 Y1.9128
X10.1686 Y1.8806
X10.1924 Y1.8497
X10.2178 Y1.8202
X10.2449 Y1.7921
X10.2735 Y1.7656
X10.3034 Y1.7406
X10.3346 Y1.7172
X10.3382 Y1.7148
X10.3483 Y1.7094
X10.3592 Y1.7061
X10.3706 Y1.705
X10.5794
G3 X10.5889 Y1.7072 I-0.0009 J0.025
X10.6034 Y1.7325 I-0.0104 J0.0227
G1 X10.4894 Y2.8825
G3 X10.4653 Y2.905 I-0.0249 J-0.0025
G1 X10.3147
X10.3047 Y2.9045
X10.2907 Y2.9027
X10.2761 Y2.8995
X10.2592 Y2.8945
X10.2405 Y2.8872
X10.2198 Y2.8771
X10.1976 Y2.8641
X10.1726 Y2.8466
X10.1461 Y2.8245
X10.1188 Y2.7979
X10.0932 Y2.7685
X10.0697 Y2.7374
X10.0483 Y2.7048
X10.0288 Y2.671
X10.0113 Y2.6362
X9.9956 Y2.6005
X9.9817 Y2.5641
X9.9696 Y2.527
X9.9594 Y2.4894
X9.9512 Y2.4512
X9.9449 Y2.4128
X9.9405 Y2.374
X9.938 Y2.3351
X9.9374 Y2.2961
X9.9386 Y2.2572
X9.9416 Y2.2183
X9.9465 Y2.1796
X9.9534 Y2.1412
X9.9621 Y2.1032
X9.9727 Y2.0657
X9.985 Y2.0287
X9.9992 Y1.9924
X10.015 Y1.9567
X10.0325 Y1.9219
X10.0516 Y1.8879
X10.0723 Y1.8548
X10.0946 Y1.8229
X10.1184 Y1.792
X10.1438 Y1.7624
X10.1705 Y1.734
X10.1836 Y1.7214
X10.1923 Y1.7144
X10.2023 Y1.7092
X10.213 Y1.7061
X10.2241 Y1.705
X10.3706
G3 X10.3947 Y1.7312 I-0.0009 J0.025
G1 X10.3388 Y2.8812
G3 X10.3242 Y2.9028 I-0.025 J-0.0012
X10.3147 Y2.905 I-0.0104 J-0.0227
G1 X10.1996
X10.1825 Y2.9041
X10.171 Y2.9026
X10.1572 Y2.8997
X10.1427 Y2.8953
X10.1265 Y2.8891
X10.1086 Y2.8803
X10.0894 Y2.869
X10.0685 Y2.8544
X10.0453 Y2.8351
X10.0213 Y2.8117
X9.9959 Y2.7826
X9.9727 Y2.7513
X9.9518 Y2.7184
X9.9328 Y2.6843
X9.9159 Y2.6492
X9.9007 Y2.6133
X9.8874 Y2.5766
X9.8758 Y2.5394
