%
(ToolingHolder18Flat)
(T1  D=0.125 CR=0 - ZMIN=-0.5 - flat end mill)
G90
G17
G20
G28 G91 Z0
G90

(2D Pocket1 2)
M9
T1 M6
S18000 M3
G54
M9
G0 X0.9976 Y0.5625
Z0.6
Z0.2
G1 Z0.1125 F30
G18 G2 X1.0096 Z0.1 I0.0125 K0 F13.12
G1 X6.6875 Z-0.0983
Y0.6119 Z-0.1
Y0.6375 F39.37
X0.5625
Y0.5625
X6.6875
Y0.6119
Y0.6375 Z-0.1009 F13.12
X3.8495 Z-0.2
X0.5625 F39.37
Y0.5625
X6.6875
Y0.6119
Y0.6375
X3.8495
X0.9859 Z-0.3 F13.12
X0.5625 F39.37
Y0.5625
X6.6875
Y0.6375
X0.9859
X0.5625 Z-0.3148 F13.12
Y0.5625 Z-0.3174
X2.9278 Z-0.4
X6.6875 F39.37
Y0.6375
X0.9859
X0.5625
Y0.5625
X2.9278
X5.7914 Z-0.5 F13.12
X6.6875 F39.37
Y0.6375
X0.5625
Y0.5625
X5.7914
G17 G3 X5.796 Y0.5634 Z-0.499 I0 J0.0125 F30
X5.7995 Y0.5655 Z-0.4963 I-0.0047 J0.0116
X5.8014 Y0.5675 Z-0.4923 I-0.0081 J0.0095
X5.8019 Y0.5682 Z-0.4875 I-0.01 J0.0075
G0 Z0.6
X3.1226 Y1.4625
Z0.2
G1 Z0.1125 F30
G18 G2 X3.1346 Z0.1 I0.0125 K0 F13.12
G1 X3.2375 Z0.0964
Y1.5375 Z0.0938
X0.5625 Z0.0004
Y1.4625 Z-0.0022
X3.2375 Z-0.0957
Y1.5375 Z-0.0983
X3.1881 Z-0.1
X0.5625 F39.37
Y1.4625
X3.2375
Y1.5375
X3.1881
X0.5625 Z-0.1917 F13.12
Y1.4625 Z-0.1943
X0.7255 Z-0.2
X3.2375 F39.37
Y1.5375
X0.5625
Y1.4625
X0.7255
X3.2375 Z-0.2877 F13.12
Y1.5375 Z-0.2903
X2.9609 Z-0.3
X0.5625 F39.37
Y1.4625
X3.2375
Y1.5375
X2.9609
X0.5625 Z-0.3838 F13.12
Y1.4625 Z-0.3864
X0.9528 Z-0.4
X3.2375 F39.37
Y1.5375
X0.5625
Y1.4625
X0.9528
X3.2375 Z-0.4798 F13.12
Y1.5375 Z-0.4824
X2.7336 Z-0.5
X0.5625 F39.37
Y1.4625
X3.2375
Y1.5375
X2.7336
G17 G3 X2.729 Y1.5366 Z-0.499 I0 J-0.0125 F30
X2.7255 Y1.5345 Z-0.4963 I0.0047 J-0.0116
X2.7236 Y1.5325 Z-0.4923 I0.0081 J-0.0095
X2.7231 Y1.5318 Z-0.4875 I0.01 J-0.0075
G0 Z0.2
X1.7726 Y1.0125
G1 Z0.1125 F30
G18 G2 X1.7846 Z0.1 I0.0125 K0 F13.12
G1 X3.9375 Z0.0248
Y1.0875 Z0.0222
X0.5625 Z-0.0957
Y1.0125 Z-0.0983
X0.6119 Z-0.1
X3.9375 F39.37
Y1.0875
X0.5625
Y1.0125
X0.6119
X3.4755 Z-0.2 F13.12
X3.9375 F39.37
Y1.0875
X0.5625
Y1.0125
X3.4755
X3.9375 Z-0.2161 F13.12
Y1.0875 Z-0.2188
X1.6109 Z-0.3
X0.5625 F39.37
Y1.0125
X3.4755
X3.9375
Y1.0875
X1.6109
X0.5625 Z-0.3366 F13.12
Y1.0125 Z-0.3392
X2.3028 Z-0.4
X3.9375 F39.37
Y1.0875
X1.6109
X0.5625
Y1.0125
X2.3028
X3.9375 Z-0.4571 F13.12
Y1.0875 Z-0.4597
X2.7836 Z-0.5
X0.5625 F39.37
Y1.0125
X2.3028
X3.9375
Y1.0875
X2.7836
G17 G3 X2.779 Y1.0866 Z-0.499 I0 J-0.0125 F30
X2.7755 Y1.0845 Z-0.4963 I0.0047 J-0.0116
X2.7736 Y1.0825 Z-0.4923 I0.0081 J-0.0095
X2.7731 Y1.0818 Z-0.4875 I0.01 J-0.0075
G0 Z0.2
X0.7524 Y1.9875
G1 Z0.1125 F30
G18 G3 X0.7404 Z0.1 I-0.0125 K0 F13.12
G1 X0.5625 Z0.0938
Y1.9125 Z0.0912
X3.2375 Z-0.0022
Y1.9875 Z-0.0049
X0.5625 Z-0.0983
Y1.9381 Z-0.1
Y1.9125 F39.37
X3.2375
Y1.9875
X0.5625
Y1.9381
Y1.9125 Z-0.1009 F13.12
X3.2375 Z-0.1943
Y1.9875 Z-0.1969
X3.1495 Z-0.2
X0.5625 F39.37
Y1.9381
Y1.9125
X3.2375
Y1.9875
X3.1495
X0.5625 Z-0.2903 F13.12
Y1.9125 Z-0.293
X0.7641 Z-0.3
X3.2375 F39.37
Y1.9875
X0.5625
Y1.9125
X0.7641
X3.2375 Z-0.3864 F13.12
Y1.9875 Z-0.389
X2.9222 Z-0.4
X0.5625 F39.37
Y1.9125
X3.2375
Y1.9875
X2.9222
X0.5625 Z-0.4824 F13.12
Y1.9125 Z-0.485
X0.9914 Z-0.5
X3.2375 F39.37
Y1.9875
X0.5625
Y1.9125
X0.9914
G17 G3 X0.996 Y1.9134 Z-0.499 I0 J0.0125 F30
X0.9995 Y1.9155 Z-0.4963 I-0.0047 J0.0116
X1.0014 Y1.9175 Z-0.4923 I-0.0081 J0.0095
X1.0019 Y1.9182 Z-0.4875 I-0.01 J0.0075
G0 Z0.6

(2D Contour1 2)
M9
X5.95 Y1.2249
Z0.6
Z0.2
G1 Z0.0394 F13.12
Z-0.2375
G18 G3 X5.9375 Z-0.25 I-0.0125 K0
G1 X5.925 F30
G17 G3 X5.9125 Y1.2124 I0 J-0.0125
G1 Y1.1497 F39.37
X5.9652
X5.9752
G3 X5.9877 Y1.1622 I0 J0.0125 F30
G1 Y1.1747
G19 G3 Y1.1872 Z-0.2375 J0 K0.0125
G0 Z0.2
X6.4623
G1 Z0.0394 F13.12
Z-0.2375
G2 Y1.1747 Z-0.25 J-0.0125 K0
G1 Y1.1622 F30
G17 G3 X6.4748 Y1.1497 I0.0125 J0
G1 X6.5375 F39.37
Y1.2024
Y1.2124
G3 X6.525 Y1.2249 I-0.0125 J0 F30
G1 X6.5125
G18 G3 X6.5 Z-0.2375 I0 K0.0125
G0 Z0.2
Y2.9123
G1 Z0.0394 F13.12
Z-0.2375
G2 X6.5125 Z-0.25 I0.0125 K0
G1 X6.525 F30
G17 G3 X6.5375 Y2.9248 I0 J0.0125
G1 Y2.9875 F39.37
X6.4848
X6.4748
G3 X6.4623 Y2.975 I0 J-0.0125 F30
G1 Y2.9625
G19 G2 Y2.95 Z-0.2375 J0 K0.0125
G0 Z0.2
X0.6377
G1 Z0.0394 F13.12
Z-0.2375
G3 Y2.9625 Z-0.25 J0.0125 K0
G1 Y2.975 F30
G17 G3 X0.6252 Y2.9875 I-0.0125 J0
G1 X0.5625 F39.37
Y2.9348
Y2.9248
G3 X0.575 Y2.9123 I0.0125 J0 F30
G1 X0.5875
G18 G2 X0.6 Z-0.2375 I0 K0.0125
G0 Z0.2
Y2.4377
G1 Z0.0394 F13.12
Z-0.2375
G3 X0.5875 Z-0.25 I-0.0125 K0
G1 X0.575 F30
G17 G3 X0.5625 Y2.4252 I0 J-0.0125
G1 Y2.3625 F39.37
X0.6152
X0.6252
G3 X0.6377 Y2.375 I0 J0.0125 F30
G1 Y2.3875
G19 G3 Y2.4 Z-0.2375 J0 K0.0125
G0 Z0.6
X11.3623 Y1.66
Z0.2
G1 Z0.0394 F13.12
Z-0.4875
G2 Y1.6475 Z-0.5 J-0.0125 K0
G1 Y1.635 F30
G17 G3 X11.3748 Y1.6225 I0.0125 J0
G1 X11.4375 F39.37
Y1.6752
Y1.6852
G3 X11.425 Y1.6977 I-0.0125 J0 F30
G1 X11.4125
G18 G3 X11.4 Z-0.4875 I0 K0.0125
G0 Z0.2
Y2.9123
G1 Z0.0394 F13.12
Z-0.4875
G2 X11.4125 Z-0.5 I0.0125 K0
G1 X11.425 F30
G17 G3 X11.4375 Y2.9248 I0 J0.0125
G1 Y2.9875 F39.37
X11.3848
X11.3748
G3 X11.3623 Y2.975 I0 J-0.0125 F30
G1 Y2.9625
G19 G2 Y2.95 Z-0.4875 J0 K0.0125
G0 Z0.2
X6.9877
G1 Z0.0394 F13.12
Z-0.4875
G3 Y2.9625 Z-0.5 J0.0125 K0
G1 Y2.975 F30
G17 G3 X6.9752 Y2.9875 I-0.0125 J0
G1 X6.9125 F39.37
Y2.9348
Y2.9248
G3 X6.925 Y2.9123 I0.0125 J0 F30
G1 X6.9375
G18 G2 X6.95 Z-0.4875 I0 K0.0125
G0 Z0.2
Y1.6977
G1 Z0.0394 F13.12
Z-0.4875
G3 X6.9375 Z-0.5 I-0.0125 K0
G1 X6.925 F30
G17 G3 X6.9125 Y1.6852 I0 J-0.0125
G1 Y1.6225 F39.37
X6.9652
X6.9752
G3 X6.9877 Y1.635 I0 J0.0125 F30
G1 Y1.6475
G19 G3 Y1.66 Z-0.4875 J0 K0.0125
G0 Z0.6
G17

(Drill2 2)
M9
G0 X7.4375 Y4.9375
Z0.6
Z0.2
Z0.08
G1 Z-0.0312 F13.12
G0 Z0.2
Z0.0488
G1 Z-0.0625 F13.12
G0 Z0.2
Z0.0175
G1 Z-0.0937 F13.12
G0 Z0.2
Z-0.0137
G1 Z-0.125 F13.12
G0 Z0.2
Z-0.045
G1 Z-0.1562 F13.12
G0 Z0.2
Z-0.0762
G1 Z-0.1875 F13.12
G0 Z0.2
Z-0.1075
G1 Z-0.2187 F13.12
G0 Z0.2
Z-0.1387
G1 Z-0.25 F13.12
G0 Z0.2
Z-0.17
G1 Z-0.2812 F13.12
G0 Z0.2
Z-0.2012
G1 Z-0.3125 F13.12
G0 Z0.2
Z-0.2325
G1 Z-0.3437 F13.12
G0 Z0.2
Z-0.2637
G1 Z-0.375 F13.12
G0 Z0.2
Z-0.295
G1 Z-0.4062 F13.12
G0 Z0.2
Z-0.3262
G1 Z-0.4375 F13.12
G0 Z0.2
Z-0.3575
G1 Z-0.4687 F13.12
G0 Z0.2
Z-0.3887
G1 Z-0.5 F13.12
G0 Z0.2
X7.9375
Z0.08
G1 Z-0.0312 F13.12
G0 Z0.2
Z0.0488
G1 Z-0.0625 F13.12
G0 Z0.2
Z0.0175
G1 Z-0.0937 F13.12
G0 Z0.2
Z-0.0137
G1 Z-0.125 F13.12
G0 Z0.2
Z-0.045
G1 Z-0.1562 F13.12
G0 Z0.2
Z-0.0762
G1 Z-0.1875 F13.12
G0 Z0.2
Z-0.1075
G1 Z-0.2187 F13.12
G0 Z0.2
Z-0.1387
G1 Z-0.25 F13.12
G0 Z0.2
Z-0.17
G1 Z-0.2812 F13.12
G0 Z0.2
Z-0.2012
G1 Z-0.3125 F13.12
G0 Z0.2
Z-0.2325
G1 Z-0.3437 F13.12
G0 Z0.2
Z-0.2637
G1 Z-0.375 F13.12
G0 Z0.2
Z-0.295
G1 Z-0.4062 F13.12
G0 Z0.2
Z-0.3262
G1 Z-0.4375 F13.12
G0 Z0.2
Z-0.3575
G1 Z-0.4687 F13.12
G0 Z0.2
Z-0.3887
G1 Z-0.5 F13.12
G0 Z0.2
X8.4375
Z0.08
G1 Z-0.0312 F13.12
G0 Z0.2
Z0.0488
G1 Z-0.0625 F13.12
G0 Z0.2
Z0.0175
G1 Z-0.0937 F13.12
G0 Z0.2
Z-0.0137
G1 Z-0.125 F13.12
G0 Z0.2
Z-0.045
G1 Z-0.1562 F13.12
G0 Z0.2
Z-0.0762
G1 Z-0.1875 F13.12
G0 Z0.2
Z-0.1075
G1 Z-0.2187 F13.12
G0 Z0.2
Z-0.1387
G1 Z-0.25 F13.12
G0 Z0.2
Z-0.17
G1 Z-0.2812 F13.12
G0 Z0.2
Z-0.2012
G1 Z-0.3125 F13.12
G0 Z0.2
Z-0.2325
G1 Z-0.3437 F13.12
G0 Z0.2
Z-0.2637
G1 Z-0.375 F13.12
G0 Z0.2
Z-0.295
G1 Z-0.4062 F13.12
G0 Z0.2
Z-0.3262
G1 Z-0.4375 F13.12
G0 Z0.2
Z-0.3575
G1 Z-0.4687 F13.12
G0 Z0.2
Z-0.3887
G1 Z-0.5 F13.12
G0 Z0.2
X8.9375
Z0.08
G1 Z-0.0312 F13.12
G0 Z0.2
Z0.0488
G1 Z-0.0625 F13.12
G0 Z0.2
Z0.0175
G1 Z-0.0937 F13.12
G0 Z0.2
Z-0.0137
G1 Z-0.125 F13.12
G0 Z0.2
Z-0.045
G1 Z-0.1562 F13.12
G0 Z0.2
Z-0.0762
G1 Z-0.1875 F13.12
G0 Z0.2
Z-0.1075
G1 Z-0.2187 F13.12
G0 Z0.2
Z-0.1387
G1 Z-0.25 F13.12
G0 Z0.2
Z-0.17
G1 Z-0.2812 F13.12
G0 Z0.2
Z-0.2012
G1 Z-0.3125 F13.12
G0 Z0.2
Z-0.2325
G1 Z-0.3437 F13.12
G0 Z0.2
Z-0.2637
G1 Z-0.375 F13.12
G0 Z0.2
Z-0.295
G1 Z-0.4062 F13.12
G0 Z0.2
Z-0.3262
G1 Z-0.4375 F13.12
G0 Z0.2
Z-0.3575
G1 Z-0.4687 F13.12
G0 Z0.2
Z-0.3887
G1 Z-0.5 F13.12
G0 Z0.2
X9.4375
Z0.08
G1 Z-0.0312 F13.12
G0 Z0.2
Z0.0488
G1 Z-0.0625 F13.12
G0 Z0.2
Z0.0175
G1 Z-0.0937 F13.12
G0 Z0.2
Z-0.0137
G1 Z-0.125 F13.12
G0 Z0.2
Z-0.045
G1 Z-0.1562 F13.12
G0 Z0.2
Z-0.0762
G1 Z-0.1875 F13.12
G0 Z0.2
Z-0.1075
G1 Z-0.2187 F13.12
G0 Z0.2
Z-0.1387
G1 Z-0.25 F13.12
G0 Z0.2
Z-0.17
G1 Z-0.2812 F13.12
G0 Z0.2
Z-0.2012
G1 Z-0.3125 F13.12
G0 Z0.2
Z-0.2325
G1 Z-0.3437 F13.12
G0 Z0.2
Z-0.2637
G1 Z-0.375 F13.12
G0 Z0.2
Z-0.295
G1 Z-0.4062 F13.12
G0 Z0.2
Z-0.3262
G1 Z-0.4375 F13.12
G0 Z0.2
Z-0.3575
G1 Z-0.4687 F13.12
G0 Z0.2
Z-0.3887
G1 Z-0.5 F13.12
G0 Z0.2
X9.9375
Z0.08
G1 Z-0.0312 F13.12
G0 Z0.2
Z0.0488
G1 Z-0.0625 F13.12
G0 Z0.2
Z0.0175
G1 Z-0.0937 F13.12
G0 Z0.2
Z-0.0137
G1 Z-0.125 F13.12
G0 Z0.2
Z-0.045
G1 Z-0.1562 F13.12
G0 Z0.2
Z-0.0762
G1 Z-0.1875 F13.12
G0 Z0.2
Z-0.1075
G1 Z-0.2187 F13.12
G0 Z0.2
Z-0.1387
G1 Z-0.25 F13.12
G0 Z0.2
Z-0.17
G1 Z-0.2812 F13.12
G0 Z0.2
Z-0.2012
G1 Z-0.3125 F13.12
G0 Z0.2
Z-0.2325
G1 Z-0.3437 F13.12
G0 Z0.2
Z-0.2637
G1 Z-0.375 F13.12
G0 Z0.2
Z-0.295
G1 Z-0.4062 F13.12
G0 Z0.2
Z-0.3262
G1 Z-0.4375 F13.12
G0 Z0.2
Z-0.3575
G1 Z-0.4687 F13.12
G0 Z0.2
Z-0.3887
G1 Z-0.5 F13.12
G0 Z0.2
X10.4375
Z0.08
G1 Z-0.0312 F13.12
G0 Z0.2
Z0.0488
G1 Z-0.0625 F13.12
G0 Z0.2
Z0.0175
G1 Z-0.0937 F13.12
G0 Z0.2
Z-0.0137
G1 Z-0.125 F13.12
G0 Z0.2
Z-0.045
G1 Z-0.1562 F13.12
G0 Z0.2
Z-0.0762
G1 Z-0.1875 F13.12
G0 Z0.2
Z-0.1075
G1 Z-0.2187 F13.12
G0 Z0.2
Z-0.1387
G1 Z-0.25 F13.12
G0 Z0.2
Z-0.17
G1 Z-0.2812 F13.12
G0 Z0.2
Z-0.2012
G1 Z-0.3125 F13.12
G0 Z0.2
Z-0.2325
G1 Z-0.3437 F13.12
G0 Z0.2
Z-0.2637
G1 Z-0.375 F13.12
G0 Z0.2
Z-0.295
G1 Z-0.4062 F13.12
G0 Z0.2
Z-0.3262
G1 Z-0.4375 F13.12
G0 Z0.2
Z-0.3575
G1 Z-0.4687 F13.12
G0 Z0.2
Z-0.3887
G1 Z-0.5 F13.12
G0 Z0.2
X10.9375
Z0.08
G1 Z-0.0312 F13.12
G0 Z0.2
Z0.0488
G1 Z-0.0625 F13.12
G0 Z0.2
Z0.0175
G1 Z-0.0937 F13.12
G0 Z0.2
Z-0.0137
G1 Z-0.125 F13.12
G0 Z0.2
Z-0.045
G1 Z-0.1562 F13.12
G0 Z0.2
Z-0.0762
G1 Z-0.1875 F13.12
G0 Z0.2
Z-0.1075
G1 Z-0.2187 F13.12
G0 Z0.2
Z-0.1387
G1 Z-0.25 F13.12
G0 Z0.2
Z-0.17
G1 Z-0.2812 F13.12
G0 Z0.2
Z-0.2012
G1 Z-0.3125 F13.12
G0 Z0.2
Z-0.2325
G1 Z-0.3437 F13.12
G0 Z0.2
Z-0.2637
G1 Z-0.375 F13.12
G0 Z0.2
Z-0.295
G1 Z-0.4062 F13.12
G0 Z0.2
Z-0.3262
G1 Z-0.4375 F13.12
G0 Z0.2
Z-0.3575
G1 Z-0.4687 F13.12
G0 Z0.2
Z-0.3887
G1 Z-0.5 F13.12
G0 Z0.2
X11.4375
Z0.08
G1 Z-0.0312 F13.12
G0 Z0.2
Z0.0488
G1 Z-0.0625 F13.12
G0 Z0.2
Z0.0175
G1 Z-0.0937 F13.12
G0 Z0.2
Z-0.0137
G1 Z-0.125 F13.12
G0 Z0.2
Z-0.045
G1 Z-0.1562 F13.12
G0 Z0.2
Z-0.0762
G1 Z-0.1875 F13.12
G0 Z0.2
Z-0.1075
G1 Z-0.2187 F13.12
G0 Z0.2
Z-0.1387
G1 Z-0.25 F13.12
G0 Z0.2
Z-0.17
G1 Z-0.2812 F13.12
G0 Z0.2
Z-0.2012
G1 Z-0.3125 F13.12
G0 Z0.2
Z-0.2325
G1 Z-0.3437 F13.12
G0 Z0.2
Z-0.2637
G1 Z-0.375 F13.12
G0 Z0.2
Z-0.295
G1 Z-0.4062 F13.12
G0 Z0.2
Z-0.3262
G1 Z-0.4375 F13.12
G0 Z0.2
Z-0.3575
G1 Z-0.4687 F13.12
G0 Z0.2
Z-0.3887
G1 Z-0.5 F13.12
G0 Z0.2
Y4.4375
Z0.08
G1 Z-0.0312 F13.12
G0 Z0.2
Z0.0488
G1 Z-0.0625 F13.12
G0 Z0.2
Z0.0175
G1 Z-0.0937 F13.12
G0 Z0.2
Z-0.0137
G1 Z-0.125 F13.12
G0 Z0.2
Z-0.045
G1 Z-0.1562 F13.12
G0 Z0.2
Z-0.0762
G1 Z-0.1875 F13.12
G0 Z0.2
Z-0.1075
G1 Z-0.2187 F13.12
G0 Z0.2
Z-0.1387
G1 Z-0.25 F13.12
G0 Z0.2
Z-0.17
G1 Z-0.2812 F13.12
G0 Z0.2
Z-0.2012
G1 Z-0.3125 F13.12
G0 Z0.2
Z-0.2325
G1 Z-0.3437 F13.12
G0 Z0.2
Z-0.2637
G1 Z-0.375 F13.12
G0 Z0.2
Z-0.295
G1 Z-0.4062 F13.12
G0 Z0.2
Z-0.3262
G1 Z-0.4375 F13.12
G0 Z0.2
Z-0.3575
G1 Z-0.4687 F13.12
G0 Z0.2
Z-0.3887
G1 Z-0.5 F13.12
G0 Z0.2
X10.9375
Z0.08
G1 Z-0.0312 F13.12
G0 Z0.2
Z0.0488
G1 Z-0.0625 F13.12
G0 Z0.2
Z0.0175
G1 Z-0.0937 F13.12
G0 Z0.2
Z-0.0137
G1 Z-0.125 F13.12
G0 Z0.2
Z-0.045
G1 Z-0.1562 F13.12
G0 Z0.2
Z-0.0762
G1 Z-0.1875 F13.12
G0 Z0.2
Z-0.1075
G1 Z-0.2187 F13.12
G0 Z0.2
Z-0.1387
G1 Z-0.25 F13.12
G0 Z0.2
Z-0.17
G1 Z-0.2812 F13.12
G0 Z0.2
Z-0.2012
G1 Z-0.3125 F13.12
G0 Z0.2
Z-0.2325
G1 Z-0.3437 F13.12
G0 Z0.2
Z-0.2637
G1 Z-0.375 F13.12
G0 Z0.2
Z-0.295
G1 Z-0.4062 F13.12
G0 Z0.2
Z-0.3262
G1 Z-0.4375 F13.12
G0 Z0.2
Z-0.3575
G1 Z-0.4687 F13.12
G0 Z0.2
Z-0.3887
G1 Z-0.5 F13.12
G0 Z0.2
X10.4375
Z0.08
G1 Z-0.0312 F13.12
G0 Z0.2
Z0.0488
G1 Z-0.0625 F13.12
G0 Z0.2
Z0.0175
G1 Z-0.0937 F13.12
G0 Z0.2
Z-0.0137
G1 Z-0.125 F13.12
G0 Z0.2
Z-0.045
G1 Z-0.1562 F13.12
G0 Z0.2
Z-0.0762
G1 Z-0.1875 F13.12
G0 Z0.2
Z-0.1075
G1 Z-0.2187 F13.12
G0 Z0.2
Z-0.1387
G1 Z-0.25 F13.12
G0 Z0.2
Z-0.17
G1 Z-0.2812 F13.12
G0 Z0.2
Z-0.2012
G1 Z-0.3125 F13.12
G0 Z0.2
Z-0.2325
G1 Z-0.3437 F13.12
G0 Z0.2
Z-0.2637
G1 Z-0.375 F13.12
G0 Z0.2
Z-0.295
G1 Z-0.4062 F13.12
G0 Z0.2
Z-0.3262
G1 Z-0.4375 F13.12
G0 Z0.2
Z-0.3575
G1 Z-0.4687 F13.12
G0 Z0.2
Z-0.3887
G1 Z-0.5 F13.12
G0 Z0.2
X9.9375
Z0.08
G1 Z-0.0312 F13.12
G0 Z0.2
Z0.0488
G1 Z-0.0625 F13.12
G0 Z0.2
Z0.0175
G1 Z-0.0937 F13.12
G0 Z0.2
Z-0.0137
G1 Z-0.125 F13.12
G0 Z0.2
Z-0.045
G1 Z-0.1562 F13.12
G0 Z0.2
Z-0.0762
G1 Z-0.1875 F13.12
G0 Z0.2
Z-0.1075
G1 Z-0.2187 F13.12
G0 Z0.2
Z-0.1387
G1 Z-0.25 F13.12
G0 Z0.2
Z-0.17
G1 Z-0.2812 F13.12
G0 Z0.2
Z-0.2012
G1 Z-0.3125 F13.12
G0 Z0.2
Z-0.2325
G1 Z-0.3437 F13.12
G0 Z0.2
Z-0.2637
G1 Z-0.375 F13.12
G0 Z0.2
Z-0.295
G1 Z-0.4062 F13.12
G0 Z0.2
Z-0.3262
G1 Z-0.4375 F13.12
G0 Z0.2
Z-0.3575
G1 Z-0.4687 F13.12
G0 Z0.2
Z-0.3887
G1 Z-0.5 F13.12
G0 Z0.2
X9.4375
Z0.08
G1 Z-0.0312 F13.12
G0 Z0.2
Z0.0488
G1 Z-0.0625 F13.12
G0 Z0.2
Z0.0175
G1 Z-0.0937 F13.12
G0 Z0.2
Z-0.0137
G1 Z-0.125 F13.12
G0 Z0.2
Z-0.045
G1 Z-0.1562 F13.12
G0 Z0.2
Z-0.0762
G1 Z-0.1875 F13.12
G0 Z0.2
Z-0.1075
G1 Z-0.2187 F13.12
G0 Z0.2
Z-0.1387
G1 Z-0.25 F13.12
G0 Z0.2
Z-0.17
G1 Z-0.2812 F13.12
G0 Z0.2
Z-0.2012
G1 Z-0.3125 F13.12
G0 Z0.2
Z-0.2325
G1 Z-0.3437 F13.12
G0 Z0.2
Z-0.2637
G1 Z-0.375 F13.12
G0 Z0.2
Z-0.295
G1 Z-0.4062 F13.12
G0 Z0.2
Z-0.3262
G1 Z-0.4375 F13.12
G0 Z0.2
Z-0.3575
G1 Z-0.4687 F13.12
G0 Z0.2
Z-0.3887
G1 Z-0.5 F13.12
G0 Z0.2
X8.9375
Z0.08
G1 Z-0.0312 F13.12
G0 Z0.2
Z0.0488
G1 Z-0.0625 F13.12
G0 Z0.2
Z0.0175
G1 Z-0.0937 F13.12
G0 Z0.2
Z-0.0137
G1 Z-0.125 F13.12
G0 Z0.2
Z-0.045
G1 Z-0.1562 F13.12
G0 Z0.2
Z-0.0762
G1 Z-0.1875 F13.12
G0 Z0.2
Z-0.1075
G1 Z-0.2187 F13.12
G0 Z0.2
Z-0.1387
G1 Z-0.25 F13.12
G0 Z0.2
Z-0.17
G1 Z-0.2812 F13.12
G0 Z0.2
Z-0.2012
G1 Z-0.3125 F13.12
G0 Z0.2
Z-0.2325
G1 Z-0.3437 F13.12
G0 Z0.2
Z-0.2637
G1 Z-0.375 F13.12
G0 Z0.2
Z-0.295
G1 Z-0.4062 F13.12
G0 Z0.2
Z-0.3262
G1 Z-0.4375 F13.12
G0 Z0.2
Z-0.3575
G1 Z-0.4687 F13.12
G0 Z0.2
Z-0.3887
G1 Z-0.5 F13.12
G0 Z0.2
X8.4375
Z0.08
G1 Z-0.0312 F13.12
G0 Z0.2
Z0.0488
G1 Z-0.0625 F13.12
G0 Z0.2
Z0.0175
G1 Z-0.0937 F13.12
G0 Z0.2
Z-0.0137
G1 Z-0.125 F13.12
G0 Z0.2
Z-0.045
G1 Z-0.1562 F13.12
G0 Z0.2
Z-0.0762
G1 Z-0.1875 F13.12
G0 Z0.2
Z-0.1075
G1 Z-0.2187 F13.12
G0 Z0.2
Z-0.1387
G1 Z-0.25 F13.12
G0 Z0.2
Z-0.17
G1 Z-0.2812 F13.12
G0 Z0.2
Z-0.2012
G1 Z-0.3125 F13.12
G0 Z0.2
Z-0.2325
G1 Z-0.3437 F13.12
G0 Z0.2
Z-0.2637
G1 Z-0.375 F13.12
G0 Z0.2
Z-0.295
G1 Z-0.4062 F13.12
G0 Z0.2
Z-0.3262
G1 Z-0.4375 F13.12
G0 Z0.2
Z-0.3575
G1 Z-0.4687 F13.12
G0 Z0.2
Z-0.3887
G1 Z-0.5 F13.12
G0 Z0.2
X7.9375
Z0.08
G1 Z-0.0312 F13.12
G0 Z0.2
Z0.0488
G1 Z-0.0625 F13.12
G0 Z0.2
Z0.0175
G1 Z-0.0937 F13.12
G0 Z0.2
Z-0.0137
G1 Z-0.125 F13.12
G0 Z0.2
Z-0.045
G1 Z-0.1562 F13.12
G0 Z0.2
Z-0.0762
G1 Z-0.1875 F13.12
G0 Z0.2
Z-0.1075
G1 Z-0.2187 F13.12
G0 Z0.2
Z-0.1387
G1 Z-0.25 F13.12
G0 Z0.2
Z-0.17
G1 Z-0.2812 F13.12
G0 Z0.2
Z-0.2012
G1 Z-0.3125 F13.12
G0 Z0.2
Z-0.2325
G1 Z-0.3437 F13.12
G0 Z0.2
Z-0.2637
G1 Z-0.375 F13.12
G0 Z0.2
Z-0.295
G1 Z-0.4062 F13.12
G0 Z0.2
Z-0.3262
G1 Z-0.4375 F13.12
G0 Z0.2
Z-0.3575
G1 Z-0.4687 F13.12
G0 Z0.2
Z-0.3887
G1 Z-0.5 F13.12
G0 Z0.2
X7.4375
Z0.08
G1 Z-0.0312 F13.12
G0 Z0.2
Z0.0488
G1 Z-0.0625 F13.12
G0 Z0.2
Z0.0175
G1 Z-0.0937 F13.12
G0 Z0.2
Z-0.0137
G1 Z-0.125 F13.12
G0 Z0.2
Z-0.045
G1 Z-0.1562 F13.12
G0 Z0.2
Z-0.0762
G1 Z-0.1875 F13.12
G0 Z0.2
Z-0.1075
G1 Z-0.2187 F13.12
G0 Z0.2
Z-0.1387
G1 Z-0.25 F13.12
G0 Z0.2
Z-0.17
G1 Z-0.2812 F13.12
G0 Z0.2
Z-0.2012
G1 Z-0.3125 F13.12
G0 Z0.2
Z-0.2325
G1 Z-0.3437 F13.12
G0 Z0.2
Z-0.2637
G1 Z-0.375 F13.12
G0 Z0.2
Z-0.295
G1 Z-0.4062 F13.12
G0 Z0.2
Z-0.3262
G1 Z-0.4375 F13.12
G0 Z0.2
Z-0.3575
G1 Z-0.4687 F13.12
G0 Z0.2
Z-0.3887
G1 Z-0.5 F13.12
G0 Z0.2
Y3.9375
Z0.08
G1 Z-0.0312 F13.12
G0 Z0.2
Z0.0488
G1 Z-0.0625 F13.12
G0 Z0.2
Z0.0175
G1 Z-0.0937 F13.12
G0 Z0.2
Z-0.0137
G1 Z-0.125 F13.12
G0 Z0.2
Z-0.045
G1 Z-0.1562 F13.12
G0 Z0.2
Z-0.0762
G1 Z-0.1875 F13.12
G0 Z0.2
Z-0.1075
G1 Z-0.2187 F13.12
G0 Z0.2
Z-0.1387
G1 Z-0.25 F13.12
G0 Z0.2
Z-0.17
G1 Z-0.2812 F13.12
G0 Z0.2
Z-0.2012
G1 Z-0.3125 F13.12
G0 Z0.2
Z-0.2325
G1 Z-0.3437 F13.12
G0 Z0.2
Z-0.2637
G1 Z-0.375 F13.12
G0 Z0.2
Z-0.295
G1 Z-0.4062 F13.12
G0 Z0.2
Z-0.3262
G1 Z-0.4375 F13.12
G0 Z0.2
Z-0.3575
G1 Z-0.4687 F13.12
G0 Z0.2
Z-0.3887
G1 Z-0.5 F13.12
G0 Z0.2
X7.9375
Z0.08
G1 Z-0.0312 F13.12
G0 Z0.2
Z0.0488
G1 Z-0.0625 F13.12
G0 Z0.2
Z0.0175
G1 Z-0.0937 F13.12
G0 Z0.2
Z-0.0137
G1 Z-0.125 F13.12
G0 Z0.2
Z-0.045
G1 Z-0.1562 F13.12
G0 Z0.2
Z-0.0762
G1 Z-0.1875 F13.12
G0 Z0.2
Z-0.1075
G1 Z-0.2187 F13.12
G0 Z0.2
Z-0.1387
G1 Z-0.25 F13.12
G0 Z0.2
Z-0.17
G1 Z-0.2812 F13.12
G0 Z0.2
Z-0.2012
G1 Z-0.3125 F13.12
G0 Z0.2
Z-0.2325
G1 Z-0.3437 F13.12
G0 Z0.2
Z-0.2637
G1 Z-0.375 F13.12
G0 Z0.2
Z-0.295
G1 Z-0.4062 F13.12
G0 Z0.2
Z-0.3262
G1 Z-0.4375 F13.12
G0 Z0.2
Z-0.3575
G1 Z-0.4687 F13.12
G0 Z0.2
Z-0.3887
G1 Z-0.5 F13.12
G0 Z0.2
X8.4375
Z0.08
G1 Z-0.0312 F13.12
G0 Z0.2
Z0.0488
G1 Z-0.0625 F13.12
G0 Z0.2
Z0.0175
G1 Z-0.0937 F13.12
G0 Z0.2
Z-0.0137
G1 Z-0.125 F13.12
G0 Z0.2
Z-0.045
G1 Z-0.1562 F13.12
G0 Z0.2
Z-0.0762
G1 Z-0.1875 F13.12
G0 Z0.2
Z-0.1075
G1 Z-0.2187 F13.12
G0 Z0.2
Z-0.1387
G1 Z-0.25 F13.12
G0 Z0.2
Z-0.17
G1 Z-0.2812 F13.12
G0 Z0.2
Z-0.2012
G1 Z-0.3125 F13.12
G0 Z0.2
Z-0.2325
G1 Z-0.3437 F13.12
G0 Z0.2
Z-0.2637
G1 Z-0.375 F13.12
G0 Z0.2
Z-0.295
G1 Z-0.4062 F13.12
G0 Z0.2
Z-0.3262
G1 Z-0.4375 F13.12
G0 Z0.2
Z-0.3575
G1 Z-0.4687 F13.12
G0 Z0.2
Z-0.3887
G1 Z-0.5 F13.12
G0 Z0.2
X8.9375
Z0.08
G1 Z-0.0312 F13.12
G0 Z0.2
Z0.0488
G1 Z-0.0625 F13.12
G0 Z0.2
Z0.0175
G1 Z-0.0937 F13.12
G0 Z0.2
Z-0.0137
G1 Z-0.125 F13.12
G0 Z0.2
Z-0.045
G1 Z-0.1562 F13.12
G0 Z0.2
Z-0.0762
G1 Z-0.1875 F13.12
G0 Z0.2
Z-0.1075
G1 Z-0.2187 F13.12
G0 Z0.2
Z-0.1387
G1 Z-0.25 F13.12
G0 Z0.2
Z-0.17
G1 Z-0.2812 F13.12
G0 Z0.2
Z-0.2012
G1 Z-0.3125 F13.12
G0 Z0.2
Z-0.2325
G1 Z-0.3437 F13.12
G0 Z0.2
Z-0.2637
G1 Z-0.375 F13.12
G0 Z0.2
Z-0.295
G1 Z-0.4062 F13.12
G0 Z0.2
Z-0.3262
G1 Z-0.4375 F13.12
G0 Z0.2
Z-0.3575
G1 Z-0.4687 F13.12
G0 Z0.2
Z-0.3887
G1 Z-0.5 F13.12
G0 Z0.2
X9.4375
Z0.08
G1 Z-0.0312 F13.12
G0 Z0.2
Z0.0488
G1 Z-0.0625 F13.12
G0 Z0.2
Z0.0175
G1 Z-0.0937 F13.12
G0 Z0.2
Z-0.0137
G1 Z-0.125 F13.12
G0 Z0.2
Z-0.045
G1 Z-0.1562 F13.12
G0 Z0.2
Z-0.0762
G1 Z-0.1875 F13.12
G0 Z0.2
Z-0.1075
G1 Z-0.2187 F13.12
G0 Z0.2
Z-0.1387
G1 Z-0.25 F13.12
G0 Z0.2
Z-0.17
G1 Z-0.2812 F13.12
G0 Z0.2
Z-0.2012
G1 Z-0.3125 F13.12
G0 Z0.2
Z-0.2325
G1 Z-0.3437 F13.12
G0 Z0.2
Z-0.2637
G1 Z-0.375 F13.12
G0 Z0.2
Z-0.295
G1 Z-0.4062 F13.12
G0 Z0.2
Z-0.3262
G1 Z-0.4375 F13.12
G0 Z0.2
Z-0.3575
G1 Z-0.4687 F13.12
G0 Z0.2
Z-0.3887
G1 Z-0.5 F13.12
G0 Z0.2
X9.9375
Z0.08
G1 Z-0.0312 F13.12
G0 Z0.2
Z0.0488
G1 Z-0.0625 F13.12
G0 Z0.2
Z0.0175
G1 Z-0.0937 F13.12
G0 Z0.2
Z-0.0137
G1 Z-0.125 F13.12
G0 Z0.2
Z-0.045
G1 Z-0.1562 F13.12
G0 Z0.2
Z-0.0762
G1 Z-0.1875 F13.12
G0 Z0.2
Z-0.1075
G1 Z-0.2187 F13.12
G0 Z0.2
Z-0.1387
G1 Z-0.25 F13.12
G0 Z0.2
Z-0.17
G1 Z-0.2812 F13.12
G0 Z0.2
Z-0.2012
G1 Z-0.3125 F13.12
G0 Z0.2
Z-0.2325
G1 Z-0.3437 F13.12
G0 Z0.2
Z-0.2637
G1 Z-0.375 F13.12
G0 Z0.2
Z-0.295
G1 Z-0.4062 F13.12
G0 Z0.2
Z-0.3262
G1 Z-0.4375 F13.12
G0 Z0.2
Z-0.3575
G1 Z-0.4687 F13.12
G0 Z0.2
Z-0.3887
G1 Z-0.5 F13.12
G0 Z0.2
X10.4375
Z0.08
G1 Z-0.0312 F13.12
G0 Z0.2
Z0.0488
G1 Z-0.0625 F13.12
G0 Z0.2
Z0.0175
G1 Z-0.0937 F13.12
G0 Z0.2
Z-0.0137
G1 Z-0.125 F13.12
G0 Z0.2
Z-0.045
G1 Z-0.1562 F13.12
G0 Z0.2
Z-0.0762
G1 Z-0.1875 F13.12
G0 Z0.2
Z-0.1075
G1 Z-0.2187 F13.12
G0 Z0.2
Z-0.1387
G1 Z-0.25 F13.12
G0 Z0.2
Z-0.17
G1 Z-0.2812 F13.12
G0 Z0.2
Z-0.2012
G1 Z-0.3125 F13.12
G0 Z0.2
Z-0.2325
G1 Z-0.3437 F13.12
G0 Z0.2
Z-0.2637
G1 Z-0.375 F13.12
G0 Z0.2
Z-0.295
G1 Z-0.4062 F13.12
G0 Z0.2
Z-0.3262
G1 Z-0.4375 F13.12
G0 Z0.2
Z-0.3575
G1 Z-0.4687 F13.12
G0 Z0.2
Z-0.3887
G1 Z-0.5 F13.12
G0 Z0.2
X10.9375
Z0.08
G1 Z-0.0312 F13.12
G0 Z0.2
Z0.0488
G1 Z-0.0625 F13.12
G0 Z0.2
Z0.0175
G1 Z-0.0937 F13.12
G0 Z0.2
Z-0.0137
G1 Z-0.125 F13.12
G0 Z0.2
Z-0.045
G1 Z-0.1562 F13.12
G0 Z0.2
Z-0.0762
G1 Z-0.1875 F13.12
G0 Z0.2
Z-0.1075
G1 Z-0.2187 F13.12
G0 Z0.2
Z-0.1387
G1 Z-0.25 F13.12
G0 Z0.2
Z-0.17
G1 Z-0.2812 F13.12
G0 Z0.2
Z-0.2012
G1 Z-0.3125 F13.12
G0 Z0.2
Z-0.2325
G1 Z-0.3437 F13.12
G0 Z0.2
Z-0.2637
G1 Z-0.375 F13.12
G0 Z0.2
Z-0.295
G1 Z-0.4062 F13.12
G0 Z0.2
Z-0.3262
G1 Z-0.4375 F13.12
G0 Z0.2
Z-0.3575
G1 Z-0.4687 F13.12
G0 Z0.2
Z-0.3887
G1 Z-0.5 F13.12
G0 Z0.2
X11.4375
Z0.08
G1 Z-0.0312 F13.12
G0 Z0.2
Z0.0488
G1 Z-0.0625 F13.12
G0 Z0.2
Z0.0175
G1 Z-0.0937 F13.12
G0 Z0.2
Z-0.0137
G1 Z-0.125 F13.12
G0 Z0.2
Z-0.045
G1 Z-0.1562 F13.12
G0 Z0.2
Z-0.0762
G1 Z-0.1875 F13.12
G0 Z0.2
Z-0.1075
G1 Z-0.2187 F13.12
G0 Z0.2
Z-0.1387
G1 Z-0.25 F13.12
G0 Z0.2
Z-0.17
G1 Z-0.2812 F13.12
G0 Z0.2
Z-0.2012
G1 Z-0.3125 F13.12
G0 Z0.2
Z-0.2325
G1 Z-0.3437 F13.12
G0 Z0.2
Z-0.2637
G1 Z-0.375 F13.12
G0 Z0.2
Z-0.295
G1 Z-0.4062 F13.12
G0 Z0.2
Z-0.3262
G1 Z-0.4375 F13.12
G0 Z0.2
Z-0.3575
G1 Z-0.4687 F13.12
G0 Z0.2
Z-0.3887
G1 Z-0.5 F13.12
G0 Z0.2
Y3.4375
Z0.08
G1 Z-0.0312 F13.12
G0 Z0.2
Z0.0488
G1 Z-0.0625 F13.12
G0 Z0.2
Z0.0175
G1 Z-0.0937 F13.12
G0 Z0.2
Z-0.0137
G1 Z-0.125 F13.12
G0 Z0.2
Z-0.045
G1 Z-0.1562 F13.12
G0 Z0.2
Z-0.0762
G1 Z-0.1875 F13.12
G0 Z0.2
Z-0.1075
G1 Z-0.2187 F13.12
G0 Z0.2
Z-0.1387
G1 Z-0.25 F13.12
G0 Z0.2
Z-0.17
G1 Z-0.2812 F13.12
G0 Z0.2
Z-0.2012
G1 Z-0.3125 F13.12
G0 Z0.2
Z-0.2325
G1 Z-0.3437 F13.12
G0 Z0.2
Z-0.2637
G1 Z-0.375 F13.12
G0 Z0.2
Z-0.295
G1 Z-0.4062 F13.12
G0 Z0.2
Z-0.3262
G1 Z-0.4375 F13.12
G0 Z0.2
Z-0.3575
G1 Z-0.4687 F13.12
G0 Z0.2
Z-0.3887
G1 Z-0.5 F13.12
G0 Z0.2
X10.9375
Z0.08
G1 Z-0.0312 F13.12
G0 Z0.2
Z0.0488
G1 Z-0.0625 F13.12
G0 Z0.2
Z0.0175
G1 Z-0.0937 F13.12
G0 Z0.2
Z-0.0137
G1 Z-0.125 F13.12
G0 Z0.2
Z-0.045
G1 Z-0.1562 F13.12
G0 Z0.2
Z-0.0762
G1 Z-0.1875 F13.12
G0 Z0.2
Z-0.1075
G1 Z-0.2187 F13.12
G0 Z0.2
Z-0.1387
G1 Z-0.25 F13.12
G0 Z0.2
Z-0.17
G1 Z-0.2812 F13.12
G0 Z0.2
Z-0.2012
G1 Z-0.3125 F13.12
G0 Z0.2
Z-0.2325
G1 Z-0.3437 F13.12
G0 Z0.2
Z-0.2637
G1 Z-0.375 F13.12
G0 Z0.2
Z-0.295
G1 Z-0.4062 F13.12
G0 Z0.2
Z-0.3262
G1 Z-0.4375 F13.12
G0 Z0.2
Z-0.3575
G1 Z-0.4687 F13.12
G0 Z0.2
Z-0.3887
G1 Z-0.5 F13.12
G0 Z0.2
X10.4375
Z0.08
G1 Z-0.0312 F13.12
G0 Z0.2
Z0.0488
G1 Z-0.0625 F13.12
G0 Z0.2
Z0.0175
G1 Z-0.0937 F13.12
G0 Z0.2
Z-0.0137
G1 Z-0.125 F13.12
G0 Z0.2
Z-0.045
G1 Z-0.1562 F13.12
G0 Z0.2
Z-0.0762
G1 Z-0.1875 F13.12
G0 Z0.2
Z-0.1075
G1 Z-0.2187 F13.12
G0 Z0.2
Z-0.1387
G1 Z-0.25 F13.12
G0 Z0.2
Z-0.17
G1 Z-0.2812 F13.12
G0 Z0.2
Z-0.2012
G1 Z-0.3125 F13.12
G0 Z0.2
Z-0.2325
G1 Z-0.3437 F13.12
G0 Z0.2
Z-0.2637
G1 Z-0.375 F13.12
G0 Z0.2
Z-0.295
G1 Z-0.4062 F13.12
G0 Z0.2
Z-0.3262
G1 Z-0.4375 F13.12
G0 Z0.2
Z-0.3575
G1 Z-0.4687 F13.12
G0 Z0.2
Z-0.3887
G1 Z-0.5 F13.12
G0 Z0.2
X9.9375
Z0.08
G1 Z-0.0312 F13.12
G0 Z0.2
Z0.0488
G1 Z-0.0625 F13.12
G0 Z0.2
Z0.0175
G1 Z-0.0937 F13.12
G0 Z0.2
Z-0.0137
G1 Z-0.125 F13.12
G0 Z0.2
Z-0.045
G1 Z-0.1562 F13.12
G0 Z0.2
Z-0.0762
G1 Z-0.1875 F13.12
G0 Z0.2
Z-0.1075
G1 Z-0.2187 F13.12
G0 Z0.2
Z-0.1387
G1 Z-0.25 F13.12
G0 Z0.2
Z-0.17
G1 Z-0.2812 F13.12
G0 Z0.2
Z-0.2012
G1 Z-0.3125 F13.12
G0 Z0.2
Z-0.2325
G1 Z-0.3437 F13.12
G0 Z0.2
Z-0.2637
G1 Z-0.375 F13.12
G0 Z0.2
Z-0.295
G1 Z-0.4062 F13.12
G0 Z0.2
Z-0.3262
G1 Z-0.4375 F13.12
G0 Z0.2
Z-0.3575
G1 Z-0.4687 F13.12
G0 Z0.2
Z-0.3887
G1 Z-0.5 F13.12
G0 Z0.2
X9.4375
Z0.08
G1 Z-0.0312 F13.12
G0 Z0.2
Z0.0488
G1 Z-0.0625 F13.12
G0 Z0.2
Z0.0175
G1 Z-0.0937 F13.12
G0 Z0.2
Z-0.0137
G1 Z-0.125 F13.12
G0 Z0.2
Z-0.045
G1 Z-0.1562 F13.12
G0 Z0.2
Z-0.0762
G1 Z-0.1875 F13.12
G0 Z0.2
Z-0.1075
G1 Z-0.2187 F13.12
G0 Z0.2
Z-0.1387
G1 Z-0.25 F13.12
G0 Z0.2
Z-0.17
G1 Z-0.2812 F13.12
G0 Z0.2
Z-0.2012
G1 Z-0.3125 F13.12
G0 Z0.2
Z-0.2325
G1 Z-0.3437 F13.12
G0 Z0.2
Z-0.2637
G1 Z-0.375 F13.12
G0 Z0.2
Z-0.295
G1 Z-0.4062 F13.12
G0 Z0.2
Z-0.3262
G1 Z-0.4375 F13.12
G0 Z0.2
Z-0.3575
G1 Z-0.4687 F13.12
G0 Z0.2
Z-0.3887
G1 Z-0.5 F13.12
G0 Z0.2
X8.9375
Z0.08
G1 Z-0.0312 F13.12
G0 Z0.2
Z0.0488
G1 Z-0.0625 F13.12
G0 Z0.2
Z0.0175
G1 Z-0.0937 F13.12
G0 Z0.2
Z-0.0137
G1 Z-0.125 F13.12
G0 Z0.2
Z-0.045
G1 Z-0.1562 F13.12
G0 Z0.2
Z-0.0762
G1 Z-0.1875 F13.12
G0 Z0.2
Z-0.1075
G1 Z-0.2187 F13.12
G0 Z0.2
Z-0.1387
G1 Z-0.25 F13.12
G0 Z0.2
Z-0.17
G1 Z-0.2812 F13.12
G0 Z0.2
Z-0.2012
G1 Z-0.3125 F13.12
G0 Z0.2
Z-0.2325
G1 Z-0.3437 F13.12
G0 Z0.2
Z-0.2637
G1 Z-0.375 F13.12
G0 Z0.2
Z-0.295
G1 Z-0.4062 F13.12
G0 Z0.2
Z-0.3262
G1 Z-0.4375 F13.12
G0 Z0.2
Z-0.3575
G1 Z-0.4687 F13.12
G0 Z0.2
Z-0.3887
G1 Z-0.5 F13.12
G0 Z0.2
X8.4375
Z0.08
G1 Z-0.0312 F13.12
G0 Z0.2
Z0.0488
G1 Z-0.0625 F13.12
G0 Z0.2
Z0.0175
G1 Z-0.0937 F13.12
G0 Z0.2
Z-0.0137
G1 Z-0.125 F13.12
G0 Z0.2
Z-0.045
G1 Z-0.1562 F13.12
G0 Z0.2
Z-0.0762
G1 Z-0.1875 F13.12
G0 Z0.2
Z-0.1075
G1 Z-0.2187 F13.12
G0 Z0.2
Z-0.1387
G1 Z-0.25 F13.12
G0 Z0.2
Z-0.17
G1 Z-0.2812 F13.12
G0 Z0.2
Z-0.2012
G1 Z-0.3125 F13.12
G0 Z0.2
Z-0.2325
G1 Z-0.3437 F13.12
G0 Z0.2
Z-0.2637
G1 Z-0.375 F13.12
G0 Z0.2
Z-0.295
G1 Z-0.4062 F13.12
G0 Z0.2
Z-0.3262
G1 Z-0.4375 F13.12
G0 Z0.2
Z-0.3575
G1 Z-0.4687 F13.12
G0 Z0.2
Z-0.3887
G1 Z-0.5 F13.12
G0 Z0.2
X7.9375
Z0.08
G1 Z-0.0312 F13.12
G0 Z0.2
Z0.0488
G1 Z-0.0625 F13.12
G0 Z0.2
Z0.0175
G1 Z-0.0937 F13.12
G0 Z0.2
Z-0.0137
G1 Z-0.125 F13.12
G0 Z0.2
Z-0.045
G1 Z-0.1562 F13.12
G0 Z0.2
Z-0.0762
G1 Z-0.1875 F13.12
G0 Z0.2
Z-0.1075
G1 Z-0.2187 F13.12
G0 Z0.2
Z-0.1387
G1 Z-0.25 F13.12
G0 Z0.2
Z-0.17
G1 Z-0.2812 F13.12
G0 Z0.2
Z-0.2012
G1 Z-0.3125 F13.12
G0 Z0.2
Z-0.2325
G1 Z-0.3437 F13.12
G0 Z0.2
Z-0.2637
G1 Z-0.375 F13.12
G0 Z0.2
Z-0.295
G1 Z-0.4062 F13.12
G0 Z0.2
Z-0.3262
G1 Z-0.4375 F13.12
G0 Z0.2
Z-0.3575
G1 Z-0.4687 F13.12
G0 Z0.2
Z-0.3887
G1 Z-0.5 F13.12
G0 Z0.2
X7.4375
Z0.08
G1 Z-0.0312 F13.12
G0 Z0.2
Z0.0488
G1 Z-0.0625 F13.12
G0 Z0.2
Z0.0175
G1 Z-0.0937 F13.12
G0 Z0.2
Z-0.0137
G1 Z-0.125 F13.12
G0 Z0.2
Z-0.045
G1 Z-0.1562 F13.12
G0 Z0.2
Z-0.0762
G1 Z-0.1875 F13.12
G0 Z0.2
Z-0.1075
G1 Z-0.2187 F13.12
G0 Z0.2
Z-0.1387
G1 Z-0.25 F13.12
G0 Z0.2
Z-0.17
G1 Z-0.2812 F13.12
G0 Z0.2
Z-0.2012
G1 Z-0.3125 F13.12
G0 Z0.2
Z-0.2325
G1 Z-0.3437 F13.12
G0 Z0.2
Z-0.2637
G1 Z-0.375 F13.12
G0 Z0.2
Z-0.295
G1 Z-0.4062 F13.12
G0 Z0.2
Z-0.3262
G1 Z-0.4375 F13.12
G0 Z0.2
Z-0.3575
G1 Z-0.4687 F13.12
G0 Z0.2
Z-0.3887
G1 Z-0.5 F13.12
G0 Z0.2
Z0.6
M9
G28 G91 Z0
G28 X0 Y0
M30
%
