%
(ToolingHolder14Chamfer)
(T1  D=0.5 CR=0 TAPER=45deg - ZMIN=-0.08 - chamfer mill)
G90
G17
G20
G28 G91 Z0
G90

(2D Chamfer1 4)
M9
T1 M6
S5000 M3
G54
M9
G0 X6.51 Y2.6107
Z0.6
Z0.2
G1 Z0.08 F13.12
Z-0.08
X6.5599 F39.37
Y3.0099
X0.54
Y2.3401
X5.85
G2 X5.89 Y2.3 I0 J-0.0401
G1 Y1.1273
X6.5599
Y2.6107
X6.51
G0 Z0.2
X11.41 Y2.305
G1 Z0.08 F13.12
Z-0.08
X11.46 F39.37
Y3.0099
X6.89
Y1.6
X11.46
Y2.305
X11.41
G0 Z0.2
Y0.91
G1 Z0.08 F13.12
Z-0.08
X11.46 F39.37
G3 X10.7201 I-0.3699 J0
X11.46 I0.3699 J0
G1 X11.41
G0 Z0.2
X10.4099 Y0.9179
G1 Z0.08 F13.12
Z-0.08
X10.4598 Y0.9191 F39.37
G3 X9.72 Y0.91 I-0.3698 J-0.0091
X10.0945 Y0.5401 I0.37 J0
X10.4598 Y0.9191 I-0.0045 J0.3699
G1 X10.4099 Y0.9179
G0 Z0.2
X9.4099 Y0.91
G1 Z0.08 F13.12
Z-0.08
X9.46 F39.37
G3 X8.7201 I-0.3699 J0
X9.46 I0.3699 J0
G1 X9.4099
G0 Z0.2
X8.41
G1 Z0.08 F13.12
Z-0.08
X8.46 F39.37
G3 X7.72 I-0.37 J0
X8.09 Y0.54 I0.37 J0
X8.46 Y0.91 I0 J0.37
G1 X8.41
G0 Z0.2
X0.6 Y0.61
G1 Z0.08 F13.12
Z-0.08
Y0.6599 F39.37
X0.54
Y0.54
X6.7099
Y0.6599
X0.6
Y0.61
G0 Z0.2
X3.9099 Y1.05
G1 Z0.08 F13.12
Z-0.08
X3.96 F39.37
Y1.1099
X0.54
Y0.9901
X3.96
Y1.05
X3.9099
G0 Z0.2
X0.6 Y1.4901
G1 Z0.08 F13.12
Z-0.08
Y1.4401 F39.37
X3.2599
Y1.56
X0.54
Y1.4401
X0.6
Y1.4901
G0 Z0.2
X3.21 Y1.95
G1 Z0.08 F13.12
Z-0.08
X3.2599 F39.37
Y2.01
X0.54
Y1.8901
X3.2599
Y1.95
X3.21
G0 Z0.6
M9
G28 G91 Z0
G28 X0 Y0
M30
%
